; generated by Slic3r 1.3.0 on 2024-04-02 at 16:11:51

; external perimeters extrusion width = 0.44mm (3.38mm^3/s)
; perimeters extrusion width = 0.48mm (7.54mm^3/s)
; infill extrusion width = 0.48mm (10.05mm^3/s)
; solid infill extrusion width = 0.48mm (2.51mm^3/s)
; top infill extrusion width = 0.48mm (1.88mm^3/s)

M127
;
;
;- - - - SUMMARY - - - -
;
;first layer temperature = 219C
;temperature = 218C
;first layer bed temperature = 62C
;bed temperature = 60C
;
;first layer height = 0.4mm
;layer height = 0.3mm
;z_offset = 0mm
;perimeters = 3
;fill density = 30%
;infill every n layers = 1
;skirts = 1
;brim width = 0mm
;raft layers = 0
;support material = 0
;support material threshold = 60% degrees
;support material enforced for first n layers = 0
;support material extruder = 1
;
;first layer speed = 30
;perimeter speed = 60mm/s
;small perimeter speed = 15
;external perimeter speed = 50%
;infill speed = 80mm/s
;solid infill speed = 20
;top solid infill speed = 15
;support material speed = 60mm/s
;gap fill speed = 20mm/s
;travel speed = 130mm/s
;bridge speed = 60mm/s
;bridge flow ratio = 1
;slowdown if layer time is less than = 5secs
;minimum print speed = 10mm/s
;
;bottom solid layers = 3
;top solid layers = 3
;
;
;- - - - EXTRUSION - - - -
;
;filament diameter = 1.75mm
;nozzle diameter = 0.4mm
;bridge flow ratio = 1
;extrusion axis = E
;extrusion multiplier = 1
;extrusion width = 0mm
;first layer extrusion width = 200%mm
;perimeter extrusion width = 0mm
;infill extrusion width = 0mm
;solid infill extrusion width = 0mm
;top infill extrusion width = 0mm
;support material extrusion width = 0mm
;
;
;- - - - SUPPORT - - - -
;
;raft layers = 0
;brim width = 0mm
;support material = 0
;support material threshold = 60% degrees
;support material enforced for first n layers = 0
;support material extruder = 1
;support material extrusion width = 0mm
;support material interface layers = 3
;support material interface spacing = 0mm
;support material pattern = pillars
;support material angle = 0 degrees
;support material spacing = 2.5mm
;support material speed = 60mm/s
;
;
;- - - - EVERYTHING ELSE - - - -
;
;complete objects = 0
;cooling enabled = 1
;default acceleration = 0mm/s/s
;disable fan for first layers = 3
;duplicate = [duplicate]
;duplicate distance = 6mm
;duplicate grid = [duplicate_grid]
;external perimeters first = 0
;extra perimeters = 1
;extruder clearance height = 20mm
;extruder clearance radius = 20mm
;extruder offset = 0,0mm
;fan always on = 0
;fan below layer time = 60secs
;fill angle = 45 degrees
;fill pattern = rectilinear
;gcode arcs = 0
;gcode comments = 0
;gcode flavor = sailfish
;infill acceleration = 0mm/s/s
;infill extruder = 1
;infill first = 0
;infill only where needed = 0
;minimum skirt length = 0mm
;only retract when crossing perimeters = 1
;perimeter acceleration = 0mm/s/s
;perimeter extruder = 1
;randomize start = [randomize_start]
;resolution = 0mm
;retract before travel = 2
;retract on layer change = 0
;retract length = 2mm
;retract length on tool change = 10mm
;retract lift = 0
;retract extra distance on restart = 0mm
;retract extra on tool change = 0mm
;retract speed = 40mm/s
;rotate = [rotate] degrees
;scale = 100%
;skirt distance = 6mm
;skirt height = 1mm
;solid fill pattern = [solid_fill_pattern]
;solid infill below area = 70mm (sq)
;solid infill every n layers = 0
;
;
;- - - - - - - - - - - - - - - - - - - - - - - - -
;
;
T0; set primary extruder
M73 P0; enable show build progress
;M109 S62 T0; heat bed up to first layer temperature
M140 S62 T0; heat bed up to first layer temperature
M104 S219 T0; set nozzle heater to first layer temperature
M103; disable RPM
G21; set units to mm
G162 X Y F6000; home XY axes maximum
G161 Z F9000; home Z axis minimum
G92 Z0; set Z to 0
M132 X Y Z A B; Recall stored home offsets
G90; set positioning to absolute
G1 Z30; move Z to waiting height
G1 X-95 Y-73 Z30 F14000; move to waiting position (front left corner of print bed)
G130 X0 Y0 A0 B0; set stepper motor vref to lower value while heating
M6 T0; wait for bed and extruder to heat up
G130 X127 Y127 A127 B127; set stepper motor vref to defaults
M108 T0 R3; set extruder speed
G92 E0; set E to 0
G90; use absolute coordinates
M320; acceleration enabled for all commands that follow
G1 Z0.4 F6000.000; move to first layer height
G1 X100 Y-73 F14000.000; move to front right corner of bed
G1 X-90 Y-73 E24 F2000.000; extrude a line of filament across the front edge of the bed
G4 P2000; wait for ooze to slow
G1 Z0 F6000.000; lower nozzle height to 0
G1 X-95; wipe nozzle
G1 Z0.4 F6000.000; set nozzle to first layer height
G1 F12000; ensure fast travel to first print move
G92 E0; set E to 0 again
M73 P0; reset build progress to 0
; Filament gcode

G21 ; set units to millimeters
G90 ; use absolute coordinates
M73 P0
G1 Z0.400 F7800.000
G1 E-2.00000 F2400.00000
G1 X35.000 Y39.714 F7800.000
G1 E0.00000 F2400.00000
G1 F1800
G1 X-35.000 Y39.714 E8.31356
G1 X-35.527 Y39.693 E8.37616
G1 X-35.925 Y39.662 E8.42357
G1 X-36.959 Y39.498 E8.54790
G1 X-37.343 Y39.406 E8.59487
G1 X-38.342 Y39.081 E8.71961
G1 X-38.704 Y38.931 E8.76621
G1 X-39.643 Y38.452 E8.89133
G1 X-39.981 Y38.245 E8.93835
G1 X-40.830 Y37.628 E9.06307
G1 X-41.128 Y37.373 E9.10966
G1 X-41.873 Y36.628 E9.23476
G1 X-42.128 Y36.330 E9.28135
G1 X-42.747 Y35.478 E9.40649
G1 X-42.952 Y35.143 E9.45308
G1 X-43.431 Y34.204 E9.57822
G1 X-43.581 Y33.841 E9.62486
G1 X-43.906 Y32.840 E9.74993
G1 X-43.998 Y32.458 E9.79654
G1 X-44.163 Y31.418 E9.92165
G1 X-44.214 Y30.500 E10.03083
G1 X-44.214 Y-30.500 E17.27551
G1 X-44.163 Y-31.418 E17.38469
G1 X-43.998 Y-32.458 E17.50982
G1 X-43.906 Y-32.840 E17.55647
G1 X-43.581 Y-33.842 E17.68153
G1 X-43.430 Y-34.206 E17.72830
G1 X-42.952 Y-35.143 E17.85326
G1 X-42.749 Y-35.476 E17.89957
G1 X-42.128 Y-36.330 E18.02497
G1 X-41.873 Y-36.628 E18.07156
G1 X-41.128 Y-37.373 E18.19670
G1 X-40.830 Y-37.628 E18.24329
G1 X-39.978 Y-38.247 E18.36841
G1 X-39.643 Y-38.452 E18.41500
G1 X-38.704 Y-38.931 E18.54014
G1 X-38.340 Y-39.081 E18.58691
G1 X-37.340 Y-39.406 E18.71185
G1 X-36.958 Y-39.498 E18.75854
G1 X-35.918 Y-39.663 E18.88357
G1 X-35.000 Y-39.714 E18.99275
G1 X35.000 Y-39.714 E27.30632
G1 X35.919 Y-39.663 E27.41568
G1 X36.958 Y-39.498 E27.54062
G1 X37.340 Y-39.406 E27.58721
G1 X38.342 Y-39.081 E27.71235
G1 X38.704 Y-38.931 E27.75894
G1 X39.643 Y-38.452 E27.88406
G1 X39.980 Y-38.246 E27.93103
G1 X40.830 Y-37.628 E28.05577
G1 X41.128 Y-37.373 E28.10236
G1 X41.873 Y-36.628 E28.22752
G1 X42.128 Y-36.330 E28.27414
G1 X42.747 Y-35.478 E28.39920
G1 X42.951 Y-35.145 E28.44551
G1 X43.431 Y-34.204 E28.57095
G1 X43.581 Y-33.842 E28.61754
G1 X43.906 Y-32.840 E28.74266
G1 X43.999 Y-32.452 E28.79000
G1 X44.163 Y-31.418 E28.91437
G1 X44.214 Y-30.500 E29.02356
G1 X44.214 Y30.500 E36.26824
G1 X44.163 Y31.418 E36.37743
G1 X43.998 Y32.458 E36.50254
G1 X43.906 Y32.840 E36.54913
G1 X43.581 Y33.842 E36.67425
G1 X43.429 Y34.209 E36.72147
G1 X42.952 Y35.143 E36.84601
G1 X42.747 Y35.478 E36.89260
G1 X42.128 Y36.330 E37.01771
G1 X41.873 Y36.628 E37.06430
G1 X41.128 Y37.373 E37.18942
G1 X40.830 Y37.628 E37.23602
G1 X39.978 Y38.247 E37.36115
G1 X39.643 Y38.452 E37.40774
G1 X38.704 Y38.931 E37.53286
G1 X38.335 Y39.083 E37.58029
G1 X37.340 Y39.406 E37.70458
G1 X36.959 Y39.498 E37.75117
G1 X35.918 Y39.663 E37.87631
G1 X35.060 Y39.712 E37.97836
G1 E35.97836 F2400.00000
G1 X-15.320 Y6.714 F7800.000
G1 E37.97836 F2400.00000
G1 F1800
G1 X-15.320 Y7.696 E38.09500
G1 X-15.555 Y9.069 E38.26038
G1 X-16.019 Y10.382 E38.42576
G1 X-16.698 Y11.597 E38.59114
G1 X-17.573 Y12.681 E38.75652
G1 X-18.618 Y13.601 E38.92190
G1 X-19.774 Y14.312 E39.08310
G1 X-21.092 Y14.849 E39.25210
G1 X-22.457 Y15.143 E39.41800
G1 X-23.848 Y15.203 E39.58338
G1 X-25.230 Y15.026 E39.74876
G1 X-26.561 Y14.618 E39.91414
G1 X-27.805 Y13.991 E40.07952
G1 X-28.896 Y13.184 E40.24072
G1 X-29.885 Y12.161 E40.40972
G1 X-30.667 Y11.004 E40.57561
G1 X-31.241 Y9.735 E40.74099
G1 X-31.592 Y8.387 E40.90637
G1 X-31.710 Y7.000 E41.07175
G1 X-31.592 Y5.613 E41.23713
G1 X-31.241 Y4.265 E41.40251
G1 X-30.667 Y2.996 E41.56789
G1 X-29.888 Y1.842 E41.73327
G1 X-28.924 Y0.837 E41.89865
G1 X-27.805 Y0.009 E42.06403
G1 X-26.561 Y-0.618 E42.22941
G1 X-25.230 Y-1.026 E42.39480
G1 X-23.883 Y-1.198 E42.55599
G1 X-22.461 Y-1.144 E42.72499
G1 X-21.096 Y-0.850 E42.89089
G1 X-19.804 Y-0.331 E43.05627
G1 X-18.618 Y0.399 E43.22165
G1 X-17.570 Y1.322 E43.38749
G1 X-16.673 Y2.442 E43.55793
G1 X-16.018 Y3.620 E43.71799
G1 X-15.555 Y4.931 E43.88315
G1 X-15.320 Y6.304 E44.04853
G1 X-15.320 Y6.654 E44.09014
G1 X-16.034 Y6.714 F7800.000
G1 F1800
G1 X-16.034 Y7.635 E44.19956
G1 X-16.249 Y8.888 E44.35050
G1 X-16.672 Y10.086 E44.50145
G1 X-17.292 Y11.196 E44.65239
G1 X-18.090 Y12.185 E44.80333
G1 X-19.044 Y13.024 E44.95428
G1 X-20.098 Y13.673 E45.10124
G1 X-21.303 Y14.164 E45.25580
G1 X-22.548 Y14.432 E45.40705
G1 X-23.818 Y14.486 E45.55799
G1 X-25.079 Y14.325 E45.70894
G1 X-26.294 Y13.953 E45.85988
G1 X-27.429 Y13.381 E46.01082
G1 X-28.424 Y12.645 E46.15778
G1 X-29.328 Y11.710 E46.31234
G1 X-30.042 Y10.654 E46.46360
G1 X-30.565 Y9.496 E46.61454
G1 X-30.885 Y8.266 E46.76549
G1 X-30.993 Y7.000 E46.91643
G1 X-30.885 Y5.734 E47.06737
G1 X-30.565 Y4.504 E47.21831
G1 X-30.042 Y3.346 E47.36926
G1 X-29.330 Y2.293 E47.52020
G1 X-28.451 Y1.375 E47.67114
G1 X-27.429 Y0.619 E47.82208
G1 X-26.294 Y0.047 E47.97303
G1 X-25.079 Y-0.325 E48.12397
G1 X-23.851 Y-0.482 E48.27093
G1 X-22.551 Y-0.433 E48.42549
G1 X-21.306 Y-0.165 E48.57675
G1 X-20.127 Y0.309 E48.72769
G1 X-19.044 Y0.975 E48.87863
G1 X-18.088 Y1.817 E49.02986
G1 X-17.268 Y2.842 E49.18577
G1 X-16.672 Y3.915 E49.33157
G1 X-16.249 Y5.112 E49.48238
G1 X-16.034 Y6.365 E49.63332
G1 X-16.034 Y6.654 E49.66772
G1 X-16.748 Y6.714 F7800.000
G1 F1800
G1 X-16.748 Y7.575 E49.76992
G1 X-16.942 Y8.708 E49.90642
G1 X-17.325 Y9.791 E50.04293
G1 X-17.886 Y10.795 E50.17943
G1 X-18.608 Y11.689 E50.31593
G1 X-19.471 Y12.448 E50.45244
G1 X-20.422 Y13.034 E50.58516
G1 X-21.515 Y13.479 E50.72528
G1 X-22.639 Y13.722 E50.86190
G1 X-23.788 Y13.770 E50.99841
G1 X-24.928 Y13.624 E51.13491
G1 X-26.027 Y13.288 E51.27142
G1 X-27.053 Y12.770 E51.40792
G1 X-27.951 Y12.106 E51.54064
G1 X-28.772 Y11.258 E51.68077
G1 X-29.416 Y10.305 E51.81738
G1 X-29.889 Y9.258 E51.95389
G1 X-30.179 Y8.145 E52.09039
G1 X-30.276 Y7.000 E52.22690
G1 X-30.179 Y5.855 E52.36340
G1 X-29.889 Y4.742 E52.49991
G1 X-29.416 Y3.695 E52.63641
G1 X-28.772 Y2.743 E52.77292
G1 X-27.977 Y1.913 E52.90942
G1 X-27.053 Y1.230 E53.04592
G1 X-26.027 Y0.712 E53.18243
G1 X-24.928 Y0.376 E53.31893
G1 X-23.819 Y0.234 E53.45166
G1 X-22.640 Y0.278 E53.59178
G1 X-21.516 Y0.521 E53.72840
G1 X-20.449 Y0.949 E53.86490
G1 X-19.471 Y1.552 E54.00141
G1 X-18.607 Y2.312 E54.13801
G1 X-17.863 Y3.241 E54.27940
G1 X-17.325 Y4.209 E54.41094
G1 X-16.942 Y5.292 E54.54740
G1 X-16.748 Y6.425 E54.68390
G1 X-16.748 Y6.654 E54.71108
G1 X-16.393 Y6.898 F7800.000
G1 E52.71108 F2400.00000
G1 X15.290 Y7.000 F7800.000
G1 E54.71108 F2400.00000
G1 F1800
G1 X15.408 Y5.613 E54.87646
G1 X15.759 Y4.265 E55.04184
G1 X16.333 Y2.996 E55.20722
G1 X17.112 Y1.842 E55.37261
G1 X18.076 Y0.837 E55.53798
G1 X19.195 Y0.009 E55.70337
G1 X20.439 Y-0.618 E55.86875
G1 X21.770 Y-1.026 E56.03413
G1 X23.067 Y-1.192 E56.18943
G1 X24.533 Y-1.146 E56.36357
G1 X25.904 Y-0.850 E56.53015
G1 X27.196 Y-0.331 E56.69553
G1 X28.382 Y0.399 E56.86091
G1 X29.427 Y1.319 E57.02629
G1 X30.302 Y2.403 E57.19167
G1 X30.981 Y3.618 E57.35705
G1 X31.445 Y4.931 E57.52244
G1 X31.680 Y6.304 E57.68782
G1 X31.680 Y7.696 E57.85320
G1 X31.445 Y9.069 E58.01858
G1 X30.981 Y10.382 E58.18396
G1 X30.302 Y11.597 E58.34934
G1 X29.427 Y12.681 E58.51472
G1 X28.382 Y13.601 E58.68010
G1 X27.226 Y14.312 E58.84130
G1 X25.908 Y14.849 E59.01030
G1 X24.543 Y15.143 E59.17619
G1 X23.152 Y15.203 E59.34157
G1 X21.770 Y15.026 E59.50695
G1 X20.439 Y14.618 E59.67233
G1 X19.195 Y13.991 E59.83771
G1 X18.076 Y13.163 E60.00309
G1 X17.119 Y12.165 E60.16734
G1 X16.332 Y11.003 E60.33395
G1 X15.759 Y9.735 E60.49922
G1 X15.408 Y8.387 E60.66460
G1 X15.295 Y7.060 E60.82285
G1 X16.007 Y7.000 F7800.000
G1 F1800
G1 X16.115 Y5.734 E60.97380
G1 X16.435 Y4.504 E61.12474
G1 X16.958 Y3.346 E61.27568
G1 X17.670 Y2.293 E61.42662
G1 X18.549 Y1.375 E61.57757
G1 X19.571 Y0.619 E61.72851
G1 X20.706 Y0.047 E61.87945
G1 X21.921 Y-0.325 E62.03039
G1 X23.102 Y-0.476 E62.17172
G1 X24.446 Y-0.434 E62.33143
G1 X25.694 Y-0.165 E62.48310
G1 X26.873 Y0.309 E62.63405
G1 X27.956 Y0.975 E62.78499
G1 X28.910 Y1.815 E62.93593
G1 X29.708 Y2.804 E63.08687
G1 X30.328 Y3.914 E63.23782
G1 X30.751 Y5.112 E63.38876
G1 X30.966 Y6.365 E63.53970
G1 X30.966 Y7.635 E63.69064
G1 X30.751 Y8.888 E63.84159
G1 X30.328 Y10.086 E63.99253
G1 X29.708 Y11.196 E64.14347
G1 X28.910 Y12.185 E64.29442
G1 X27.956 Y13.024 E64.44536
G1 X26.902 Y13.673 E64.59232
G1 X25.697 Y14.164 E64.74688
G1 X24.452 Y14.432 E64.89813
G1 X23.182 Y14.486 E65.04908
G1 X21.921 Y14.325 E65.20002
G1 X20.706 Y13.953 E65.35096
G1 X19.571 Y13.381 E65.50191
G1 X18.549 Y12.625 E65.65285
G1 X17.674 Y11.712 E65.80310
G1 X16.958 Y10.654 E65.95479
G1 X16.435 Y9.496 E66.10567
G1 X16.115 Y8.266 E66.25661
G1 X16.012 Y7.060 E66.40042
G1 X16.724 Y7.000 F7800.000
G1 F1800
G1 X16.821 Y5.855 E66.53693
G1 X17.111 Y4.742 E66.67343
G1 X17.584 Y3.695 E66.80994
G1 X18.228 Y2.743 E66.94644
G1 X19.023 Y1.913 E67.08295
G1 X19.947 Y1.230 E67.21945
G1 X20.973 Y0.712 E67.35596
G1 X22.072 Y0.376 E67.49246
G1 X23.136 Y0.239 E67.61982
G1 X24.359 Y0.278 E67.76509
G1 X25.484 Y0.521 E67.90186
G1 X26.551 Y0.949 E68.03836
G1 X27.529 Y1.552 E68.17487
G1 X28.392 Y2.311 E68.31137
G1 X29.114 Y3.205 E68.44787
G1 X29.675 Y4.209 E68.58438
G1 X30.058 Y5.292 E68.72088
G1 X30.252 Y6.425 E68.85739
G1 X30.252 Y7.575 E68.99389
G1 X30.058 Y8.708 E69.13040
G1 X29.675 Y9.791 E69.26690
G1 X29.114 Y10.795 E69.40341
G1 X28.392 Y11.689 E69.53991
G1 X27.530 Y12.448 E69.67642
G1 X26.578 Y13.034 E69.80914
G1 X25.485 Y13.479 E69.94926
G1 X24.361 Y13.722 E70.08588
G1 X23.212 Y13.770 E70.22238
G1 X22.072 Y13.624 E70.35889
G1 X20.973 Y13.288 E70.49539
G1 X19.947 Y12.770 E70.63190
G1 X19.023 Y12.087 E70.76840
G1 X18.229 Y11.259 E70.90466
G1 X17.584 Y10.305 E71.04143
G1 X17.111 Y9.258 E71.17791
G1 X16.821 Y8.145 E71.31442
G1 X16.729 Y7.060 E71.44379
G1 X16.724 Y7.000 F7800.000
G1 E69.44379 F2400.00000
G1 X35.471 Y30.971 F7800.000
G1 E71.44379 F2400.00000
G1 F1800
G1 X35.391 Y31.039 E71.45621
G1 X35.207 Y31.133 E71.48078
G1 X34.928 Y31.172 E71.51424
G1 X-34.928 Y31.172 E79.81074
G1 X-35.206 Y31.133 E79.84402
G1 X-35.302 Y31.093 E79.85644
G1 X-35.471 Y30.971 E79.88118
G1 X-35.539 Y30.891 E79.89360
G1 X-35.633 Y30.706 E79.91834
G1 X-35.672 Y30.428 E79.95163
G1 X-35.672 Y-30.428 E87.17924
G1 X-35.633 Y-30.706 E87.21253
G1 X-35.538 Y-30.892 E87.23738
G1 X-35.471 Y-30.971 E87.24969
G1 X-35.302 Y-31.093 E87.27444
G1 X-35.206 Y-31.133 E87.28685
G1 X-34.927 Y-31.172 E87.32024
G1 X34.928 Y-31.172 E95.61663
G1 X35.207 Y-31.133 E95.65002
G1 X35.391 Y-31.039 E95.67467
G1 X35.471 Y-30.971 E95.68708
G1 X35.593 Y-30.802 E95.71183
G1 X35.633 Y-30.706 E95.72424
G1 X35.672 Y-30.427 E95.75763
G1 X35.672 Y30.428 E102.98514
G1 X35.633 Y30.706 E103.01843
G1 X35.510 Y30.925 E103.04834
G1 X36.014 Y31.435 F7800.000
G1 F1800
G1 X35.813 Y31.618 E103.08071
G1 X35.628 Y31.732 E103.10647
G1 X35.429 Y31.814 E103.13202
G1 X35.216 Y31.865 E103.15806
G1 X34.956 Y31.886 E103.18897
G1 X-34.956 Y31.886 E111.49214
G1 X-35.216 Y31.865 E111.52311
G1 X-35.427 Y31.815 E111.54888
G1 X-35.628 Y31.732 E111.57464
G1 X-35.813 Y31.618 E111.60040
G1 X-35.978 Y31.477 E111.62617
G1 X-36.118 Y31.313 E111.65193
G1 X-36.232 Y31.128 E111.67769
G1 X-36.315 Y30.927 E111.70345
G1 X-36.365 Y30.716 E111.72922
G1 X-36.386 Y30.456 E111.76020
G1 X-36.386 Y-30.456 E118.99447
G1 X-36.365 Y-30.716 E119.02545
G1 X-36.315 Y-30.927 E119.05122
G1 X-36.232 Y-31.126 E119.07676
G1 X-36.118 Y-31.313 E119.10280
G1 X-35.978 Y-31.478 E119.12850
G1 X-35.813 Y-31.618 E119.15426
G1 X-35.628 Y-31.732 E119.18003
G1 X-35.427 Y-31.815 E119.20579
G1 X-35.218 Y-31.865 E119.23133
G1 X-34.956 Y-31.886 E119.26259
