; generated by Slic3r 1.3.0 on 2024-04-04 at 17:04:07

; external perimeters extrusion width = 0.44mm (3.38mm^3/s)
; perimeters extrusion width = 0.48mm (7.54mm^3/s)
; infill extrusion width = 0.48mm (10.05mm^3/s)
; solid infill extrusion width = 0.48mm (2.51mm^3/s)
; top infill extrusion width = 0.48mm (1.88mm^3/s)

M127
;
;
;- - - - SUMMARY - - - -
;
;first layer temperature = 217C
;temperature = 216C
;first layer bed temperature = 62C
;bed temperature = 61C
;
;first layer height = 0.4mm
;layer height = 0.3mm
;z_offset = 0mm
;perimeters = 3
;fill density = 30%
;infill every n layers = 1
;skirts = 1
;brim width = 0mm
;raft layers = 0
;support material = 0
;support material threshold = 60% degrees
;support material enforced for first n layers = 0
;support material extruder = 1
;
;first layer speed = 30
;perimeter speed = 60mm/s
;small perimeter speed = 15
;external perimeter speed = 50%
;infill speed = 80mm/s
;solid infill speed = 20
;top solid infill speed = 15
;support material speed = 60mm/s
;gap fill speed = 20mm/s
;travel speed = 130mm/s
;bridge speed = 60mm/s
;bridge flow ratio = 1
;slowdown if layer time is less than = 5secs
;minimum print speed = 10mm/s
;
;bottom solid layers = 3
;top solid layers = 3
;
;
;- - - - EXTRUSION - - - -
;
;filament diameter = 1.75mm
;nozzle diameter = 0.4mm
;bridge flow ratio = 1
;extrusion axis = E
;extrusion multiplier = 1
;extrusion width = 0mm
;first layer extrusion width = 200%mm
;perimeter extrusion width = 0mm
;infill extrusion width = 0mm
;solid infill extrusion width = 0mm
;top infill extrusion width = 0mm
;support material extrusion width = 0mm
;
;
;- - - - SUPPORT - - - -
;
;raft layers = 0
;brim width = 0mm
;support material = 0
;support material threshold = 60% degrees
;support material enforced for first n layers = 0
;support material extruder = 1
;support material extrusion width = 0mm
;support material interface layers = 3
;support material interface spacing = 0mm
;support material pattern = pillars
;support material angle = 0 degrees
;support material spacing = 2.5mm
;support material speed = 60mm/s
;
;
;- - - - EVERYTHING ELSE - - - -
;
;complete objects = 0
;cooling enabled = 1
;default acceleration = 0mm/s/s
;disable fan for first layers = 3
;duplicate = [duplicate]
;duplicate distance = 6mm
;duplicate grid = [duplicate_grid]
;external perimeters first = 0
;extra perimeters = 1
;extruder clearance height = 20mm
;extruder clearance radius = 20mm
;extruder offset = 0,0mm
;fan always on = 0
;fan below layer time = 60secs
;fill angle = 45 degrees
;fill pattern = rectilinear
;gcode arcs = 0
;gcode comments = 0
;gcode flavor = sailfish
;infill acceleration = 0mm/s/s
;infill extruder = 1
;infill first = 0
;infill only where needed = 0
;minimum skirt length = 0mm
;only retract when crossing perimeters = 1
;perimeter acceleration = 0mm/s/s
;perimeter extruder = 1
;randomize start = [randomize_start]
;resolution = 0mm
;retract before travel = 2
;retract on layer change = 0
;retract length = 2mm
;retract length on tool change = 10mm
;retract lift = 0
;retract extra distance on restart = 0mm
;retract extra on tool change = 0mm
;retract speed = 40mm/s
;rotate = [rotate] degrees
;scale = 100%
;skirt distance = 6mm
;skirt height = 1mm
;solid fill pattern = [solid_fill_pattern]
;solid infill below area = 70mm (sq)
;solid infill every n layers = 0
;
;
;- - - - - - - - - - - - - - - - - - - - - - - - -
;
;
T0; set primary extruder
M73 P0; enable show build progress
;M109 S62 T0; heat bed up to first layer temperature
M140 S62 T0; heat bed up to first layer temperature
M104 S217 T0; set nozzle heater to first layer temperature
M103; disable RPM
G21; set units to mm
G162 X Y F6000; home XY axes maximum
G161 Z F9000; home Z axis minimum
G92 Z0; set Z to 0
M132 X Y Z A B; Recall stored home offsets
G90; set positioning to absolute
G1 Z30; move Z to waiting height
G1 X-95 Y-73 Z30 F14000; move to waiting position (front left corner of print bed)
G130 X0 Y0 A0 B0; set stepper motor vref to lower value while heating
M6 T0; wait for bed and extruder to heat up
G130 X127 Y127 A127 B127; set stepper motor vref to defaults
M108 T0 R3; set extruder speed
G92 E0; set E to 0
G90; use absolute coordinates
M320; acceleration enabled for all commands that follow
G1 Z0.4 F6000.000; move to first layer height
G1 X100 Y-73 F14000.000; move to front right corner of bed
G1 X-90 Y-73 E24 F2000.000; extrude a line of filament across the front edge of the bed
G4 P2000; wait for ooze to slow
G1 Z0 F6000.000; lower nozzle height to 0
G1 X-95; wipe nozzle
G1 Z0.4 F6000.000; set nozzle to first layer height
G1 F12000; ensure fast travel to first print move
G92 E0; set E to 0 again
M73 P0; reset build progress to 0
; Filament gcode

G21 ; set units to millimeters
G90 ; use absolute coordinates
M73 P0
G1 Z0.400 F7800.000
G1 E-2.00000 F2400.00000
G1 X34.500 Y-26.714 F7800.000
G1 E0.00000 F2400.00000
G1 F1800
G1 X35.418 Y-26.663 E0.10918
G1 X36.458 Y-26.498 E0.23431
G1 X36.844 Y-26.405 E0.28135
G1 X37.842 Y-26.081 E0.40603
G1 X38.204 Y-25.931 E0.45262
G1 X39.143 Y-25.452 E0.57774
G1 X39.475 Y-25.249 E0.62404
G1 X40.330 Y-24.628 E0.74947
G1 X40.630 Y-24.372 E0.79627
G1 X41.373 Y-23.628 E0.92119
G1 X41.628 Y-23.330 E0.96778
G1 X42.247 Y-22.478 E1.09290
G1 X42.453 Y-22.142 E1.13971
G1 X42.931 Y-21.204 E1.26463
G1 X43.082 Y-20.838 E1.31170
G1 X43.406 Y-19.840 E1.43634
G1 X43.498 Y-19.459 E1.48293
G1 X43.663 Y-18.418 E1.60807
G1 X43.714 Y-17.500 E1.71725
G1 X43.714 Y17.500 E5.87403
G1 X43.663 Y18.418 E5.98321
G1 X43.498 Y19.459 E6.10835
G1 X43.404 Y19.847 E6.15585
G1 X43.081 Y20.842 E6.28005
G1 X42.931 Y21.204 E6.32664
G1 X42.452 Y22.143 E6.45178
G1 X42.247 Y22.478 E6.49837
G1 X41.628 Y23.330 E6.62350
G1 X41.373 Y23.628 E6.67009
G1 X40.628 Y24.373 E6.79522
G1 X40.332 Y24.626 E6.84152
G1 X39.478 Y25.247 E6.96695
G1 X39.143 Y25.452 E7.01354
G1 X38.204 Y25.931 E7.13865
G1 X37.842 Y26.081 E7.18524
G1 X36.840 Y26.406 E7.31038
G1 X36.456 Y26.499 E7.35732
G1 X35.418 Y26.663 E7.48209
G1 X34.500 Y26.714 E7.59128
G1 X-34.500 Y26.714 E15.78607
G1 X-35.418 Y26.663 E15.89526
G1 X-36.458 Y26.498 E16.02038
G1 X-36.840 Y26.406 E16.06697
G1 X-37.842 Y26.081 E16.19210
G1 X-38.210 Y25.928 E16.23941
G1 X-39.143 Y25.452 E16.36382
G1 X-39.478 Y25.247 E16.41041
G1 X-40.330 Y24.628 E16.53554
G1 X-40.628 Y24.373 E16.58217
G1 X-41.373 Y23.628 E16.70727
G1 X-41.628 Y23.330 E16.75386
G1 X-42.247 Y22.478 E16.87898
G1 X-42.454 Y22.140 E16.92595
G1 X-42.931 Y21.204 E17.05071
G1 X-43.081 Y20.841 E17.09740
G1 X-43.406 Y19.840 E17.22242
G1 X-43.498 Y19.458 E17.26901
G1 X-43.663 Y18.418 E17.39414
G1 X-43.714 Y17.500 E17.50332
G1 X-43.714 Y-17.500 E21.66010
G1 X-43.693 Y-18.027 E21.72272
G1 X-43.663 Y-18.420 E21.76952
G1 X-43.498 Y-19.458 E21.89443
G1 X-43.405 Y-19.844 E21.94147
G1 X-43.081 Y-20.842 E22.06615
G1 X-42.931 Y-21.203 E22.11257
G1 X-42.452 Y-22.143 E22.23787
G1 X-42.247 Y-22.478 E22.28447
G1 X-41.628 Y-23.330 E22.40959
G1 X-41.372 Y-23.630 E22.45643
G1 X-40.628 Y-24.373 E22.58131
G1 X-40.332 Y-24.626 E22.62761
G1 X-39.478 Y-25.247 E22.75303
G1 X-39.143 Y-25.452 E22.79962
G1 X-38.204 Y-25.931 E22.92475
G1 X-37.838 Y-26.082 E22.97182
G1 X-36.840 Y-26.406 E23.09647
G1 X-36.458 Y-26.498 E23.14306
G1 X-35.418 Y-26.663 E23.26819
G1 X-34.500 Y-26.714 E23.37737
G1 X34.440 Y-26.714 E31.56504
G1 E29.56504 F2400.00000
G1 X-20.439 Y-7.618 F7800.000
G1 E31.56504 F2400.00000
G1 F1800
G1 X-19.195 Y-6.991 E31.73042
G1 X-18.076 Y-6.163 E31.89580
G1 X-17.112 Y-5.158 E32.06118
G1 X-16.333 Y-4.004 E32.22657
G1 X-15.759 Y-2.735 E32.39195
G1 X-15.421 Y-1.435 E32.55148
G1 X-15.290 Y-0.006 E32.72193
G1 X-15.408 Y1.387 E32.88802
G1 X-15.759 Y2.735 E33.05340
G1 X-16.333 Y4.004 E33.21878
G1 X-17.112 Y5.158 E33.38416
G1 X-18.042 Y6.127 E33.54369
G1 X-19.190 Y6.988 E33.71414
G1 X-20.439 Y7.618 E33.88023
G1 X-21.770 Y8.026 E34.04561
G1 X-23.152 Y8.203 E34.21099
G1 X-24.543 Y8.143 E34.37637
G1 X-25.904 Y7.850 E34.54175
G1 X-27.196 Y7.331 E34.70713
G1 X-28.382 Y6.601 E34.87251
G1 X-29.427 Y5.681 E35.03790
G1 X-30.302 Y4.597 E35.20328
G1 X-30.981 Y3.382 E35.36866
G1 X-31.445 Y2.069 E35.53404
G1 X-31.674 Y0.735 E35.69478
G1 X-31.704 Y0.011 E35.78079
G1 X-31.674 Y-0.733 E35.86929
G1 X-31.445 Y-2.069 E36.03020
G1 X-30.981 Y-3.382 E36.19558
G1 X-30.302 Y-4.597 E36.36096
G1 X-29.427 Y-5.681 E36.52634
G1 X-28.382 Y-6.601 E36.69172
G1 X-27.196 Y-7.331 E36.85710
G1 X-25.904 Y-7.850 E37.02248
G1 X-24.543 Y-8.143 E37.18786
G1 X-23.174 Y-8.202 E37.35058
G1 X-21.773 Y-8.026 E37.51826
G1 X-20.496 Y-7.635 E37.67685
G1 X-20.706 Y-6.953 F7800.000
G1 F1800
G1 X-19.571 Y-6.381 E37.82779
G1 X-18.549 Y-5.625 E37.97873
G1 X-17.670 Y-4.707 E38.12968
G1 X-16.958 Y-3.654 E38.28062
G1 X-16.435 Y-2.496 E38.43156
G1 X-16.126 Y-1.312 E38.57693
G1 X-16.007 Y-0.004 E38.73294
G1 X-16.115 Y1.266 E38.88432
G1 X-16.435 Y2.496 E39.03526
G1 X-16.958 Y3.654 E39.18620
G1 X-17.670 Y4.707 E39.33715
G1 X-18.517 Y5.591 E39.48252
G1 X-19.568 Y6.379 E39.63853
G1 X-20.706 Y6.953 E39.78990
G1 X-21.921 Y7.325 E39.94085
G1 X-23.182 Y7.486 E40.09179
G1 X-24.452 Y7.432 E40.24273
G1 X-25.694 Y7.165 E40.39367
G1 X-26.873 Y6.691 E40.54462
G1 X-27.956 Y6.024 E40.69556
G1 X-28.910 Y5.185 E40.84650
G1 X-29.708 Y4.196 E40.99744
G1 X-30.328 Y3.086 E41.14839
G1 X-30.751 Y1.888 E41.29933
G1 X-30.962 Y0.659 E41.44745
G1 X-30.990 Y0.011 E41.52450
G1 X-30.962 Y-0.658 E41.60399
G1 X-30.751 Y-1.888 E41.75221
G1 X-30.328 Y-3.086 E41.90316
G1 X-29.708 Y-4.196 E42.05410
G1 X-28.910 Y-5.185 E42.20504
G1 X-27.956 Y-6.025 E42.35598
G1 X-26.873 Y-6.691 E42.50693
G1 X-25.694 Y-7.165 E42.65787
G1 X-24.452 Y-7.432 E42.80881
G1 X-23.203 Y-7.486 E42.95722
G1 X-21.923 Y-7.326 E43.11046
G1 X-20.763 Y-6.970 E43.25448
G1 X-20.973 Y-6.288 F7800.000
G1 F1800
G1 X-19.947 Y-5.770 E43.39099
G1 X-19.023 Y-5.087 E43.52749
G1 X-18.228 Y-4.257 E43.66399
G1 X-17.584 Y-3.305 E43.80050
G1 X-17.111 Y-2.258 E43.93700
G1 X-16.832 Y-1.188 E44.06822
G1 X-16.723 Y-0.001 E44.20979
G1 X-16.821 Y1.145 E44.34645
G1 X-17.111 Y2.258 E44.48295
G1 X-17.584 Y3.305 E44.61946
G1 X-18.228 Y4.257 E44.75596
G1 X-18.992 Y5.055 E44.88717
G1 X-19.946 Y5.770 E45.02874
G1 X-20.973 Y6.288 E45.16540
G1 X-22.072 Y6.624 E45.30191
G1 X-23.212 Y6.770 E45.43841
G1 X-24.361 Y6.722 E45.57492
G1 X-25.484 Y6.479 E45.71142
G1 X-26.551 Y6.051 E45.84793
G1 X-27.530 Y5.448 E45.98443
G1 X-28.392 Y4.689 E46.12094
G1 X-29.114 Y3.795 E46.25744
G1 X-29.675 Y2.791 E46.39395
G1 X-30.058 Y1.708 E46.53045
G1 X-30.251 Y0.583 E46.66594
G1 X-30.275 Y0.010 E46.73405
G1 X-30.251 Y-0.583 E46.80453
G1 X-30.058 Y-1.708 E46.94006
G1 X-29.675 Y-2.791 E47.07656
G1 X-29.114 Y-3.795 E47.21306
G1 X-28.392 Y-4.689 E47.34957
G1 X-27.530 Y-5.448 E47.48607
G1 X-26.551 Y-6.051 E47.62258
G1 X-25.484 Y-6.479 E47.75908
G1 X-24.361 Y-6.722 E47.89559
G1 X-23.233 Y-6.769 E48.02968
G1 X-22.073 Y-6.625 E48.16849
G1 X-21.031 Y-6.305 E48.29794
G1 X-20.973 Y-6.288 F7800.000
G1 E46.29794 F2400.00000
G1 X15.326 Y-0.732 F7800.000
G1 E48.29794 F2400.00000
G1 F1800
G1 X15.555 Y-2.069 E48.45904
G1 X16.019 Y-3.382 E48.62442
G1 X16.698 Y-4.597 E48.78981
G1 X17.573 Y-5.681 E48.95519
G1 X18.618 Y-6.601 E49.12057
G1 X19.804 Y-7.331 E49.28595
G1 X21.096 Y-7.850 E49.45133
G1 X22.457 Y-8.143 E49.61671
G1 X23.826 Y-8.202 E49.77943
G1 X25.227 Y-8.026 E49.94711
G1 X26.561 Y-7.618 E50.11282
G1 X27.805 Y-6.991 E50.27820
G1 X28.924 Y-6.163 E50.44358
G1 X29.888 Y-5.158 E50.60896
G1 X30.667 Y-4.004 E50.77434
G1 X31.241 Y-2.735 E50.93972
G1 X31.586 Y-1.409 E51.10244
G1 X31.710 Y-0.003 E51.27012
G1 X31.592 Y1.387 E51.43583
G1 X31.241 Y2.735 E51.60121
G1 X30.667 Y4.004 E51.76659
G1 X29.888 Y5.158 E51.93197
G1 X28.924 Y6.163 E52.09735
G1 X27.805 Y6.991 E52.26273
G1 X26.581 Y7.608 E52.42545
G1 X25.232 Y8.025 E52.59313
G1 X23.848 Y8.203 E52.75884
G1 X22.457 Y8.143 E52.92422
G1 X21.096 Y7.850 E53.08960
G1 X19.804 Y7.331 E53.25499
G1 X18.660 Y6.627 E53.41452
G1 X17.577 Y5.685 E53.58496
G1 X16.698 Y4.597 E53.75106
G1 X16.019 Y3.382 E53.91644
G1 X15.555 Y2.069 E54.08182
G1 X15.326 Y0.735 E54.24256
G1 X15.296 Y0.025 E54.32698
G1 X15.323 Y-0.672 E54.40975
G1 X16.038 Y-0.657 F7800.000
G1 F1800
G1 X16.249 Y-1.888 E54.55808
G1 X16.672 Y-3.086 E54.70903
G1 X17.292 Y-4.196 E54.85997
G1 X18.090 Y-5.185 E55.01091
G1 X19.044 Y-6.025 E55.16185
G1 X20.127 Y-6.691 E55.31280
G1 X21.306 Y-7.165 E55.46374
G1 X22.548 Y-7.432 E55.61468
G1 X23.797 Y-7.486 E55.76309
G1 X25.077 Y-7.326 E55.91633
G1 X26.294 Y-6.953 E56.06748
G1 X27.429 Y-6.381 E56.21842
G1 X28.451 Y-5.625 E56.36936
G1 X29.330 Y-4.707 E56.52031
G1 X30.042 Y-3.654 E56.67125
G1 X30.565 Y-2.496 E56.82219
G1 X30.880 Y-1.287 E56.97060
G1 X30.993 Y-0.002 E57.12384
G1 X30.885 Y1.266 E57.27499
G1 X30.565 Y2.496 E57.42593
G1 X30.042 Y3.654 E57.57687
G1 X29.330 Y4.707 E57.72781
G1 X28.451 Y5.625 E57.87876
G1 X27.429 Y6.381 E58.02970
G1 X26.313 Y6.943 E58.17811
G1 X25.080 Y7.325 E58.33135
G1 X23.818 Y7.486 E58.48249
G1 X22.548 Y7.432 E58.63344
G1 X21.306 Y7.165 E58.78438
G1 X20.127 Y6.691 E58.93532
G1 X19.084 Y6.049 E59.08069
G1 X18.093 Y5.188 E59.23670
G1 X17.292 Y4.196 E59.38808
G1 X16.672 Y3.086 E59.53902
G1 X16.249 Y1.888 E59.68996
G1 X16.038 Y0.659 E59.83808
G1 X16.011 Y0.023 E59.91362
G1 X16.035 Y-0.597 E59.98738
G1 X16.749 Y-0.582 F7800.000
G1 F1800
G1 X16.942 Y-1.708 E60.12295
G1 X17.325 Y-2.791 E60.25946
G1 X17.886 Y-3.795 E60.39596
G1 X18.608 Y-4.689 E60.53247
G1 X19.470 Y-5.448 E60.66897
G1 X20.449 Y-6.051 E60.80547
G1 X21.516 Y-6.479 E60.94198
G1 X22.639 Y-6.722 E61.07848
G1 X23.767 Y-6.769 E61.21258
G1 X24.927 Y-6.625 E61.35139
G1 X26.027 Y-6.288 E61.48796
G1 X27.053 Y-5.770 E61.62447
G1 X27.977 Y-5.087 E61.76097
G1 X28.772 Y-4.257 E61.89748
G1 X29.416 Y-3.305 E62.03398
G1 X29.889 Y-2.258 E62.17049
G1 X30.174 Y-1.165 E62.30459
G1 X30.276 Y-0.001 E62.44339
G1 X30.179 Y1.145 E62.57997
G1 X29.889 Y2.258 E62.71647
G1 X29.416 Y3.305 E62.85298
G1 X28.772 Y4.257 E62.98948
G1 X27.977 Y5.087 E63.12599
G1 X27.053 Y5.770 E63.26249
G1 X26.045 Y6.279 E63.39659
G1 X24.928 Y6.624 E63.53540
G1 X23.788 Y6.770 E63.67197
G1 X22.639 Y6.722 E63.80848
G1 X21.516 Y6.479 E63.94498
G1 X20.449 Y6.051 E64.08149
G1 X19.508 Y5.472 E64.21270
G1 X18.609 Y4.690 E64.35427
G1 X17.886 Y3.795 E64.49093
G1 X17.325 Y2.791 E64.62743
G1 X16.942 Y1.708 E64.76394
G1 X16.749 Y0.583 E64.89943
G1 X16.726 Y0.022 E64.96610
G1 X16.747 Y-0.522 E65.03085
G1 X16.749 Y-0.582 F7800.000
G1 E63.03085 F2400.00000
G1 X34.802 Y18.093 F7800.000
G1 E65.03085 F2400.00000
G1 F1800
G1 X34.604 Y18.158 E65.05559
G1 X34.428 Y18.172 E65.07656
G1 X-34.428 Y18.172 E73.25430
G1 X-34.604 Y18.158 E73.27527
G1 X-34.802 Y18.093 E73.30002
G1 X-34.971 Y17.971 E73.32476
G1 X-35.093 Y17.802 E73.34951
G1 X-35.157 Y17.606 E73.37408
G1 X-35.172 Y17.427 E73.39534
G1 X-35.172 Y-17.428 E77.53495
G1 X-35.158 Y-17.604 E77.55592
G1 X-35.093 Y-17.803 E77.58077
G1 X-34.971 Y-17.971 E77.60541
G1 X-34.802 Y-18.093 E77.63016
G1 X-34.604 Y-18.158 E77.65491
G1 X-34.428 Y-18.172 E77.67588
G1 X34.428 Y-18.172 E85.85361
G1 X34.603 Y-18.158 E85.87440
G1 X34.802 Y-18.093 E85.89933
G1 X34.971 Y-17.971 E85.92407
G1 X35.093 Y-17.802 E85.94882
G1 X35.158 Y-17.604 E85.97357
G1 X35.172 Y-17.428 E85.99454
G1 X35.172 Y17.428 E90.13426
G1 X35.158 Y17.604 E90.15523
G1 X35.093 Y17.802 E90.17998
G1 X34.971 Y17.971 E90.20473
G1 X34.854 Y18.062 E90.22238
G1 X35.076 Y18.753 F7800.000
G1 F1800
G1 X34.927 Y18.815 E90.24147
G1 X34.716 Y18.865 E90.26723
G1 X34.456 Y18.886 E90.29821
G1 X-34.456 Y18.886 E98.48261
G1 X-34.716 Y18.865 E98.51359
G1 X-34.927 Y18.815 E98.53935
G1 X-35.128 Y18.732 E98.56511
G1 X-35.313 Y18.618 E98.59088
G1 X-35.478 Y18.478 E98.61664
G1 X-35.618 Y18.313 E98.64240
G1 X-35.732 Y18.128 E98.66816
G1 X-35.815 Y17.927 E98.69393
G1 X-35.865 Y17.718 E98.71946
G1 X-35.886 Y17.456 E98.75073
G1 X-35.886 Y-17.456 E102.89705
G1 X-35.865 Y-17.716 E102.92803
G1 X-35.815 Y-17.925 E102.95356
G1 X-35.731 Y-18.128 E102.97961
G1 X-35.618 Y-18.313 E103.00531
G1 X-35.478 Y-18.478 E103.03107
G1 X-35.313 Y-18.618 E103.05684
G1 X-35.128 Y-18.732 E103.08260
G1 X-34.927 Y-18.815 E103.10836
