; generated by Slic3r 1.3.0 on 2024-04-27 at 18:23:00

; external perimeters extrusion width = 0.44mm (3.38mm^3/s)
; perimeters extrusion width = 0.48mm (7.54mm^3/s)
; infill extrusion width = 0.48mm (10.05mm^3/s)
; solid infill extrusion width = 0.48mm (2.51mm^3/s)
; top infill extrusion width = 0.48mm (1.88mm^3/s)
; support material extrusion width = 0.44mm (6.76mm^3/s)

M127
;
;
;- - - - SUMMARY - - - -
;
;first layer temperature = 220C
;temperature = 220C
;first layer bed temperature = 59C
;bed temperature = 59C
;
;first layer height = 0.4mm
;layer height = 0.3mm
;z_offset = 0mm
;perimeters = 3
;fill density = 30%
;infill every n layers = 1
;skirts = 1
;brim width = 0mm
;raft layers = 0
;support material = 1
;support material threshold = 60% degrees
;support material enforced for first n layers = 0
;support material extruder = 1
;
;first layer speed = 30
;perimeter speed = 60mm/s
;small perimeter speed = 15
;external perimeter speed = 50%
;infill speed = 80mm/s
;solid infill speed = 20
;top solid infill speed = 15
;support material speed = 60mm/s
;gap fill speed = 20mm/s
;travel speed = 130mm/s
;bridge speed = 60mm/s
;bridge flow ratio = 1
;slowdown if layer time is less than = 5secs
;minimum print speed = 10mm/s
;
;bottom solid layers = 3
;top solid layers = 3
;
;
;- - - - EXTRUSION - - - -
;
;filament diameter = 1.75mm
;nozzle diameter = 0.4mm
;bridge flow ratio = 1
;extrusion axis = E
;extrusion multiplier = 1
;extrusion width = 0mm
;first layer extrusion width = 200%mm
;perimeter extrusion width = 0mm
;infill extrusion width = 0mm
;solid infill extrusion width = 0mm
;top infill extrusion width = 0mm
;support material extrusion width = 0mm
;
;
;- - - - SUPPORT - - - -
;
;raft layers = 0
;brim width = 0mm
;support material = 1
;support material threshold = 60% degrees
;support material enforced for first n layers = 0
;support material extruder = 1
;support material extrusion width = 0mm
;support material interface layers = 3
;support material interface spacing = 0mm
;support material pattern = pillars
;support material angle = 0 degrees
;support material spacing = 2.5mm
;support material speed = 60mm/s
;
;
;- - - - EVERYTHING ELSE - - - -
;
;complete objects = 0
;cooling enabled = 1
;default acceleration = 0mm/s/s
;disable fan for first layers = 3
;duplicate = [duplicate]
;duplicate distance = 6mm
;duplicate grid = [duplicate_grid]
;external perimeters first = 0
;extra perimeters = 1
;extruder clearance height = 20mm
;extruder clearance radius = 20mm
;extruder offset = 0,0mm
;fan always on = 0
;fan below layer time = 60secs
;fill angle = 45 degrees
;fill pattern = rectilinear
;gcode arcs = 0
;gcode comments = 0
;gcode flavor = sailfish
;infill acceleration = 0mm/s/s
;infill extruder = 1
;infill first = 0
;infill only where needed = 0
;minimum skirt length = 0mm
;only retract when crossing perimeters = 1
;perimeter acceleration = 0mm/s/s
;perimeter extruder = 1
;randomize start = [randomize_start]
;resolution = 0mm
;retract before travel = 2
;retract on layer change = 0
;retract length = 2mm
;retract length on tool change = 10mm
;retract lift = 0
;retract extra distance on restart = 0mm
;retract extra on tool change = 0mm
;retract speed = 40mm/s
;rotate = [rotate] degrees
;scale = 100%
;skirt distance = 6mm
;skirt height = 1mm
;solid fill pattern = [solid_fill_pattern]
;solid infill below area = 70mm (sq)
;solid infill every n layers = 0
;
;
;- - - - - - - - - - - - - - - - - - - - - - - - -
;
;
T0; set primary extruder
M73 P0; enable show build progress
;M109 S59 T0; heat bed up to first layer temperature
M140 S59 T0; heat bed up to first layer temperature
M104 S220 T0; set nozzle heater to first layer temperature
M103; disable RPM
G21; set units to mm
G162 X Y F6000; home XY axes maximum
G161 Z F9000; home Z axis minimum
G92 Z0; set Z to 0
M132 X Y Z A B; Recall stored home offsets
G90; set positioning to absolute
G1 Z30; move Z to waiting height
G1 X-95 Y-73 Z30 F14000; move to waiting position (front left corner of print bed)
G130 X0 Y0 A0 B0; set stepper motor vref to lower value while heating
M6 T0; wait for bed and extruder to heat up
G130 X127 Y127 A127 B127; set stepper motor vref to defaults
M108 T0 R3; set extruder speed
G92 E0; set E to 0
G90; use absolute coordinates
M320; acceleration enabled for all commands that follow
G1 Z0.4 F6000.000; move to first layer height
G1 X100 Y-73 F14000.000; move to front right corner of bed
G1 X-90 Y-73 E24 F2000.000; extrude a line of filament across the front edge of the bed
G4 P2000; wait for ooze to slow
G1 Z0 F6000.000; lower nozzle height to 0
G1 X-95; wipe nozzle
G1 Z0.4 F6000.000; set nozzle to first layer height
G1 F12000; ensure fast travel to first print move
G92 E0; set E to 0 again
M73 P0; reset build progress to 0
; Filament gcode

G21 ; set units to millimeters
G90 ; use absolute coordinates
M73 P0
G1 Z0.400 F7800.000
G1 E-2.00000 F2400.00000
G1 X-43.211 Y-5.299 F7800.000
G1 E0.00000 F2400.00000
G1 F1800
G1 X-43.214 Y-44.500 E4.65575
G1 X-43.163 Y-45.418 E4.76494
G1 X-42.998 Y-46.458 E4.89006
G1 X-42.906 Y-46.840 E4.93665
G1 X-42.581 Y-47.842 E5.06178
G1 X-42.431 Y-48.204 E5.10837
G1 X-41.952 Y-49.143 E5.23350
G1 X-41.747 Y-49.478 E5.28015
G1 X-41.128 Y-50.330 E5.40522
G1 X-40.875 Y-50.626 E5.45145
G1 X-40.128 Y-51.373 E5.57694
G1 X-39.828 Y-51.629 E5.62378
G1 X-38.978 Y-52.247 E5.74866
G1 X-38.643 Y-52.452 E5.79525
G1 X-37.704 Y-52.931 E5.92038
G1 X-37.341 Y-53.081 E5.96703
G1 X-36.340 Y-53.406 E6.09209
G1 X-35.958 Y-53.498 E6.13869
G1 X-34.918 Y-53.663 E6.26382
G1 X-34.000 Y-53.714 E6.37300
G1 X31.000 Y-53.714 E14.09273
G1 X31.918 Y-53.663 E14.20191
G1 X32.958 Y-53.498 E14.32704
G1 X33.340 Y-53.406 E14.37367
G1 X34.342 Y-53.081 E14.49876
G1 X34.707 Y-52.929 E14.54570
G1 X35.643 Y-52.452 E14.67048
G1 X35.978 Y-52.247 E14.71707
G1 X36.830 Y-51.628 E14.84221
G1 X37.128 Y-51.373 E14.88880
G1 X37.873 Y-50.628 E15.01391
G1 X38.128 Y-50.330 E15.06050
G1 X38.747 Y-49.478 E15.18564
G1 X38.953 Y-49.143 E15.23231
G1 X39.431 Y-48.204 E15.35736
G1 X39.766 Y-47.337 E15.46779
G1 X43.525 Y-35.708 E16.91932
G1 X43.850 Y-33.643 E17.16758
G1 X43.844 Y-4.567 E20.62082
G1 X41.708 Y44.790 E26.48821
G1 X41.663 Y45.418 E26.56292
G1 X41.498 Y46.459 E26.68807
G1 X41.406 Y46.840 E26.73466
G1 X41.081 Y47.842 E26.85976
G1 X40.931 Y48.204 E26.90635
G1 X40.452 Y49.143 E27.03150
G1 X40.247 Y49.478 E27.07809
G1 X39.628 Y50.330 E27.20323
G1 X39.373 Y50.628 E27.24982
G1 X38.628 Y51.373 E27.37492
G1 X38.330 Y51.628 E27.42151
G1 X37.478 Y52.247 E27.54666
G1 X37.143 Y52.452 E27.59325
G1 X36.204 Y52.931 E27.71836
G1 X35.842 Y53.081 E27.76495
G1 X34.840 Y53.406 E27.89009
G1 X34.458 Y53.498 E27.93677
G1 X33.418 Y53.663 E28.06182
G1 X32.500 Y53.714 E28.17099
G1 X-32.500 Y53.714 E35.89073
G1 X-33.418 Y53.663 E35.99997
G1 X-34.458 Y53.498 E36.12504
G1 X-34.840 Y53.406 E36.17163
G1 X-35.842 Y53.081 E36.29676
G1 X-36.205 Y52.930 E36.34339
G1 X-37.143 Y52.452 E36.46847
G1 X-37.478 Y52.247 E36.51513
G1 X-38.330 Y51.628 E36.64019
G1 X-38.619 Y51.381 E36.68535
G1 X-39.373 Y50.628 E36.81191
G1 X-39.628 Y50.330 E36.85853
G1 X-40.247 Y49.478 E36.98363
G1 X-40.446 Y49.153 E37.02879
G1 X-40.931 Y48.204 E37.15535
G1 X-41.081 Y47.842 E37.20198
G1 X-41.406 Y46.840 E37.32706
G1 X-41.498 Y46.459 E37.37365
G1 X-41.663 Y45.418 E37.49878
G1 X-41.711 Y44.701 E37.58408
G1 X-43.209 Y-5.239 E43.51788
G1 E41.51788 F2400.00000
G1 X-32.802 Y4.907 F7800.000
G1 E43.51788 F2400.00000
G1 F1800
G1 X-32.604 Y4.842 E43.54263
G1 X-32.428 Y4.828 E43.56360
G1 X32.428 Y4.828 E51.26627
G1 X32.596 Y4.842 E51.28632
G1 X32.802 Y4.907 E51.31197
G1 X32.971 Y5.029 E51.33671
G1 X33.093 Y5.198 E51.36146
G1 X33.156 Y5.388 E51.38529
G1 X33.172 Y5.576 E51.40768
G1 X33.172 Y44.428 E56.02195
G1 X33.158 Y44.604 E56.04292
G1 X33.093 Y44.802 E56.06767
G1 X32.971 Y44.971 E56.09242
G1 X32.802 Y45.093 E56.11717
G1 X32.604 Y45.158 E56.14191
G1 X32.428 Y45.172 E56.16288
G1 X-32.428 Y45.172 E63.86556
G1 X-32.604 Y45.158 E63.88653
G1 X-32.802 Y45.093 E63.91128
G1 X-32.965 Y44.976 E63.93510
G1 X-33.093 Y44.802 E63.96075
G1 X-33.158 Y44.604 E63.98550
G1 X-33.172 Y44.428 E64.00647
G1 X-33.172 Y5.572 E68.62125
G1 X-33.158 Y5.396 E68.64222
G1 X-33.093 Y5.198 E68.66697
G1 X-32.976 Y5.035 E68.69080
G1 X-32.854 Y4.938 E68.70935
G1 X-33.076 Y4.247 F7800.000
G1 F1800
G1 X-32.927 Y4.185 E68.72844
G1 X-32.716 Y4.135 E68.75420
G1 X-32.456 Y4.114 E68.78518
G1 X32.456 Y4.114 E76.49452
G1 X32.707 Y4.134 E76.52438
G1 X32.930 Y4.186 E76.55155
G1 X33.128 Y4.268 E76.57701
G1 X33.313 Y4.382 E76.60277
G1 X33.477 Y4.522 E76.62853
G1 X33.618 Y4.687 E76.65430
G1 X33.732 Y4.872 E76.68006
G1 X33.815 Y5.073 E76.70582
G1 X33.863 Y5.275 E76.73046
G1 X33.886 Y5.546 E76.76286
G1 X33.886 Y44.456 E81.38399
G1 X33.865 Y44.716 E81.41497
G1 X33.815 Y44.927 E81.44073
G1 X33.732 Y45.128 E81.46650
G1 X33.618 Y45.313 E81.49226
G1 X33.477 Y45.478 E81.51802
G1 X33.313 Y45.618 E81.54378
G1 X33.128 Y45.732 E81.56955
G1 X32.927 Y45.815 E81.59531
G1 X32.716 Y45.865 E81.62107
G1 X32.456 Y45.886 E81.65205
G1 X-32.456 Y45.886 E89.36139
G1 X-32.716 Y45.865 E89.39237
G1 X-32.927 Y45.815 E89.41813
G1 X-33.128 Y45.732 E89.44389
G1 X-33.313 Y45.618 E89.46966
G1 X-33.470 Y45.484 E89.49430
G1 X-33.620 Y45.310 E89.52148
G1 X-33.732 Y45.128 E89.54693
G1 X-33.815 Y44.927 E89.57269
G1 X-33.865 Y44.716 E89.59845
G1 X-33.886 Y44.456 E89.62943
G1 X-33.886 Y5.544 E94.25088
G1 X-33.865 Y5.284 E94.28185
G1 X-33.815 Y5.073 E94.30762
G1 X-33.732 Y4.872 E94.33338
G1 X-33.618 Y4.687 E94.35914
G1 X-33.484 Y4.530 E94.38378
G1 X-33.310 Y4.380 E94.41096
G1 X-33.131 Y4.270 E94.43596
G1 X-33.349 Y3.587 F7800.000
G1 F1800
G1 X-33.149 Y3.504 E94.46173
G1 X-32.828 Y3.427 E94.50084
G1 X-32.484 Y3.400 E94.54182
G1 X32.484 Y3.400 E102.25783
G1 X32.817 Y3.426 E102.29749
G1 X33.149 Y3.504 E102.33802
G1 X33.453 Y3.630 E102.37702
G1 X33.734 Y3.802 E102.41614
G1 X33.984 Y4.016 E102.45525
G1 X34.198 Y4.266 E102.49436
G1 X34.370 Y4.547 E102.53348
G1 X34.496 Y4.851 E102.57259
G1 X34.570 Y5.161 E102.61038
G1 X34.600 Y5.517 E102.65278
G1 X34.600 Y44.484 E107.28078
G1 X34.573 Y44.828 E107.32177
G1 X34.496 Y45.149 E107.36088
G1 X34.370 Y45.453 E107.40000
G1 X34.198 Y45.734 E107.43911
G1 X33.984 Y45.984 E107.47822
G1 X33.734 Y46.198 E107.51734
G1 X33.453 Y46.370 E107.55645
G1 X33.149 Y46.496 E107.59556
G1 X32.828 Y46.573 E107.63468
G1 X32.484 Y46.600 E107.67566
G1 X-32.484 Y46.600 E115.39167
G1 X-32.828 Y46.573 E115.43265
G1 X-33.149 Y46.496 E115.47176
G1 X-33.453 Y46.370 E115.51088
G1 X-33.734 Y46.198 E115.54999
G1 X-33.976 Y45.991 E115.58778
G1 X-34.198 Y45.733 E115.62831
G1 X-34.370 Y45.453 E115.66731
G1 X-34.496 Y45.149 E115.70643
G1 X-34.573 Y44.828 E115.74554
G1 X-34.600 Y44.484 E115.78653
G1 X-34.600 Y5.516 E120.41464
G1 X-34.573 Y5.172 E120.45562
G1 X-34.496 Y4.851 E120.49473
G1 X-34.370 Y4.547 E120.53385
G1 X-34.198 Y4.266 E120.57296
G1 X-33.991 Y4.024 E120.61075
G1 X-33.733 Y3.802 E120.65128
G1 X-33.404 Y3.610 E120.69644
G1 X-33.172 Y3.712 F7800.000
G1 E118.69644 F2400.00000
G1 X-32.175 Y5.269 F7800.000
G1 E120.69644 F2400.00000
G1 F1800
G1 X-32.731 Y5.825 E120.79050
G1 X-32.735 Y6.847 E120.91281
G1 X-31.153 Y5.265 E121.18054
G1 X-30.136 Y5.265 E121.30235
G1 X-32.735 Y7.864 E121.74234
G1 X-32.735 Y8.882 E121.86415
G1 X-29.118 Y5.265 E122.47641
G1 X-28.100 Y5.265 E122.59822
G1 X-32.735 Y9.900 E123.38275
G1 X-32.735 Y10.918 E123.50456
G1 X-27.082 Y5.265 E124.46135
G1 X-26.065 Y5.265 E124.58316
G1 X-32.735 Y11.935 E125.71222
G1 X-32.735 Y12.953 E125.83403
G1 X-25.047 Y5.265 E127.13535
G1 X-24.029 Y5.265 E127.25716
G1 X-32.735 Y13.971 E128.73075
G1 X-32.735 Y14.989 E128.85256
G1 X-23.011 Y5.265 E130.49841
G1 X-21.994 Y5.265 E130.62022
G1 X-32.735 Y16.006 E132.43834
G1 X-32.735 Y17.024 E132.56015
G1 X-20.976 Y5.265 E134.55054
G1 X-19.958 Y5.265 E134.67235
G1 X-32.735 Y18.042 E136.83500
G1 X-32.735 Y19.060 E136.95681
G1 X-18.940 Y5.265 E139.29172
G1 X-17.922 Y5.265 E139.41353
G1 X-32.735 Y20.078 E141.92071
G1 X-32.735 Y21.095 E142.04252
G1 X-16.905 Y5.265 E144.72197
G1 X-15.887 Y5.265 E144.84378
G1 X-32.735 Y22.113 E147.69549
G1 X-32.735 Y23.131 E147.81730
G1 X-14.869 Y5.265 E150.84127
G1 X-13.851 Y5.265 E150.96308
G1 X-32.735 Y24.149 E154.15933
G1 X-32.735 Y25.166 E154.28114
G1 X-12.834 Y5.265 E157.64964
G1 X-11.816 Y5.265 E157.77145
G1 X-32.735 Y26.184 E161.31223
G1 X-32.735 Y27.202 E161.43404
G1 X-10.798 Y5.265 E165.14708
G1 X-9.780 Y5.265 E165.26889
G1 X-32.735 Y28.220 E169.15419
G1 X-32.735 Y29.238 E169.27600
G1 X-8.762 Y5.265 E173.33357
G1 X-7.745 Y5.265 E173.45538
G1 X-32.735 Y30.255 E177.68521
G1 X-32.735 Y31.273 E177.80702
G1 X-6.727 Y5.265 E182.20912
G1 X-5.709 Y5.265 E182.33093
G1 X-32.735 Y32.291 E186.90530
G1 X-32.735 Y33.309 E187.02711
G1 X-4.691 Y5.265 E191.77374
G1 X-3.674 Y5.265 E191.89555
G1 X-32.735 Y34.326 E196.81445
G1 X-32.735 Y35.344 E196.93626
G1 X-2.656 Y5.265 E202.02742
G1 X-1.638 Y5.265 E202.14923
G1 X-32.735 Y36.362 E207.41266
G1 X-32.735 Y37.380 E207.53447
G1 X-0.620 Y5.265 E212.97016
G1 X0.398 Y5.265 E213.09197
G1 X-32.735 Y38.398 E218.69993
G1 X-32.735 Y39.415 E218.82174
G1 X1.415 Y5.265 E224.60196
G1 X2.433 Y5.265 E224.72377
G1 X-32.735 Y40.433 E230.67626
G1 X-32.735 Y41.451 E230.79807
G1 X3.451 Y5.265 E236.92282
G1 X4.469 Y5.265 E237.04463
G1 X-32.735 Y42.469 E243.34165
G1 X-32.735 Y43.486 E243.46346
G1 X5.486 Y5.265 E249.93275
G1 X6.504 Y5.265 E250.05456
G1 X-32.735 Y44.504 E256.69611
G1 X-32.731 Y44.731 E256.72327
G1 X-31.949 Y44.735 E256.81692
G1 X7.522 Y5.265 E263.49758
G1 X8.540 Y5.265 E263.61939
G1 X-30.931 Y44.735 E270.30006
G1 X-29.913 Y44.735 E270.42187
G1 X9.558 Y5.265 E277.10253
G1 X10.575 Y5.265 E277.22434
G1 X-28.895 Y44.735 E283.90500
G1 X-27.877 Y44.735 E284.02681
G1 X11.593 Y5.265 E290.70747
G1 X12.611 Y5.265 E290.82928
G1 X-26.860 Y44.735 E297.50995
G1 X-25.842 Y44.735 E297.63176
G1 X13.629 Y5.265 E304.31242
G1 X14.646 Y5.265 E304.43423
G1 X-24.824 Y44.735 E311.11489
G1 X-23.806 Y44.735 E311.23670
G1 X15.664 Y5.265 E317.91737
G1 X16.682 Y5.265 E318.03918
G1 X-22.789 Y44.735 E324.71984
G1 X-21.771 Y44.735 E324.84165
G1 X17.700 Y5.265 E331.52231
G1 X18.718 Y5.265 E331.64412
G1 X-20.753 Y44.735 E338.32478
G1 X-19.735 Y44.735 E338.44659
G1 X19.735 Y5.265 E345.12726
G1 X20.753 Y5.265 E345.24907
G1 X-18.718 Y44.735 E351.92973
G1 X-17.700 Y44.735 E352.05154
G1 X21.771 Y5.265 E358.73220
G1 X22.789 Y5.265 E358.85401
G1 X-16.682 Y44.735 E365.53468
G1 X-15.664 Y44.735 E365.65649
G1 X23.806 Y5.265 E372.33715
G1 X24.824 Y5.265 E372.45896
G1 X-14.646 Y44.735 E379.13962
G1 X-13.629 Y44.735 E379.26143
G1 X25.842 Y5.265 E385.94209
G1 X26.860 Y5.265 E386.06390
G1 X-12.611 Y44.735 E392.74457
G1 X-11.593 Y44.735 E392.86638
G1 X27.878 Y5.265 E399.54704
G1 X28.895 Y5.265 E399.66885
G1 X-10.575 Y44.735 E406.34951
G1 X-9.558 Y44.735 E406.47132
G1 X29.913 Y5.265 E413.15199
G1 X30.931 Y5.265 E413.27380
G1 X-8.540 Y44.735 E419.95446
G1 X-7.522 Y44.735 E420.07627
G1 X31.949 Y5.265 E426.75693
G1 X32.678 Y5.265 E426.84421
G1 X32.725 Y5.268 E426.84983
G1 X32.735 Y5.496 E426.87708
G1 X-6.504 Y44.735 E433.51862
G1 X-5.486 Y44.735 E433.64043
G1 X32.735 Y6.514 E440.10972
G1 X32.735 Y7.531 E440.23153
G1 X-4.469 Y44.735 E446.52854
G1 X-3.451 Y44.735 E446.65035
G1 X32.735 Y8.549 E452.77511
G1 X32.735 Y9.567 E452.89692
G1 X-2.433 Y44.735 E458.84940
G1 X-1.415 Y44.735 E458.97121
G1 X32.735 Y10.585 E464.75143
G1 X32.735 Y11.602 E464.87324
G1 X-0.398 Y44.735 E470.48120
G1 X0.620 Y44.735 E470.60301
G1 X32.735 Y12.620 E476.03870
G1 X32.735 Y13.638 E476.16051
G1 X1.638 Y44.735 E481.42393
G1 X2.656 Y44.735 E481.54574
G1 X32.735 Y14.656 E486.63690
G1 X32.735 Y15.674 E486.75871
G1 X3.674 Y44.735 E491.67761
G1 X4.691 Y44.735 E491.79942
G1 X32.735 Y16.691 E496.54604
G1 X32.735 Y17.709 E496.66785
G1 X5.709 Y44.735 E501.24222
G1 X6.727 Y44.735 E501.36403
G1 X32.735 Y18.727 E505.76613
G1 X32.735 Y19.745 E505.88794
G1 X7.745 Y44.735 E510.11777
G1 X8.762 Y44.735 E510.23958
G1 X32.735 Y20.762 E514.29714
G1 X32.735 Y21.780 E514.41895
G1 X9.780 Y44.735 E518.30426
G1 X10.798 Y44.735 E518.42607
G1 X32.735 Y22.798 E522.13910
