; generated by Slic3r 1.3.0 on 2024-04-26 at 15:32:50

; external perimeters extrusion width = 0.44mm (3.38mm^3/s)
; perimeters extrusion width = 0.48mm (7.54mm^3/s)
; infill extrusion width = 0.48mm (10.05mm^3/s)
; solid infill extrusion width = 0.48mm (2.51mm^3/s)
; top infill extrusion width = 0.48mm (1.88mm^3/s)
; support material extrusion width = 0.44mm (6.76mm^3/s)

M127
;
;
;- - - - SUMMARY - - - -
;
;first layer temperature = 220C
;temperature = 220C
;first layer bed temperature = 55C
;bed temperature = 55C
;
;first layer height = 0.4mm
;layer height = 0.3mm
;z_offset = 0mm
;perimeters = 3
;fill density = 30%
;infill every n layers = 1
;skirts = 1
;brim width = 0mm
;raft layers = 0
;support material = 1
;support material threshold = 60% degrees
;support material enforced for first n layers = 0
;support material extruder = 1
;
;first layer speed = 30
;perimeter speed = 60mm/s
;small perimeter speed = 15
;external perimeter speed = 50%
;infill speed = 80mm/s
;solid infill speed = 20
;top solid infill speed = 15
;support material speed = 60mm/s
;gap fill speed = 20mm/s
;travel speed = 130mm/s
;bridge speed = 60mm/s
;bridge flow ratio = 1
;slowdown if layer time is less than = 5secs
;minimum print speed = 10mm/s
;
;bottom solid layers = 3
;top solid layers = 3
;
;
;- - - - EXTRUSION - - - -
;
;filament diameter = 1.75mm
;nozzle diameter = 0.4mm
;bridge flow ratio = 1
;extrusion axis = E
;extrusion multiplier = 1
;extrusion width = 0mm
;first layer extrusion width = 200%mm
;perimeter extrusion width = 0mm
;infill extrusion width = 0mm
;solid infill extrusion width = 0mm
;top infill extrusion width = 0mm
;support material extrusion width = 0mm
;
;
;- - - - SUPPORT - - - -
;
;raft layers = 0
;brim width = 0mm
;support material = 1
;support material threshold = 60% degrees
;support material enforced for first n layers = 0
;support material extruder = 1
;support material extrusion width = 0mm
;support material interface layers = 3
;support material interface spacing = 0mm
;support material pattern = pillars
;support material angle = 0 degrees
;support material spacing = 2.5mm
;support material speed = 60mm/s
;
;
;- - - - EVERYTHING ELSE - - - -
;
;complete objects = 0
;cooling enabled = 1
;default acceleration = 0mm/s/s
;disable fan for first layers = 3
;duplicate = [duplicate]
;duplicate distance = 6mm
;duplicate grid = [duplicate_grid]
;external perimeters first = 0
;extra perimeters = 1
;extruder clearance height = 20mm
;extruder clearance radius = 20mm
;extruder offset = 0,0mm
;fan always on = 0
;fan below layer time = 60secs
;fill angle = 45 degrees
;fill pattern = rectilinear
;gcode arcs = 0
;gcode comments = 0
;gcode flavor = sailfish
;infill acceleration = 0mm/s/s
;infill extruder = 1
;infill first = 0
;infill only where needed = 0
;minimum skirt length = 0mm
;only retract when crossing perimeters = 1
;perimeter acceleration = 0mm/s/s
;perimeter extruder = 1
;randomize start = [randomize_start]
;resolution = 0mm
;retract before travel = 2
;retract on layer change = 0
;retract length = 2mm
;retract length on tool change = 10mm
;retract lift = 0
;retract extra distance on restart = 0mm
;retract extra on tool change = 0mm
;retract speed = 40mm/s
;rotate = [rotate] degrees
;scale = 100%
;skirt distance = 6mm
;skirt height = 1mm
;solid fill pattern = [solid_fill_pattern]
;solid infill below area = 70mm (sq)
;solid infill every n layers = 0
;
;
;- - - - - - - - - - - - - - - - - - - - - - - - -
;
;
T0; set primary extruder
M73 P0; enable show build progress
;M109 S55 T0; heat bed up to first layer temperature
M140 S55 T0; heat bed up to first layer temperature
M104 S220 T0; set nozzle heater to first layer temperature
M103; disable RPM
G21; set units to mm
G162 X Y F6000; home XY axes maximum
G161 Z F9000; home Z axis minimum
G92 Z0; set Z to 0
M132 X Y Z A B; Recall stored home offsets
G90; set positioning to absolute
G1 Z30; move Z to waiting height
G1 X-95 Y-73 Z30 F14000; move to waiting position (front left corner of print bed)
G130 X0 Y0 A0 B0; set stepper motor vref to lower value while heating
M6 T0; wait for bed and extruder to heat up
G130 X127 Y127 A127 B127; set stepper motor vref to defaults
M108 T0 R3; set extruder speed
G92 E0; set E to 0
G90; use absolute coordinates
M320; acceleration enabled for all commands that follow
G1 Z0.4 F6000.000; move to first layer height
G1 X100 Y-73 F14000.000; move to front right corner of bed
G1 X-90 Y-73 E24 F2000.000; extrude a line of filament across the front edge of the bed
G4 P2000; wait for ooze to slow
G1 Z0 F6000.000; lower nozzle height to 0
G1 X-95; wipe nozzle
G1 Z0.4 F6000.000; set nozzle to first layer height
G1 F12000; ensure fast travel to first print move
G92 E0; set E to 0 again
M73 P0; reset build progress to 0
; Filament gcode

G21 ; set units to millimeters
G90 ; use absolute coordinates
M73 P0
G1 Z0.400 F7800.000
G1 E-2.00000 F2400.00000
G1 X-42.211 Y-5.299 F7800.000
G1 E0.00000 F2400.00000
G1 F1800
G1 X-42.214 Y-44.500 E4.65575
G1 X-42.163 Y-45.420 E4.76519
G1 X-41.998 Y-46.458 E4.89006
G1 X-41.906 Y-46.840 E4.93665
G1 X-41.581 Y-47.842 E5.06178
G1 X-41.431 Y-48.204 E5.10837
G1 X-40.952 Y-49.143 E5.23350
G1 X-40.747 Y-49.478 E5.28010
G1 X-40.128 Y-50.330 E5.40522
G1 X-39.875 Y-50.626 E5.45150
G1 X-39.128 Y-51.373 E5.57694
G1 X-38.828 Y-51.630 E5.62391
G1 X-37.978 Y-52.247 E5.74866
G1 X-37.643 Y-52.452 E5.79525
G1 X-36.704 Y-52.931 E5.92038
G1 X-36.342 Y-53.081 E5.96697
G1 X-35.340 Y-53.406 E6.09210
G1 X-34.958 Y-53.498 E6.13869
G1 X-33.918 Y-53.663 E6.26382
G1 X-33.000 Y-53.714 E6.37300
G1 X30.000 Y-53.714 E13.85520
G1 X30.920 Y-53.663 E13.96459
G1 X31.958 Y-53.498 E14.08952
G1 X32.343 Y-53.406 E14.13647
G1 X33.342 Y-53.081 E14.26124
G1 X33.705 Y-52.930 E14.30790
G1 X34.643 Y-52.452 E14.43295
G1 X34.981 Y-52.245 E14.47998
G1 X35.830 Y-51.628 E14.60467
G1 X36.128 Y-51.373 E14.65126
G1 X36.873 Y-50.628 E14.77640
G1 X37.131 Y-50.326 E14.82359
G1 X37.747 Y-49.478 E14.94810
G1 X37.952 Y-49.143 E14.99469
G1 X38.431 Y-48.204 E15.11984
G1 X38.582 Y-47.838 E15.16692
G1 X38.832 Y-47.121 E15.25712
G1 X42.163 Y-35.491 E16.69383
G1 X42.422 Y-33.643 E16.91551
G1 X42.418 Y-4.625 E20.36184
G1 X40.710 Y44.732 E26.22725
G1 X40.663 Y45.418 E26.30889
G1 X40.498 Y46.458 E26.43401
G1 X40.406 Y46.840 E26.48060
G1 X40.081 Y47.842 E26.60572
G1 X39.931 Y48.204 E26.65231
G1 X39.452 Y49.143 E26.77746
G1 X39.247 Y49.478 E26.82405
G1 X38.628 Y50.330 E26.94915
G1 X38.373 Y50.628 E26.99574
G1 X37.628 Y51.373 E27.12089
G1 X37.330 Y51.628 E27.16751
G1 X36.478 Y52.247 E27.29261
G1 X36.143 Y52.452 E27.33920
G1 X35.204 Y52.931 E27.46431
G1 X34.842 Y53.081 E27.51090
G1 X33.840 Y53.406 E27.63603
G1 X33.458 Y53.498 E27.68272
G1 X32.418 Y53.663 E27.80777
G1 X31.500 Y53.714 E27.91694
G1 X-31.500 Y53.714 E35.39915
G1 X-32.418 Y53.663 E35.50839
G1 X-33.458 Y53.498 E35.63346
G1 X-33.840 Y53.406 E35.68005
G1 X-34.842 Y53.081 E35.80518
G1 X-35.205 Y52.930 E35.85181
G1 X-36.143 Y52.452 E35.97689
G1 X-36.478 Y52.247 E36.02355
G1 X-37.330 Y51.628 E36.14861
G1 X-37.619 Y51.381 E36.19377
G1 X-38.373 Y50.628 E36.32034
G1 X-38.628 Y50.330 E36.36695
G1 X-39.247 Y49.478 E36.49205
G1 X-39.446 Y49.153 E36.53721
G1 X-39.931 Y48.204 E36.66377
G1 X-40.081 Y47.842 E36.71040
G1 X-40.406 Y46.840 E36.83548
G1 X-40.498 Y46.459 E36.88207
G1 X-40.663 Y45.418 E37.00720
G1 X-40.711 Y44.701 E37.09250
G1 X-42.209 Y-5.239 E43.02630
G1 E41.02630 F2400.00000
G1 X-31.888 Y4.959 F7800.000
G1 E43.02630 F2400.00000
G1 F1800
G1 X-31.706 Y4.867 E43.05054
G1 X-31.428 Y4.828 E43.08383
G1 X31.428 Y4.828 E50.54897
G1 X31.710 Y4.868 E50.58275
G1 X31.891 Y4.961 E50.60699
G1 X31.971 Y5.029 E50.61940
G1 X32.093 Y5.198 E50.64415
G1 X32.158 Y5.396 E50.66890
G1 X32.172 Y5.572 E50.68987
G1 X32.172 Y44.428 E55.30465
G1 X32.133 Y44.706 E55.33794
G1 X32.039 Y44.891 E55.36268
G1 X31.888 Y45.041 E55.38793
G1 X31.802 Y45.093 E55.39983
G1 X31.604 Y45.158 E55.42458
G1 X31.428 Y45.172 E55.44555
G1 X-31.428 Y45.172 E62.91069
G1 X-31.706 Y45.133 E62.94398
G1 X-31.891 Y45.039 E62.96873
G1 X-32.041 Y44.888 E62.99397
G1 X-32.093 Y44.802 E63.00587
G1 X-32.158 Y44.604 E63.03062
G1 X-32.172 Y44.428 E63.05159
G1 X-32.172 Y5.572 E67.66637
G1 X-32.158 Y5.396 E67.68734
G1 X-32.093 Y5.198 E67.71209
G1 X-32.039 Y5.109 E67.72450
G1 X-31.933 Y4.998 E67.74265
G1 X-32.354 Y4.418 F7800.000
G1 F1800
G1 X-32.128 Y4.268 E67.77490
G1 X-31.927 Y4.185 E67.80066
G1 X-31.716 Y4.135 E67.82643
G1 X-31.456 Y4.114 E67.85740
G1 X31.456 Y4.114 E75.32921
G1 X31.707 Y4.134 E75.35907
G1 X31.930 Y4.186 E75.38625
G1 X32.128 Y4.268 E75.41170
G1 X32.313 Y4.382 E75.43746
G1 X32.477 Y4.522 E75.46322
G1 X32.618 Y4.687 E75.48899
G1 X32.732 Y4.872 E75.51475
G1 X32.815 Y5.073 E75.54051
G1 X32.865 Y5.284 E75.56628
G1 X32.886 Y5.544 E75.59726
G1 X32.886 Y44.456 E80.21870
G1 X32.865 Y44.716 E80.24968
G1 X32.815 Y44.927 E80.27544
G1 X32.732 Y45.128 E80.30120
G1 X32.618 Y45.313 E80.32697
G1 X32.484 Y45.470 E80.35161
G1 X32.310 Y45.620 E80.37878
G1 X32.128 Y45.732 E80.40424
G1 X31.927 Y45.815 E80.43000
G1 X31.716 Y45.865 E80.45576
G1 X31.456 Y45.886 E80.48674
G1 X-31.456 Y45.886 E87.95855
G1 X-31.716 Y45.865 E87.98953
G1 X-31.927 Y45.815 E88.01529
G1 X-32.128 Y45.732 E88.04105
G1 X-32.313 Y45.618 E88.06682
G1 X-32.470 Y45.484 E88.09146
G1 X-32.620 Y45.310 E88.11863
G1 X-32.732 Y45.128 E88.14409
G1 X-32.815 Y44.927 E88.16985
G1 X-32.865 Y44.716 E88.19561
G1 X-32.886 Y44.456 E88.22659
G1 X-32.886 Y5.544 E92.84803
G1 X-32.865 Y5.284 E92.87901
G1 X-32.815 Y5.073 E92.90478
G1 X-32.732 Y4.872 E92.93054
G1 X-32.618 Y4.687 E92.95630
G1 X-32.400 Y4.457 E92.99402
G1 X-32.821 Y3.877 F7800.000
G1 F1800
G1 X-32.733 Y3.802 E93.00777
G1 X-32.453 Y3.630 E93.04677
G1 X-32.149 Y3.504 E93.08588
G1 X-31.828 Y3.427 E93.12500
G1 X-31.484 Y3.400 E93.16598
G1 X31.484 Y3.400 E100.64446
G1 X31.817 Y3.426 E100.68412
G1 X32.149 Y3.504 E100.72465
G1 X32.453 Y3.630 E100.76365
G1 X32.734 Y3.802 E100.80277
G1 X32.984 Y4.016 E100.84188
G1 X33.198 Y4.266 E100.88099
G1 X33.370 Y4.547 E100.92011
G1 X33.496 Y4.851 E100.95922
G1 X33.573 Y5.172 E100.99833
G1 X33.600 Y5.516 E101.03932
G1 X33.600 Y44.484 E105.66743
G1 X33.573 Y44.828 E105.70841
G1 X33.496 Y45.149 E105.74753
G1 X33.370 Y45.453 E105.78664
G1 X33.198 Y45.734 E105.82575
G1 X32.991 Y45.976 E105.86354
G1 X32.733 Y46.198 E105.90407
G1 X32.453 Y46.370 E105.94308
G1 X32.149 Y46.496 E105.98219
G1 X31.828 Y46.573 E106.02130
G1 X31.484 Y46.600 E106.06229
G1 X-31.484 Y46.600 E113.54076
G1 X-31.828 Y46.573 E113.58175
G1 X-32.149 Y46.496 E113.62086
G1 X-32.453 Y46.370 E113.65997
G1 X-32.734 Y46.198 E113.69909
G1 X-32.976 Y45.991 E113.73688
G1 X-33.198 Y45.733 E113.77741
G1 X-33.370 Y45.453 E113.81641
G1 X-33.496 Y45.149 E113.85552
G1 X-33.573 Y44.828 E113.89464
G1 X-33.600 Y44.484 E113.93562
G1 X-33.600 Y5.516 E118.56373
G1 X-33.573 Y5.172 E118.60472
G1 X-33.496 Y4.851 E118.64383
G1 X-33.370 Y4.547 E118.68295
G1 X-33.198 Y4.266 E118.72206
G1 X-32.991 Y4.024 E118.75985
G1 X-32.866 Y3.916 E118.77950
G1 X-32.710 Y3.912 F7800.000
G1 E116.77950 F2400.00000
G1 X-31.176 Y5.275 F7800.000
G1 E118.77950 F2400.00000
G1 F1800
G1 X-31.732 Y5.831 E118.87358
G1 X-31.735 Y6.852 E118.99589
G1 X-30.148 Y5.265 E119.26468
G1 X-29.130 Y5.265 E119.38655
G1 X-31.735 Y7.870 E119.82768
G1 X-31.735 Y8.888 E119.94955
G1 X-28.112 Y5.265 E120.56303
G1 X-27.094 Y5.265 E120.68490
G1 X-31.735 Y9.906 E121.47073
G1 X-31.735 Y10.924 E121.59259
G1 X-26.076 Y5.265 E122.55077
G1 X-25.058 Y5.265 E122.67264
G1 X-31.735 Y11.942 E123.80316
G1 X-31.735 Y12.960 E123.92503
G1 X-24.040 Y5.265 E125.22790
G1 X-23.021 Y5.265 E125.34977
G1 X-31.735 Y13.979 E126.82499
G1 X-31.735 Y14.997 E126.94686
G1 X-22.003 Y5.265 E128.59443
G1 X-20.985 Y5.265 E128.71630
G1 X-31.735 Y16.015 E130.53621
G1 X-31.735 Y17.033 E130.65808
G1 X-19.967 Y5.265 E132.65034
G1 X-18.949 Y5.265 E132.77221
G1 X-31.735 Y18.051 E134.93682
G1 X-31.735 Y19.069 E135.05869
G1 X-17.931 Y5.265 E137.39565
G1 X-16.913 Y5.265 E137.51752
G1 X-31.735 Y20.087 E140.02682
G1 X-31.735 Y21.105 E140.14869
G1 X-15.895 Y5.265 E142.83035
G1 X-14.877 Y5.265 E142.95221
G1 X-31.735 Y22.123 E145.80622
G1 X-31.735 Y23.141 E145.92808
G1 X-13.859 Y5.265 E148.95443
G1 X-12.841 Y5.265 E149.07630
G1 X-31.735 Y24.159 E152.27500
G1 X-31.735 Y25.177 E152.39687
G1 X-11.823 Y5.265 E155.76791
G1 X-10.805 Y5.265 E155.88978
G1 X-31.735 Y26.195 E159.43317
G1 X-31.735 Y27.213 E159.55504
G1 X-9.787 Y5.265 E163.27078
G1 X-8.769 Y5.265 E163.39265
G1 X-31.735 Y28.231 E167.28074
G1 X-31.735 Y29.249 E167.40261
G1 X-7.751 Y5.265 E171.46304
G1 X-6.733 Y5.265 E171.58491
G1 X-31.735 Y30.267 E175.81770
G1 X-31.735 Y31.285 E175.93956
G1 X-5.715 Y5.265 E180.34470
G1 X-4.697 Y5.265 E180.46656
G1 X-31.735 Y32.303 E185.04404
G1 X-31.735 Y33.321 E185.16591
G1 X-3.679 Y5.265 E189.91574
G1 X-2.661 Y5.265 E190.03761
G1 X-31.735 Y34.339 E194.95978
G1 X-31.735 Y35.357 E195.08165
G1 X-1.643 Y5.265 E200.17617
G1 X-0.625 Y5.265 E200.29804
G1 X-31.735 Y36.375 E205.56491
G1 X-31.735 Y37.393 E205.68678
G1 X0.393 Y5.265 E211.12600
G1 X1.411 Y5.265 E211.24787
G1 X-31.735 Y38.411 E216.85943
G1 X-31.735 Y39.429 E216.98130
G1 X2.429 Y5.265 E222.76522
G1 X3.447 Y5.265 E222.88708
G1 X-31.735 Y40.447 E228.84335
G1 X-31.735 Y41.465 E228.96521
G1 X4.465 Y5.265 E235.09382
G1 X5.483 Y5.265 E235.21569
G1 X-31.735 Y42.483 E241.51665
G1 X-31.735 Y43.501 E241.63852
G1 X6.501 Y5.265 E248.11182
G1 X7.519 Y5.265 E248.23369
G1 X-31.735 Y44.519 E254.87934
G1 X-31.725 Y44.732 E254.90481
G1 X-30.933 Y44.735 E254.99957
G1 X8.537 Y5.265 E261.68182
G1 X9.555 Y5.265 E261.80369
G1 X-29.915 Y44.735 E268.48595
G1 X-28.897 Y44.735 E268.60782
G1 X10.573 Y5.265 E275.29008
G1 X11.591 Y5.265 E275.41195
G1 X-27.879 Y44.735 E282.09421
G1 X-26.861 Y44.735 E282.21607
G1 X12.609 Y5.265 E288.89833
G1 X13.627 Y5.265 E289.02020
G1 X-25.843 Y44.735 E295.70246
G1 X-24.825 Y44.735 E295.82433
G1 X14.645 Y5.265 E302.50659
G1 X15.663 Y5.265 E302.62846
G1 X-23.807 Y44.735 E309.31072
G1 X-22.789 Y44.735 E309.43258
G1 X16.681 Y5.265 E316.11484
G1 X17.699 Y5.265 E316.23671
G1 X-21.771 Y44.735 E322.91897
G1 X-20.753 Y44.735 E323.04084
G1 X18.717 Y5.265 E329.72310
G1 X19.735 Y5.265 E329.84497
G1 X-19.735 Y44.735 E336.52723
G1 X-18.717 Y44.735 E336.64910
G1 X20.753 Y5.265 E343.33135
G1 X21.771 Y5.265 E343.45322
G1 X-17.699 Y44.735 E350.13548
G1 X-16.681 Y44.735 E350.25735
G1 X22.789 Y5.265 E356.93961
G1 X23.807 Y5.265 E357.06148
G1 X-15.663 Y44.735 E363.74374
G1 X-14.645 Y44.735 E363.86561
G1 X24.825 Y5.265 E370.54786
G1 X25.843 Y5.265 E370.66973
G1 X-13.627 Y44.735 E377.35199
G1 X-12.609 Y44.735 E377.47386
G1 X26.861 Y5.265 E384.15612
G1 X27.879 Y5.265 E384.27799
G1 X-11.591 Y44.735 E390.96025
G1 X-10.573 Y44.735 E391.08211
G1 X28.897 Y5.265 E397.76437
G1 X29.915 Y5.265 E397.88624
G1 X-9.555 Y44.735 E404.56850
G1 X-8.537 Y44.735 E404.69037
G1 X30.934 Y5.265 E411.37263
G1 X31.678 Y5.265 E411.46174
G1 X31.725 Y5.268 E411.46740
G1 X31.735 Y5.481 E411.49287
G1 X-7.519 Y44.735 E418.13852
G1 X-6.501 Y44.735 E418.26039
G1 X31.735 Y6.499 E424.73369
G1 X31.735 Y7.517 E424.85556
G1 X-5.483 Y44.735 E431.15651
G1 X-4.465 Y44.735 E431.27838
G1 X31.735 Y8.535 E437.40699
G1 X31.735 Y9.553 E437.52886
G1 X-3.447 Y44.735 E443.48512
G1 X-2.429 Y44.735 E443.60698
G1 X31.735 Y10.571 E449.39090
G1 X31.735 Y11.589 E449.51276
G1 X-1.411 Y44.735 E455.12433
G1 X-0.393 Y44.735 E455.24620
G1 X31.735 Y12.607 E460.68541
G1 X31.735 Y13.625 E460.80728
G1 X0.625 Y44.735 E466.07415
G1 X1.643 Y44.735 E466.19602
G1 X31.735 Y14.643 E471.29054
G1 X31.735 Y15.661 E471.41240
G1 X2.661 Y44.735 E476.33458
G1 X3.679 Y44.735 E476.45645
G1 X31.735 Y16.679 E481.20627
G1 X31.735 Y17.697 E481.32814
G1 X4.697 Y44.735 E485.90562
G1 X5.715 Y44.735 E486.02748
G1 X31.735 Y18.715 E490.43261
G1 X31.735 Y19.733 E490.55448
G1 X6.733 Y44.735 E494.78726
G1 X7.751 Y44.735 E494.90913
G1 X31.735 Y20.751 E498.96957
G1 X31.735 Y21.769 E499.09143
G1 X8.769 Y44.735 E502.97952
G1 X9.787 Y44.735 E503.10139
G1 X31.735 Y22.787 E506.81713
G1 X31.735 Y23.805 E506.93900
G1 X10.805 Y44.735 E510.48239
G1 X11.823 Y44.735 E510.60426
