; generated by Slic3r 1.3.0 on 2024-04-25 at 11:49:05

; external perimeters extrusion width = 0.44mm (3.38mm^3/s)
; perimeters extrusion width = 0.48mm (7.54mm^3/s)
; infill extrusion width = 0.48mm (10.05mm^3/s)
; solid infill extrusion width = 0.48mm (2.51mm^3/s)
; top infill extrusion width = 0.48mm (1.88mm^3/s)
; support material extrusion width = 0.44mm (6.76mm^3/s)

M127
;
;
;- - - - SUMMARY - - - -
;
;first layer temperature = 220C
;temperature = 220C
;first layer bed temperature = 55C
;bed temperature = 55C
;
;first layer height = 0.4mm
;layer height = 0.3mm
;z_offset = 0mm
;perimeters = 3
;fill density = 30%
;infill every n layers = 1
;skirts = 1
;brim width = 0mm
;raft layers = 0
;support material = 1
;support material threshold = 60% degrees
;support material enforced for first n layers = 0
;support material extruder = 1
;
;first layer speed = 30
;perimeter speed = 60mm/s
;small perimeter speed = 15
;external perimeter speed = 50%
;infill speed = 80mm/s
;solid infill speed = 20
;top solid infill speed = 15
;support material speed = 60mm/s
;gap fill speed = 20mm/s
;travel speed = 130mm/s
;bridge speed = 60mm/s
;bridge flow ratio = 1
;slowdown if layer time is less than = 5secs
;minimum print speed = 10mm/s
;
;bottom solid layers = 3
;top solid layers = 3
;
;
;- - - - EXTRUSION - - - -
;
;filament diameter = 1.75mm
;nozzle diameter = 0.4mm
;bridge flow ratio = 1
;extrusion axis = E
;extrusion multiplier = 1
;extrusion width = 0mm
;first layer extrusion width = 200%mm
;perimeter extrusion width = 0mm
;infill extrusion width = 0mm
;solid infill extrusion width = 0mm
;top infill extrusion width = 0mm
;support material extrusion width = 0mm
;
;
;- - - - SUPPORT - - - -
;
;raft layers = 0
;brim width = 0mm
;support material = 1
;support material threshold = 60% degrees
;support material enforced for first n layers = 0
;support material extruder = 1
;support material extrusion width = 0mm
;support material interface layers = 3
;support material interface spacing = 0mm
;support material pattern = pillars
;support material angle = 0 degrees
;support material spacing = 2.5mm
;support material speed = 60mm/s
;
;
;- - - - EVERYTHING ELSE - - - -
;
;complete objects = 0
;cooling enabled = 1
;default acceleration = 0mm/s/s
;disable fan for first layers = 3
;duplicate = [duplicate]
;duplicate distance = 6mm
;duplicate grid = [duplicate_grid]
;external perimeters first = 0
;extra perimeters = 1
;extruder clearance height = 20mm
;extruder clearance radius = 20mm
;extruder offset = 0,0mm
;fan always on = 0
;fan below layer time = 60secs
;fill angle = 45 degrees
;fill pattern = rectilinear
;gcode arcs = 0
;gcode comments = 0
;gcode flavor = sailfish
;infill acceleration = 0mm/s/s
;infill extruder = 1
;infill first = 0
;infill only where needed = 0
;minimum skirt length = 0mm
;only retract when crossing perimeters = 1
;perimeter acceleration = 0mm/s/s
;perimeter extruder = 1
;randomize start = [randomize_start]
;resolution = 0mm
;retract before travel = 2
;retract on layer change = 0
;retract length = 2mm
;retract length on tool change = 10mm
;retract lift = 0
;retract extra distance on restart = 0mm
;retract extra on tool change = 0mm
;retract speed = 40mm/s
;rotate = [rotate] degrees
;scale = 100%
;skirt distance = 6mm
;skirt height = 1mm
;solid fill pattern = [solid_fill_pattern]
;solid infill below area = 70mm (sq)
;solid infill every n layers = 0
;
;
;- - - - - - - - - - - - - - - - - - - - - - - - -
;
;
T0; set primary extruder
M73 P0; enable show build progress
;M109 S55 T0; heat bed up to first layer temperature
M140 S55 T0; heat bed up to first layer temperature
M104 S220 T0; set nozzle heater to first layer temperature
M103; disable RPM
G21; set units to mm
G162 X Y F6000; home XY axes maximum
G161 Z F9000; home Z axis minimum
G92 Z0; set Z to 0
M132 X Y Z A B; Recall stored home offsets
G90; set positioning to absolute
G1 Z30; move Z to waiting height
G1 X-95 Y-73 Z30 F14000; move to waiting position (front left corner of print bed)
G130 X0 Y0 A0 B0; set stepper motor vref to lower value while heating
M6 T0; wait for bed and extruder to heat up
G130 X127 Y127 A127 B127; set stepper motor vref to defaults
M108 T0 R3; set extruder speed
G92 E0; set E to 0
G90; use absolute coordinates
M320; acceleration enabled for all commands that follow
G1 Z0.4 F6000.000; move to first layer height
G1 X100 Y-73 F14000.000; move to front right corner of bed
G1 X-90 Y-73 E24 F2000.000; extrude a line of filament across the front edge of the bed
G4 P2000; wait for ooze to slow
G1 Z0 F6000.000; lower nozzle height to 0
G1 X-95; wipe nozzle
G1 Z0.4 F6000.000; set nozzle to first layer height
G1 F12000; ensure fast travel to first print move
G92 E0; set E to 0 again
M73 P0; reset build progress to 0
; Filament gcode

G21 ; set units to millimeters
G90 ; use absolute coordinates
M73 P0
G1 Z0.400 F7800.000
G1 E-2.00000 F2400.00000
G1 X-42.211 Y5.299 F7800.000
G1 E0.00000 F2400.00000
G1 F1800
G1 X-40.711 Y-44.701 E5.94093
G1 X-40.663 Y-45.418 E6.02623
G1 X-40.498 Y-46.458 E6.15135
G1 X-40.406 Y-46.840 E6.19796
G1 X-40.081 Y-47.842 E6.32307
G1 X-39.931 Y-48.204 E6.36967
G1 X-39.452 Y-49.143 E6.49479
G1 X-39.247 Y-49.478 E6.54138
G1 X-38.628 Y-50.330 E6.66651
G1 X-38.373 Y-50.628 E6.71311
G1 X-37.628 Y-51.373 E6.83823
G1 X-37.330 Y-51.628 E6.88482
G1 X-36.478 Y-52.247 E7.00995
G1 X-36.143 Y-52.452 E7.05654
G1 X-35.204 Y-52.931 E7.18167
G1 X-34.842 Y-53.081 E7.22828
G1 X-33.840 Y-53.406 E7.35339
G1 X-33.458 Y-53.498 E7.39998
G1 X-32.418 Y-53.663 E7.52510
G1 X-31.500 Y-53.714 E7.63429
G1 X31.500 Y-53.714 E15.11649
G1 X32.418 Y-53.663 E15.22574
G1 X33.458 Y-53.498 E15.35080
G1 X33.841 Y-53.406 E15.39749
G1 X34.842 Y-53.081 E15.52253
G1 X35.204 Y-52.931 E15.56912
G1 X36.143 Y-52.452 E15.69424
G1 X36.478 Y-52.247 E15.74084
G1 X37.330 Y-51.628 E15.86595
G1 X37.629 Y-51.372 E15.91271
G1 X38.373 Y-50.628 E16.03769
G1 X38.628 Y-50.330 E16.08428
G1 X39.247 Y-49.478 E16.20938
G1 X39.453 Y-49.142 E16.25613
G1 X39.931 Y-48.204 E16.38112
G1 X40.081 Y-47.841 E16.42788
G1 X40.406 Y-46.840 E16.55284
G1 X40.498 Y-46.458 E16.59950
G1 X40.663 Y-45.418 E16.72454
G1 X40.712 Y-44.688 E16.81139
G1 X42.419 Y16.169 E24.04194
G1 X42.422 Y45.143 E27.48307
G1 X42.025 Y47.417 E27.75729
G1 X40.881 Y49.423 E28.03151
G1 X39.125 Y50.922 E28.30574
G1 X37.934 Y51.477 E28.46175
G1 X32.999 Y53.212 E29.08306
G1 X32.340 Y53.406 E29.16466
G1 X31.958 Y53.498 E29.21125
G1 X30.918 Y53.663 E29.33639
G1 X30.000 Y53.714 E29.44556
G1 X-33.000 Y53.714 E36.92777
G1 X-33.918 Y53.663 E37.03698
G1 X-34.958 Y53.498 E37.16208
G1 X-35.346 Y53.405 E37.20944
G1 X-36.342 Y53.081 E37.33380
G1 X-36.704 Y52.931 E37.38039
G1 X-37.643 Y52.452 E37.50551
G1 X-37.978 Y52.247 E37.55210
G1 X-38.830 Y51.628 E37.67724
G1 X-39.129 Y51.372 E37.72400
G1 X-39.873 Y50.628 E37.84896
G1 X-40.126 Y50.332 E37.89522
G1 X-40.747 Y49.478 E38.02067
G1 X-40.952 Y49.143 E38.06726
G1 X-41.431 Y48.204 E38.19240
G1 X-41.581 Y47.842 E38.23899
G1 X-41.906 Y46.840 E38.36411
G1 X-41.997 Y46.461 E38.41037
G1 X-42.163 Y45.418 E38.53583
G1 X-42.214 Y44.500 E38.64501
G1 X-42.212 Y5.359 E43.29364
G1 E41.29364 F2400.00000
G1 X-32.491 Y23.265 F7800.000
G1 E43.29364 F2400.00000
G1 F1800
G1 X-31.917 Y21.996 E43.45902
G1 X-31.138 Y20.842 E43.62440
G1 X-30.174 Y19.837 E43.78978
G1 X-29.055 Y19.009 E43.95516
G1 X-27.811 Y18.382 E44.12054
G1 X-26.480 Y17.974 E44.28592
G1 X-25.114 Y17.799 E44.44947
G1 X-23.709 Y17.856 E44.61643
G1 X-22.346 Y18.150 E44.78204
G1 X-21.054 Y18.669 E44.94742
G1 X-19.868 Y19.399 E45.11281
G1 X-18.823 Y20.319 E45.27819
G1 X-17.948 Y21.403 E45.44357
G1 X-17.269 Y22.618 E45.60895
G1 X-16.805 Y23.931 E45.77433
G1 X-16.570 Y25.304 E45.93971
G1 X-16.570 Y26.696 E46.10509
G1 X-16.805 Y28.069 E46.27047
G1 X-17.269 Y29.382 E46.43585
G1 X-17.948 Y30.597 E46.60123
G1 X-18.823 Y31.681 E46.76661
G1 X-19.868 Y32.601 E46.93199
G1 X-21.054 Y33.331 E47.09737
G1 X-22.346 Y33.850 E47.26275
G1 X-23.707 Y34.143 E47.42813
G1 X-25.098 Y34.203 E47.59349
G1 X-26.480 Y34.026 E47.75890
G1 X-27.811 Y33.618 E47.92428
G1 X-29.055 Y32.991 E48.08966
G1 X-30.174 Y32.163 E48.25504
G1 X-31.138 Y31.158 E48.42042
G1 X-31.917 Y30.004 E48.58580
G1 X-32.491 Y28.735 E48.75118
G1 X-32.842 Y27.387 E48.91656
G1 X-32.960 Y26.000 E49.08194
G1 X-32.842 Y24.613 E49.24732
G1 X-32.506 Y23.323 E49.40558
G1 X-31.815 Y23.504 F7800.000
G1 F1800
G1 X-31.292 Y22.346 E49.55652
G1 X-30.580 Y21.293 E49.70746
G1 X-29.701 Y20.375 E49.85840
G1 X-28.679 Y19.619 E50.00935
G1 X-27.544 Y19.047 E50.16029
G1 X-26.329 Y18.675 E50.31123
G1 X-25.083 Y18.515 E50.46043
G1 X-23.799 Y18.567 E50.61296
G1 X-22.556 Y18.835 E50.76404
G1 X-21.377 Y19.309 E50.91498
G1 X-20.294 Y19.975 E51.06592
G1 X-19.340 Y20.815 E51.21687
G1 X-18.542 Y21.804 E51.36781
G1 X-17.922 Y22.914 E51.51875
G1 X-17.499 Y24.112 E51.66969
G1 X-17.284 Y25.365 E51.82064
G1 X-17.284 Y26.635 E51.97158
G1 X-17.499 Y27.888 E52.12252
G1 X-17.922 Y29.086 E52.27346
G1 X-18.542 Y30.196 E52.42441
G1 X-19.340 Y31.185 E52.57535
G1 X-20.294 Y32.025 E52.72629
G1 X-21.377 Y32.691 E52.87723
G1 X-22.556 Y33.165 E53.02818
G1 X-23.798 Y33.432 E53.17912
G1 X-25.068 Y33.486 E53.33004
G1 X-26.329 Y33.325 E53.48101
G1 X-27.544 Y32.953 E53.63195
G1 X-28.679 Y32.381 E53.78289
G1 X-29.701 Y31.625 E53.93383
G1 X-30.580 Y30.707 E54.08478
G1 X-31.292 Y29.654 E54.23572
G1 X-31.815 Y28.496 E54.38666
G1 X-32.135 Y27.266 E54.53760
G1 X-32.243 Y26.000 E54.68855
G1 X-32.135 Y24.734 E54.83949
G1 X-31.830 Y23.562 E54.98331
G1 X-31.139 Y23.742 F7800.000
G1 F1800
G1 X-30.666 Y22.695 E55.11981
G1 X-30.022 Y21.743 E55.25632
G1 X-29.227 Y20.913 E55.39282
G1 X-28.303 Y20.230 E55.52932
G1 X-27.277 Y19.712 E55.66583
G1 X-26.178 Y19.376 E55.80233
G1 X-25.051 Y19.231 E55.93718
G1 X-23.890 Y19.278 E56.07527
G1 X-22.766 Y19.521 E56.21182
G1 X-21.699 Y19.949 E56.34833
G1 X-20.721 Y20.552 E56.48483
G1 X-19.858 Y21.311 E56.62134
G1 X-19.136 Y22.205 E56.75784
G1 X-18.575 Y23.209 E56.89435
G1 X-18.192 Y24.292 E57.03085
G1 X-17.998 Y25.425 E57.16736
G1 X-17.998 Y26.575 E57.30386
G1 X-18.192 Y27.708 E57.44037
G1 X-18.575 Y28.791 E57.57687
G1 X-19.136 Y29.795 E57.71338
G1 X-19.858 Y30.689 E57.84988
G1 X-20.721 Y31.448 E57.98638
G1 X-21.699 Y32.051 E58.12289
G1 X-22.766 Y32.479 E58.25939
G1 X-23.889 Y32.722 E58.39590
G1 X-25.037 Y32.770 E58.53238
G1 X-26.178 Y32.624 E58.66891
G1 X-27.277 Y32.288 E58.80541
G1 X-28.303 Y31.770 E58.94192
G1 X-29.227 Y31.087 E59.07842
G1 X-30.022 Y30.257 E59.21493
G1 X-30.666 Y29.305 E59.35143
G1 X-31.139 Y28.258 E59.48794
G1 X-31.429 Y27.145 E59.62444
G1 X-31.526 Y26.000 E59.76094
G1 X-31.429 Y24.855 E59.89745
G1 X-31.154 Y23.801 E60.02683
G1 X-31.139 Y23.742 F7800.000
G1 E58.02683 F2400.00000
G1 X13.540 Y26.000 F7800.000
G1 E60.02683 F2400.00000
G1 F1800
G1 X13.658 Y24.613 E60.19221
G1 X14.009 Y23.265 E60.35759
G1 X14.583 Y21.996 E60.52297
G1 X15.362 Y20.842 E60.68835
G1 X16.326 Y19.837 E60.85373
G1 X17.445 Y19.009 E61.01911
G1 X18.689 Y18.382 E61.18449
G1 X20.020 Y17.974 E61.34987
G1 X21.386 Y17.799 E61.51342
G1 X22.791 Y17.856 E61.68038
G1 X24.154 Y18.150 E61.84599
G1 X25.446 Y18.669 E62.01137
G1 X26.632 Y19.399 E62.17675
G1 X27.677 Y20.319 E62.34213
G1 X28.552 Y21.403 E62.50751
G1 X29.231 Y22.618 E62.67290
G1 X29.695 Y23.931 E62.83828
G1 X29.930 Y25.304 E63.00366
G1 X29.930 Y26.696 E63.16904
G1 X29.695 Y28.069 E63.33442
G1 X29.231 Y29.382 E63.49980
G1 X28.552 Y30.597 E63.66518
G1 X27.687 Y31.669 E63.82873
G1 X26.634 Y32.600 E63.99569
G1 X25.446 Y33.331 E64.16130
G1 X24.154 Y33.850 E64.32668
G1 X22.793 Y34.143 E64.49206
G1 X21.402 Y34.203 E64.65744
G1 X20.020 Y34.026 E64.82282
G1 X18.689 Y33.618 E64.98820
G1 X17.445 Y32.991 E65.15358
G1 X16.326 Y32.163 E65.31896
G1 X15.362 Y31.158 E65.48434
G1 X14.596 Y30.024 E65.64679
G1 X14.010 Y28.738 E65.81471
G1 X13.658 Y27.387 E65.98045
G1 X13.545 Y26.060 E66.13870
G1 X14.257 Y26.000 F7800.000
G1 F1800
G1 X14.365 Y24.734 E66.28965
G1 X14.685 Y23.504 E66.44059
G1 X15.208 Y22.346 E66.59153
G1 X15.920 Y21.293 E66.74248
G1 X16.799 Y20.375 E66.89342
G1 X17.821 Y19.619 E67.04436
G1 X18.956 Y19.047 E67.19530
G1 X20.171 Y18.675 E67.34625
G1 X21.417 Y18.515 E67.49544
G1 X22.701 Y18.567 E67.64797
G1 X23.944 Y18.835 E67.79905
G1 X25.123 Y19.309 E67.94999
G1 X26.206 Y19.975 E68.10094
G1 X27.160 Y20.815 E68.25188
G1 X27.958 Y21.804 E68.40282
G1 X28.578 Y22.914 E68.55376
G1 X29.001 Y24.112 E68.70471
G1 X29.216 Y25.365 E68.85565
G1 X29.216 Y26.635 E69.00659
G1 X29.001 Y27.888 E69.15753
G1 X28.578 Y29.086 E69.30848
G1 X27.958 Y30.196 E69.45942
G1 X27.169 Y31.173 E69.60862
G1 X26.207 Y32.024 E69.76114
G1 X25.123 Y32.691 E69.91222
G1 X23.944 Y33.165 E70.06317
G1 X22.702 Y33.432 E70.21411
G1 X21.432 Y33.486 E70.36505
G1 X20.171 Y33.325 E70.51600
G1 X18.956 Y32.953 E70.66694
G1 X17.821 Y32.381 E70.81788
G1 X16.799 Y31.625 E70.96882
G1 X15.920 Y30.707 E71.11977
G1 X15.221 Y29.674 E71.26792
G1 X14.685 Y28.498 E71.42139
G1 X14.365 Y27.266 E71.57256
G1 X14.262 Y26.060 E71.71637
G1 X14.974 Y26.000 F7800.000
G1 F1800
G1 X15.071 Y24.855 E71.85288
G1 X15.361 Y23.742 E71.98938
G1 X15.834 Y22.695 E72.12589
G1 X16.478 Y21.743 E72.26239
G1 X17.273 Y20.913 E72.39890
G1 X18.197 Y20.230 E72.53540
G1 X19.223 Y19.712 E72.67191
G1 X20.322 Y19.376 E72.80841
G1 X21.449 Y19.231 E72.94326
G1 X22.610 Y19.278 E73.08135
G1 X23.734 Y19.521 E73.21790
G1 X24.801 Y19.949 E73.35441
G1 X25.779 Y20.552 E73.49091
G1 X26.642 Y21.311 E73.62742
G1 X27.364 Y22.205 E73.76392
G1 X27.925 Y23.209 E73.90043
G1 X28.308 Y24.292 E74.03693
G1 X28.502 Y25.425 E74.17343
G1 X28.502 Y26.575 E74.30994
G1 X28.308 Y27.708 E74.44644
G1 X27.925 Y28.791 E74.58295
G1 X27.364 Y29.795 E74.71945
G1 X26.651 Y30.678 E74.85430
G1 X25.780 Y31.448 E74.99239
G1 X24.801 Y32.051 E75.12894
G1 X23.734 Y32.479 E75.26545
G1 X22.611 Y32.722 E75.40195
G1 X21.462 Y32.770 E75.53846
G1 X20.322 Y32.624 E75.67496
G1 X19.223 Y32.288 E75.81147
G1 X18.197 Y31.770 E75.94797
G1 X17.273 Y31.087 E76.08448
G1 X16.478 Y30.257 E76.22098
G1 X15.847 Y29.323 E76.35484
G1 X15.361 Y28.258 E76.49387
G1 X15.071 Y27.145 E76.63046
G1 X14.979 Y26.060 E76.75984
G1 X14.974 Y26.000 F7800.000
G1 E74.75984 F2400.00000
G1 X30.391 Y45.039 F7800.000
G1 E76.75984 F2400.00000
G1 F1800
G1 X30.206 Y45.133 E76.78459
G1 X29.928 Y45.172 E76.81787
G1 X-32.928 Y45.172 E84.28302
G1 X-33.204 Y45.134 E84.31609
G1 X-33.391 Y45.039 E84.34105
G1 X-33.539 Y44.891 E84.36591
G1 X-33.593 Y44.802 E84.37820
G1 X-33.658 Y44.604 E84.40295
G1 X-33.672 Y44.428 E84.42392
G1 X-33.672 Y5.572 E89.03870
G1 X-33.633 Y5.294 E89.07199
G1 X-33.539 Y5.109 E89.09674
G1 X-33.391 Y4.961 E89.12160
G1 X-33.302 Y4.907 E89.13389
G1 X-33.104 Y4.842 E89.15864
G1 X-32.928 Y4.828 E89.17961
G1 X29.928 Y4.828 E96.64475
G1 X30.207 Y4.867 E96.67816
G1 X30.391 Y4.961 E96.70279
G1 X30.471 Y5.029 E96.71520
G1 X30.593 Y5.198 E96.73995
G1 X30.658 Y5.396 E96.76469
G1 X30.672 Y5.572 E96.78567
G1 X30.672 Y44.428 E101.40044
G1 X30.634 Y44.704 E101.43352
G1 X30.539 Y44.891 E101.45847
G1 X30.437 Y45.000 E101.47613
G1 X30.855 Y45.582 F7800.000
G1 F1800
G1 X30.628 Y45.732 E101.50850
G1 X30.427 Y45.815 E101.53426
G1 X30.216 Y45.865 E101.56002
G1 X29.956 Y45.886 E101.59100
G1 X-32.956 Y45.886 E109.06281
G1 X-33.216 Y45.865 E109.09379
G1 X-33.425 Y45.815 E109.11929
G1 X-33.628 Y45.731 E109.14538
G1 X-33.813 Y45.618 E109.17107
G1 X-33.976 Y45.479 E109.19658
G1 X-34.119 Y45.312 E109.22267
G1 X-34.232 Y45.128 E109.24836
G1 X-34.315 Y44.927 E109.27412
G1 X-34.365 Y44.716 E109.29988
G1 X-34.386 Y44.456 E109.33086
G1 X-34.386 Y5.544 E113.95231
G1 X-34.365 Y5.284 E113.98328
G1 X-34.315 Y5.073 E114.00905
G1 X-34.232 Y4.872 E114.03481
G1 X-34.118 Y4.687 E114.06057
G1 X-33.979 Y4.524 E114.08608
G1 X-33.812 Y4.381 E114.11217
G1 X-33.628 Y4.268 E114.13786
G1 X-33.427 Y4.185 E114.16362
G1 X-33.216 Y4.135 E114.18938
G1 X-32.956 Y4.114 E114.22036
G1 X29.956 Y4.114 E121.69217
G1 X30.214 Y4.134 E121.72289
G1 X30.428 Y4.185 E121.74898
G1 X30.628 Y4.268 E121.77467
G1 X30.813 Y4.382 E121.80043
G1 X30.977 Y4.522 E121.82619
G1 X31.118 Y4.687 E121.85196
G1 X31.232 Y4.872 E121.87772
