; generated by Slic3r 1.3.0 on 2024-04-16 at 11:50:38

; external perimeters extrusion width = 0.44mm (3.38mm^3/s)
; perimeters extrusion width = 0.48mm (7.54mm^3/s)
; infill extrusion width = 0.48mm (10.05mm^3/s)
; solid infill extrusion width = 0.48mm (2.51mm^3/s)
; top infill extrusion width = 0.48mm (1.88mm^3/s)

M127
;
;
;- - - - SUMMARY - - - -
;
;first layer temperature = 218C
;temperature = 218C
;first layer bed temperature = 64C
;bed temperature = 64C
;
;first layer height = 0.4mm
;layer height = 0.3mm
;z_offset = 0mm
;perimeters = 3
;fill density = 30%
;infill every n layers = 1
;skirts = 1
;brim width = 0mm
;raft layers = 0
;support material = 0
;support material threshold = 60% degrees
;support material enforced for first n layers = 0
;support material extruder = 1
;
;first layer speed = 30
;perimeter speed = 60mm/s
;small perimeter speed = 15
;external perimeter speed = 50%
;infill speed = 80mm/s
;solid infill speed = 20
;top solid infill speed = 15
;support material speed = 60mm/s
;gap fill speed = 20mm/s
;travel speed = 130mm/s
;bridge speed = 60mm/s
;bridge flow ratio = 1
;slowdown if layer time is less than = 5secs
;minimum print speed = 10mm/s
;
;bottom solid layers = 3
;top solid layers = 3
;
;
;- - - - EXTRUSION - - - -
;
;filament diameter = 1.75mm
;nozzle diameter = 0.4mm
;bridge flow ratio = 1
;extrusion axis = E
;extrusion multiplier = 1
;extrusion width = 0mm
;first layer extrusion width = 200%mm
;perimeter extrusion width = 0mm
;infill extrusion width = 0mm
;solid infill extrusion width = 0mm
;top infill extrusion width = 0mm
;support material extrusion width = 0mm
;
;
;- - - - SUPPORT - - - -
;
;raft layers = 0
;brim width = 0mm
;support material = 0
;support material threshold = 60% degrees
;support material enforced for first n layers = 0
;support material extruder = 1
;support material extrusion width = 0mm
;support material interface layers = 3
;support material interface spacing = 0mm
;support material pattern = pillars
;support material angle = 0 degrees
;support material spacing = 2.5mm
;support material speed = 60mm/s
;
;
;- - - - EVERYTHING ELSE - - - -
;
;complete objects = 0
;cooling enabled = 1
;default acceleration = 0mm/s/s
;disable fan for first layers = 3
;duplicate = [duplicate]
;duplicate distance = 6mm
;duplicate grid = [duplicate_grid]
;external perimeters first = 0
;extra perimeters = 1
;extruder clearance height = 20mm
;extruder clearance radius = 20mm
;extruder offset = 0,0mm
;fan always on = 0
;fan below layer time = 60secs
;fill angle = 45 degrees
;fill pattern = rectilinear
;gcode arcs = 0
;gcode comments = 0
;gcode flavor = sailfish
;infill acceleration = 0mm/s/s
;infill extruder = 1
;infill first = 0
;infill only where needed = 0
;minimum skirt length = 0mm
;only retract when crossing perimeters = 1
;perimeter acceleration = 0mm/s/s
;perimeter extruder = 1
;randomize start = [randomize_start]
;resolution = 0mm
;retract before travel = 2
;retract on layer change = 0
;retract length = 2mm
;retract length on tool change = 10mm
;retract lift = 0
;retract extra distance on restart = 0mm
;retract extra on tool change = 0mm
;retract speed = 40mm/s
;rotate = [rotate] degrees
;scale = 100%
;skirt distance = 6mm
;skirt height = 1mm
;solid fill pattern = [solid_fill_pattern]
;solid infill below area = 70mm (sq)
;solid infill every n layers = 0
;
;
;- - - - - - - - - - - - - - - - - - - - - - - - -
;
;
T0; set primary extruder
M73 P0; enable show build progress
;M109 S64 T0; heat bed up to first layer temperature
M140 S64 T0; heat bed up to first layer temperature
M104 S218 T0; set nozzle heater to first layer temperature
M103; disable RPM
G21; set units to mm
G162 X Y F6000; home XY axes maximum
G161 Z F9000; home Z axis minimum
G92 Z0; set Z to 0
M132 X Y Z A B; Recall stored home offsets
G90; set positioning to absolute
G1 Z30; move Z to waiting height
G1 X-95 Y-73 Z30 F14000; move to waiting position (front left corner of print bed)
G130 X0 Y0 A0 B0; set stepper motor vref to lower value while heating
M6 T0; wait for bed and extruder to heat up
G130 X127 Y127 A127 B127; set stepper motor vref to defaults
M108 T0 R3; set extruder speed
G92 E0; set E to 0
G90; use absolute coordinates
M320; acceleration enabled for all commands that follow
G1 Z0.4 F6000.000; move to first layer height
G1 X100 Y-73 F14000.000; move to front right corner of bed
G1 X-90 Y-73 E24 F2000.000; extrude a line of filament across the front edge of the bed
G4 P2000; wait for ooze to slow
G1 Z0 F6000.000; lower nozzle height to 0
G1 X-95; wipe nozzle
G1 Z0.4 F6000.000; set nozzle to first layer height
G1 F12000; ensure fast travel to first print move
G92 E0; set E to 0 again
M73 P0; reset build progress to 0
; Filament gcode

G21 ; set units to millimeters
G90 ; use absolute coordinates
M73 P0
G1 Z0.400 F7800.000
G1 E-2.00000 F2400.00000
G1 X29.500 Y25.964 F7800.000
G1 E0.00000 F2400.00000
G1 F1800
G1 X-29.500 Y25.964 E7.00715
G1 X-30.418 Y25.913 E7.11632
G1 X-31.458 Y25.748 E7.24146
G1 X-31.840 Y25.656 E7.28805
G1 X-32.842 Y25.331 E7.41318
G1 X-33.205 Y25.180 E7.45991
G1 X-34.143 Y24.702 E7.58489
G1 X-34.478 Y24.497 E7.63148
G1 X-35.330 Y23.878 E7.75661
G1 X-35.629 Y23.622 E7.80338
G1 X-36.373 Y22.878 E7.92833
G1 X-36.630 Y22.577 E7.97535
G1 X-37.247 Y21.728 E8.10005
G1 X-37.452 Y21.393 E8.14664
G1 X-37.931 Y20.454 E8.27177
G1 X-38.081 Y20.092 E8.31836
G1 X-38.406 Y19.090 E8.44349
G1 X-38.498 Y18.709 E8.49008
G1 X-38.663 Y17.668 E8.61521
G1 X-38.694 Y17.275 E8.66199
G1 X-38.714 Y16.750 E8.72441
G1 X-38.714 Y-16.750 E12.70305
G1 X-38.663 Y-17.668 E12.81223
G1 X-38.498 Y-18.708 E12.93736
G1 X-38.406 Y-19.090 E12.98395
G1 X-38.081 Y-20.092 E13.10908
G1 X-37.930 Y-20.455 E13.15571
G1 X-37.452 Y-21.393 E13.28079
G1 X-37.246 Y-21.729 E13.32758
G1 X-36.628 Y-22.580 E13.45251
G1 X-36.375 Y-22.876 E13.49875
G1 X-35.628 Y-23.623 E13.62423
G1 X-35.330 Y-23.878 E13.67088
G1 X-34.478 Y-24.497 E13.79595
G1 X-34.143 Y-24.702 E13.84254
G1 X-33.204 Y-25.181 E13.96767
G1 X-32.842 Y-25.331 E14.01426
G1 X-31.840 Y-25.656 E14.13939
G1 X-31.458 Y-25.748 E14.18608
G1 X-30.418 Y-25.913 E14.31111
G1 X-29.500 Y-25.964 E14.42029
G1 X29.500 Y-25.964 E21.42744
G1 X30.418 Y-25.913 E21.53662
G1 X31.458 Y-25.748 E21.66175
G1 X31.840 Y-25.656 E21.70834
G1 X32.842 Y-25.331 E21.83346
G1 X33.204 Y-25.181 E21.88006
G1 X34.143 Y-24.702 E22.00519
G1 X34.478 Y-24.497 E22.05189
G1 X35.330 Y-23.878 E22.17690
G1 X35.628 Y-23.623 E22.22349
G1 X36.373 Y-22.878 E22.34863
G1 X36.628 Y-22.580 E22.39522
G1 X37.247 Y-21.728 E22.52034
G1 X37.451 Y-21.396 E22.56658
G1 X37.931 Y-20.454 E22.69205
G1 X38.081 Y-20.092 E22.73864
G1 X38.406 Y-19.090 E22.86379
G1 X38.498 Y-18.708 E22.91038
G1 X38.663 Y-17.668 E23.03549
G1 X38.714 Y-16.750 E23.14468
G1 X38.714 Y16.750 E27.12331
G1 X38.663 Y17.668 E27.23251
G1 X38.498 Y18.708 E27.35761
G1 X38.406 Y19.090 E27.40420
G1 X38.081 Y20.092 E27.52935
G1 X37.929 Y20.458 E27.57636
G1 X37.452 Y21.393 E27.70106
G1 X37.247 Y21.728 E27.74765
G1 X36.628 Y22.580 E27.87278
G1 X36.373 Y22.878 E27.91937
G1 X35.628 Y23.623 E28.04450
G1 X35.330 Y23.878 E28.09110
G1 X34.478 Y24.497 E28.21622
G1 X34.143 Y24.702 E28.26281
G1 X33.204 Y25.181 E28.38794
G1 X32.842 Y25.331 E28.43453
G1 X31.840 Y25.656 E28.55965
G1 X31.457 Y25.748 E28.60641
G1 X30.418 Y25.913 E28.73138
G1 X29.560 Y25.962 E28.83344
G1 E26.83344 F2400.00000
G1 X17.360 Y1.543 F7800.000
G1 E28.83344 F2400.00000
G1 F1800
G1 X17.321 Y1.395 E28.85159
G1 X17.224 Y0.250 E28.98810
G1 X17.321 Y-0.895 E29.12460
G1 X17.611 Y-2.008 E29.26111
G1 X18.084 Y-3.055 E29.39761
G1 X18.728 Y-4.007 E29.53412
G1 X19.523 Y-4.837 E29.67062
G1 X20.447 Y-5.520 E29.80712
G1 X21.473 Y-6.038 E29.94363
G1 X22.572 Y-6.374 E30.08013
G1 X23.688 Y-6.517 E30.21370
G1 X24.860 Y-6.472 E30.35302
G1 X25.984 Y-6.229 E30.48961
G1 X27.051 Y-5.801 E30.62611
G1 X28.030 Y-5.198 E30.76262
G1 X28.892 Y-4.439 E30.89912
G1 X29.614 Y-3.545 E31.03563
G1 X30.175 Y-2.541 E31.17213
G1 X30.558 Y-1.458 E31.30864
G1 X30.752 Y-0.325 E31.44514
G1 X30.752 Y0.825 E31.58164
G1 X30.558 Y1.958 E31.71815
G1 X30.175 Y3.041 E31.85465
G1 X29.614 Y4.045 E31.99116
G1 X28.906 Y4.922 E32.12502
G1 X28.030 Y5.698 E32.26405
G1 X27.051 Y6.301 E32.40064
G1 X25.984 Y6.729 E32.53714
G1 X24.861 Y6.972 E32.67365
G1 X23.712 Y7.020 E32.81015
G1 X22.572 Y6.874 E32.94666
G1 X21.473 Y6.538 E33.08316
G1 X20.447 Y6.020 E33.21966
G1 X19.523 Y5.337 E33.35617
G1 X18.728 Y4.507 E33.49267
G1 X18.084 Y3.555 E33.62918
G1 X17.611 Y2.508 E33.76568
G1 X17.375 Y1.601 E33.87690
G1 X17.211 Y1.507 F7800.000
G1 E31.87690 F2400.00000
G1 X-14.531 Y0.391 F7800.000
G1 E33.87690 F2400.00000
G1 F1800
G1 X-14.746 Y1.644 E34.02785
G1 X-15.169 Y2.842 E34.17879
G1 X-15.789 Y3.951 E34.32973
G1 X-16.588 Y4.940 E34.48067
G1 X-17.542 Y5.780 E34.63162
G1 X-18.624 Y6.446 E34.78256
G1 X-19.803 Y6.920 E34.93350
G1 X-21.046 Y7.188 E35.08445
G1 X-22.315 Y7.242 E35.23539
G1 X-23.575 Y7.080 E35.38625
G1 X-24.798 Y6.705 E35.53811
G1 X-25.926 Y6.136 E35.68820
G1 X-26.948 Y5.380 E35.83915
G1 X-27.827 Y4.463 E35.99009
G1 X-28.539 Y3.410 E36.14103
G1 X-29.062 Y2.252 E36.29197
G1 X-29.383 Y1.022 E36.44292
G1 X-29.491 Y-0.245 E36.59386
G1 X-29.383 Y-1.511 E36.74480
G1 X-29.069 Y-2.716 E36.89264
G1 X-28.540 Y-3.897 E37.04640
G1 X-27.827 Y-4.952 E37.19759
G1 X-26.948 Y-5.870 E37.34853
G1 X-25.926 Y-6.625 E37.49947
G1 X-24.798 Y-7.194 E37.64956
G1 X-23.575 Y-7.570 E37.80143
G1 X-22.315 Y-7.731 E37.95229
G1 X-21.046 Y-7.677 E38.10323
G1 X-19.803 Y-7.409 E38.25417
G1 X-18.624 Y-6.935 E38.40512
G1 X-17.542 Y-6.269 E38.55606
G1 X-16.588 Y-5.429 E38.70700
G1 X-15.789 Y-4.441 E38.85794
G1 X-15.169 Y-3.331 E39.00889
G1 X-14.746 Y-2.133 E39.15983
G1 X-14.531 Y-0.880 E39.31077
G1 X-14.531 Y0.331 E39.45459
G1 X-15.245 Y0.330 F7800.000
G1 F1800
G1 X-15.440 Y1.463 E39.59109
G1 X-15.822 Y2.547 E39.72760
G1 X-16.383 Y3.550 E39.86410
G1 X-17.105 Y4.444 E40.00061
G1 X-17.968 Y5.204 E40.13711
G1 X-18.947 Y5.806 E40.27362
G1 X-20.013 Y6.235 E40.41012
G1 X-21.137 Y6.477 E40.54663
G1 X-22.285 Y6.526 E40.68313
G1 X-23.425 Y6.380 E40.81961
G1 X-24.526 Y6.042 E40.95644
G1 X-25.550 Y5.526 E41.09264
G1 X-26.474 Y4.842 E41.22914
G1 X-27.270 Y4.013 E41.36565
G1 X-27.913 Y3.060 E41.50215
G1 X-28.387 Y2.013 E41.63866
G1 X-28.676 Y0.901 E41.77516
G1 X-28.774 Y-0.245 E41.91167
G1 X-28.676 Y-1.390 E42.04817
G1 X-28.393 Y-2.478 E42.18173
G1 X-27.914 Y-3.549 E42.32105
G1 X-27.270 Y-4.502 E42.45765
G1 X-26.474 Y-5.331 E42.59415
G1 X-25.550 Y-6.015 E42.73065
G1 X-24.526 Y-6.531 E42.86685
G1 X-24.406 Y-6.570 E42.88182
G1 X-23.425 Y-6.869 E43.00369
G1 X-22.285 Y-7.015 E43.14017
G1 X-21.137 Y-6.966 E43.27667
G1 X-20.013 Y-6.724 E43.41317
G1 X-18.947 Y-6.295 E43.54968
G1 X-17.968 Y-5.693 E43.68618
G1 X-17.105 Y-4.933 E43.82269
G1 X-16.383 Y-4.039 E43.95919
G1 X-15.822 Y-3.036 E44.09570
G1 X-15.440 Y-1.952 E44.23220
G1 X-15.245 Y-0.819 E44.36871
G1 X-15.245 Y0.270 E44.49809
G1 X-15.245 Y0.330 F7800.000
G1 E42.49809 F2400.00000
G1 X-29.798 Y2.263 F7800.000
G1 E44.49809 F2400.00000
G1 F1800
G1 X-29.738 Y2.490 E44.52604
G1 X-29.165 Y3.759 E44.69142
G1 X-28.385 Y4.913 E44.85680
G1 X-27.421 Y5.918 E45.02219
G1 X-26.302 Y6.746 E45.18757
G1 X-25.069 Y7.368 E45.35154
G1 X-23.726 Y7.781 E45.51844
G1 X-22.346 Y7.958 E45.68369
G1 X-20.955 Y7.899 E45.84907
G1 X-19.593 Y7.605 E46.01445
G1 X-18.301 Y7.086 E46.17983
G1 X-17.115 Y6.356 E46.34521
G1 X-16.070 Y5.436 E46.51059
G1 X-15.195 Y4.353 E46.67597
G1 X-14.516 Y3.137 E46.84135
G1 X-14.052 Y1.824 E47.00673
G1 X-13.817 Y0.452 E47.17211
G1 X-13.817 Y-0.941 E47.33749
G1 X-14.052 Y-2.313 E47.50287
G1 X-14.516 Y-3.626 E47.66825
G1 X-15.195 Y-4.842 E47.83363
G1 X-16.070 Y-5.925 E47.99901
G1 X-17.115 Y-6.845 E48.16440
G1 X-18.301 Y-7.575 E48.32978
G1 X-19.593 Y-8.095 E48.49516
G1 X-20.955 Y-8.388 E48.66054
G1 X-22.346 Y-8.447 E48.82592
G1 X-23.726 Y-8.270 E48.99117
G1 X-25.069 Y-7.857 E49.15806
G1 X-26.302 Y-7.236 E49.32204
G1 X-27.421 Y-6.408 E49.48742
G1 X-28.385 Y-5.402 E49.65280
G1 X-29.167 Y-4.246 E49.81858
G1 X-29.745 Y-2.953 E49.98678
G1 X-29.798 Y-2.752 E50.01148
G1 X-30.172 Y-2.800 E50.05627
G1 X-30.172 Y-16.678 E51.70454
G1 X-30.133 Y-16.956 E51.73783
G1 X-30.040 Y-17.140 E51.76235
G1 X-29.891 Y-17.289 E51.78732
G1 X-29.706 Y-17.383 E51.81207
G1 X-29.427 Y-17.422 E51.84548
G1 X29.428 Y-17.422 E58.83544
G1 X29.707 Y-17.383 E58.86885
G1 X29.891 Y-17.289 E58.89347
G1 X30.039 Y-17.141 E58.91821
G1 X30.133 Y-16.956 E58.94296
G1 X30.172 Y-16.678 E58.97625
G1 X30.172 Y-5.216 E60.33760
G1 X28.882 Y-6.351 E60.54166
G1 X27.696 Y-7.081 E60.70704
G1 X26.404 Y-7.600 E60.87242
G1 X25.040 Y-7.894 E61.03820
G1 X23.624 Y-7.949 E61.20640
G1 X22.270 Y-7.776 E61.36853
G1 X20.939 Y-7.368 E61.53391
G1 X19.695 Y-6.741 E61.69929
G1 X18.576 Y-5.913 E61.86467
G1 X17.612 Y-4.908 E62.03005
G1 X16.833 Y-3.754 E62.19543
G1 X16.259 Y-2.485 E62.36081
G1 X15.908 Y-1.138 E62.52619
G1 X15.790 Y0.250 E62.69157
G1 X15.908 Y1.637 E62.85695
G1 X16.259 Y2.985 E63.02233
G1 X16.833 Y4.254 E63.18771
G1 X17.612 Y5.408 E63.35309
G1 X18.576 Y6.413 E63.51847
G1 X19.695 Y7.241 E63.68385
G1 X20.939 Y7.868 E63.84923
G1 X22.270 Y8.276 E64.01461
G1 X23.652 Y8.453 E64.18000
G1 X25.043 Y8.393 E64.34538
G1 X26.404 Y8.100 E64.51076
G1 X27.696 Y7.581 E64.67614
G1 X28.884 Y6.849 E64.84188
G1 X30.172 Y5.709 E65.04612
G1 X30.172 Y16.678 E66.34891
G1 X30.133 Y16.956 E66.38220
G1 X30.040 Y17.140 E66.40672
G1 X29.891 Y17.289 E66.43169
G1 X29.706 Y17.383 E66.45644
G1 X29.427 Y17.422 E66.48985
G1 X-29.428 Y17.422 E73.47981
G1 X-29.706 Y17.383 E73.51309
G1 X-29.890 Y17.290 E73.53762
G1 X-30.039 Y17.141 E73.56259
G1 X-30.133 Y16.956 E73.58733
G1 X-30.172 Y16.678 E73.62062
G1 X-30.172 Y2.311 E75.32699
G1 X-29.857 Y2.270 E75.36466
G1 E73.36466 F2400.00000
G1 X30.565 Y3.807 F7800.000
G1 E75.36466 F2400.00000
G1 F1800
G1 X30.886 Y3.890 E75.40399
G1 X30.886 Y16.706 E76.92609
G1 X30.865 Y16.966 E76.95707
G1 X30.815 Y17.177 E76.98284
G1 X30.732 Y17.378 E77.00860
G1 X30.620 Y17.561 E77.03408
G1 X30.477 Y17.728 E77.06020
G1 X30.313 Y17.868 E77.08588
G1 X30.128 Y17.982 E77.11165
G1 X29.927 Y18.065 E77.13741
G1 X29.719 Y18.115 E77.16289
G1 X29.456 Y18.136 E77.19423
G1 X-29.456 Y18.136 E84.19089
G1 X-29.716 Y18.115 E84.22187
G1 X-29.927 Y18.065 E84.24763
G1 X-30.128 Y17.982 E84.27340
G1 X-30.311 Y17.870 E84.29888
G1 X-30.478 Y17.727 E84.32500
G1 X-30.618 Y17.563 E84.35068
G1 X-30.732 Y17.378 E84.37645
G1 X-30.815 Y17.177 E84.40221
G1 X-30.865 Y16.966 E84.42797
G1 X-30.886 Y16.706 E84.45895
G1 X-30.886 Y-16.706 E88.42718
G1 X-30.865 Y-16.966 E88.45816
G1 X-30.815 Y-17.177 E88.48393
G1 X-30.732 Y-17.378 E88.50969
G1 X-30.620 Y-17.561 E88.53517
G1 X-30.477 Y-17.728 E88.56129
G1 X-30.313 Y-17.868 E88.58697
G1 X-30.128 Y-17.982 E88.61274
G1 X-29.927 Y-18.065 E88.63850
G1 X-29.719 Y-18.115 E88.66398
G1 X-29.456 Y-18.136 E88.69531
G1 X29.456 Y-18.136 E95.69198
G1 X29.714 Y-18.116 E95.72268
G1 X29.928 Y-18.064 E95.74880
G1 X30.128 Y-17.982 E95.77448
G1 X30.313 Y-17.868 E95.80025
G1 X30.478 Y-17.728 E95.82601
G1 X30.618 Y-17.563 E95.85177
G1 X30.732 Y-17.378 E95.87753
G1 X30.815 Y-17.177 E95.90330
G1 X30.865 Y-16.966 E95.92906
G1 X30.886 Y-16.706 E95.96004
G1 X30.886 Y-3.390 E97.54152
G1 X30.565 Y-3.307 E97.58086
G1 X30.208 Y-3.946 E97.66783
G1 X29.410 Y-4.935 E97.81878
G1 X28.456 Y-5.775 E97.96972
G1 X27.373 Y-6.441 E98.12066
G1 X26.194 Y-6.915 E98.27160
G1 X24.950 Y-7.183 E98.42279
G1 X23.656 Y-7.233 E98.57655
G1 X22.421 Y-7.075 E98.72439
G1 X21.206 Y-6.703 E98.87533
G1 X20.071 Y-6.131 E99.02628
G1 X19.049 Y-5.375 E99.17722
G1 X18.170 Y-4.457 E99.32816
G1 X17.458 Y-3.404 E99.47910
G1 X16.935 Y-2.246 E99.63005
G1 X16.615 Y-1.016 E99.78099
G1 X16.507 Y0.250 E99.93193
G1 X16.615 Y1.516 E100.08288
G1 X16.935 Y2.746 E100.23382
G1 X17.458 Y3.904 E100.38476
G1 X18.170 Y4.957 E100.53570
G1 X19.049 Y5.875 E100.68665
G1 X20.071 Y6.631 E100.83759
G1 X21.206 Y7.203 E100.98853
G1 X22.421 Y7.575 E101.13947
G1 X23.682 Y7.736 E101.29042
G1 X24.952 Y7.682 E101.44136
G1 X26.194 Y7.415 E101.59230
G1 X27.373 Y6.941 E101.74324
G1 X28.457 Y6.274 E101.89441
G1 X29.424 Y5.417 E102.04788
