; generated by Slic3r 1.3.0 on 2024-04-11 at 10:22:20

; external perimeters extrusion width = 0.44mm (3.38mm^3/s)
; perimeters extrusion width = 0.48mm (7.54mm^3/s)
; infill extrusion width = 0.48mm (10.05mm^3/s)
; solid infill extrusion width = 0.48mm (2.51mm^3/s)
; top infill extrusion width = 0.48mm (1.88mm^3/s)

M127
;
;
;- - - - SUMMARY - - - -
;
;first layer temperature = 218C
;temperature = 218C
;first layer bed temperature = 63C
;bed temperature = 63C
;
;first layer height = 0.4mm
;layer height = 0.3mm
;z_offset = 0mm
;perimeters = 3
;fill density = 30%
;infill every n layers = 1
;skirts = 1
;brim width = 0mm
;raft layers = 0
;support material = 0
;support material threshold = 60% degrees
;support material enforced for first n layers = 0
;support material extruder = 1
;
;first layer speed = 30
;perimeter speed = 60mm/s
;small perimeter speed = 15
;external perimeter speed = 50%
;infill speed = 80mm/s
;solid infill speed = 20
;top solid infill speed = 15
;support material speed = 60mm/s
;gap fill speed = 20mm/s
;travel speed = 130mm/s
;bridge speed = 60mm/s
;bridge flow ratio = 1
;slowdown if layer time is less than = 5secs
;minimum print speed = 10mm/s
;
;bottom solid layers = 3
;top solid layers = 3
;
;
;- - - - EXTRUSION - - - -
;
;filament diameter = 1.75mm
;nozzle diameter = 0.4mm
;bridge flow ratio = 1
;extrusion axis = E
;extrusion multiplier = 1
;extrusion width = 0mm
;first layer extrusion width = 200%mm
;perimeter extrusion width = 0mm
;infill extrusion width = 0mm
;solid infill extrusion width = 0mm
;top infill extrusion width = 0mm
;support material extrusion width = 0mm
;
;
;- - - - SUPPORT - - - -
;
;raft layers = 0
;brim width = 0mm
;support material = 0
;support material threshold = 60% degrees
;support material enforced for first n layers = 0
;support material extruder = 1
;support material extrusion width = 0mm
;support material interface layers = 3
;support material interface spacing = 0mm
;support material pattern = pillars
;support material angle = 0 degrees
;support material spacing = 2.5mm
;support material speed = 60mm/s
;
;
;- - - - EVERYTHING ELSE - - - -
;
;complete objects = 0
;cooling enabled = 1
;default acceleration = 0mm/s/s
;disable fan for first layers = 3
;duplicate = [duplicate]
;duplicate distance = 6mm
;duplicate grid = [duplicate_grid]
;external perimeters first = 0
;extra perimeters = 1
;extruder clearance height = 20mm
;extruder clearance radius = 20mm
;extruder offset = 0,0mm
;fan always on = 0
;fan below layer time = 60secs
;fill angle = 45 degrees
;fill pattern = rectilinear
;gcode arcs = 0
;gcode comments = 0
;gcode flavor = sailfish
;infill acceleration = 0mm/s/s
;infill extruder = 1
;infill first = 0
;infill only where needed = 0
;minimum skirt length = 0mm
;only retract when crossing perimeters = 1
;perimeter acceleration = 0mm/s/s
;perimeter extruder = 1
;randomize start = [randomize_start]
;resolution = 0mm
;retract before travel = 2
;retract on layer change = 0
;retract length = 2mm
;retract length on tool change = 10mm
;retract lift = 0
;retract extra distance on restart = 0mm
;retract extra on tool change = 0mm
;retract speed = 40mm/s
;rotate = [rotate] degrees
;scale = 100%
;skirt distance = 6mm
;skirt height = 1mm
;solid fill pattern = [solid_fill_pattern]
;solid infill below area = 70mm (sq)
;solid infill every n layers = 0
;
;
;- - - - - - - - - - - - - - - - - - - - - - - - -
;
;
T0; set primary extruder
M73 P0; enable show build progress
;M109 S63 T0; heat bed up to first layer temperature
M140 S63 T0; heat bed up to first layer temperature
M104 S218 T0; set nozzle heater to first layer temperature
M103; disable RPM
G21; set units to mm
G162 X Y F6000; home XY axes maximum
G161 Z F9000; home Z axis minimum
G92 Z0; set Z to 0
M132 X Y Z A B; Recall stored home offsets
G90; set positioning to absolute
G1 Z30; move Z to waiting height
G1 X-95 Y-73 Z30 F14000; move to waiting position (front left corner of print bed)
G130 X0 Y0 A0 B0; set stepper motor vref to lower value while heating
M6 T0; wait for bed and extruder to heat up
G130 X127 Y127 A127 B127; set stepper motor vref to defaults
M108 T0 R3; set extruder speed
G92 E0; set E to 0
G90; use absolute coordinates
M320; acceleration enabled for all commands that follow
G1 Z0.4 F6000.000; move to first layer height
G1 X100 Y-73 F14000.000; move to front right corner of bed
G1 X-90 Y-73 E24 F2000.000; extrude a line of filament across the front edge of the bed
G4 P2000; wait for ooze to slow
G1 Z0 F6000.000; lower nozzle height to 0
G1 X-95; wipe nozzle
G1 Z0.4 F6000.000; set nozzle to first layer height
G1 F12000; ensure fast travel to first print move
G92 E0; set E to 0 again
M73 P0; reset build progress to 0
; Filament gcode

G21 ; set units to millimeters
G90 ; use absolute coordinates
M73 P0
G1 Z0.400 F7800.000
G1 E-2.00000 F2400.00000
G1 X29.250 Y25.714 F7800.000
G1 E0.00000 F2400.00000
G1 F1800
G1 X-29.250 Y25.714 E6.94776
G1 X-30.168 Y25.663 E7.05695
G1 X-31.208 Y25.498 E7.18207
G1 X-31.590 Y25.406 E7.22867
G1 X-32.592 Y25.081 E7.35379
G1 X-32.957 Y24.930 E7.40067
G1 X-33.893 Y24.452 E7.52551
G1 X-34.228 Y24.247 E7.57210
G1 X-35.080 Y23.628 E7.69724
G1 X-35.379 Y23.372 E7.74400
G1 X-36.123 Y22.628 E7.86894
G1 X-36.380 Y22.327 E7.91594
G1 X-36.997 Y21.478 E8.04067
G1 X-37.202 Y21.143 E8.08726
G1 X-37.681 Y20.204 E8.21239
G1 X-37.831 Y19.842 E8.25899
G1 X-38.156 Y18.840 E8.38411
G1 X-38.248 Y18.458 E8.43070
G1 X-38.413 Y17.418 E8.55583
G1 X-38.444 Y17.025 E8.60261
G1 X-38.464 Y16.500 E8.66503
G1 X-38.464 Y-16.500 E12.58428
G1 X-38.413 Y-17.418 E12.69346
G1 X-38.248 Y-18.458 E12.81859
G1 X-38.156 Y-18.840 E12.86518
G1 X-37.831 Y-19.842 E12.99031
G1 X-37.680 Y-20.205 E13.03694
G1 X-37.202 Y-21.143 E13.16203
G1 X-36.996 Y-21.479 E13.20882
G1 X-36.378 Y-22.330 E13.33375
G1 X-36.125 Y-22.626 E13.37998
G1 X-35.378 Y-23.373 E13.50546
G1 X-35.080 Y-23.628 E13.55211
G1 X-34.228 Y-24.247 E13.67719
G1 X-33.893 Y-24.452 E13.72378
G1 X-32.954 Y-24.931 E13.84890
G1 X-32.592 Y-25.081 E13.89550
G1 X-31.590 Y-25.406 E14.02062
G1 X-31.208 Y-25.498 E14.06732
G1 X-30.168 Y-25.663 E14.19234
G1 X-29.250 Y-25.714 E14.30153
G1 X29.250 Y-25.714 E21.24929
G1 X30.168 Y-25.663 E21.35847
G1 X31.208 Y-25.498 E21.48360
G1 X31.592 Y-25.406 E21.53042
G1 X32.592 Y-25.081 E21.65532
G1 X32.954 Y-24.931 E21.70191
G1 X33.893 Y-24.452 E21.82704
G1 X34.230 Y-24.246 E21.87391
G1 X35.080 Y-23.628 E21.99876
G1 X35.378 Y-23.373 E22.04535
G1 X36.123 Y-22.628 E22.17048
G1 X36.378 Y-22.330 E22.21707
G1 X36.997 Y-21.478 E22.34218
G1 X37.201 Y-21.146 E22.38841
G1 X37.681 Y-20.204 E22.51392
G1 X37.831 Y-19.842 E22.56051
G1 X38.156 Y-18.840 E22.68562
G1 X38.248 Y-18.459 E22.73222
G1 X38.413 Y-17.418 E22.85735
G1 X38.464 Y-16.500 E22.96653
G1 X38.464 Y16.500 E26.88579
G1 X38.413 Y17.418 E26.99497
G1 X38.248 Y18.459 E27.12011
G1 X38.156 Y18.840 E27.16670
G1 X37.831 Y19.842 E27.29180
G1 X37.680 Y20.205 E27.33845
G1 X37.202 Y21.143 E27.46356
G1 X36.997 Y21.478 E27.51015
G1 X36.378 Y22.330 E27.63525
G1 X36.123 Y22.628 E27.68184
G1 X35.378 Y23.373 E27.80696
G1 X35.080 Y23.628 E27.85356
G1 X34.228 Y24.247 E27.97869
G1 X33.893 Y24.452 E28.02531
G1 X32.954 Y24.931 E28.15041
G1 X32.592 Y25.081 E28.19700
G1 X31.590 Y25.406 E28.32213
G1 X31.207 Y25.498 E28.36888
G1 X30.168 Y25.663 E28.49385
G1 X29.310 Y25.712 E28.59591
G1 E26.59591 F2400.00000
G1 X17.186 Y1.588 F7800.000
G1 E28.59591 F2400.00000
G1 F1800
G1 X17.071 Y1.145 E28.65027
G1 X16.974 Y-0.000 E28.78678
G1 X17.071 Y-1.145 E28.92328
G1 X17.361 Y-2.258 E29.05979
G1 X17.834 Y-3.305 E29.19629
G1 X18.478 Y-4.257 E29.33279
G1 X19.273 Y-5.087 E29.46930
G1 X20.197 Y-5.770 E29.60580
G1 X21.223 Y-6.288 E29.74226
G1 X22.255 Y-6.606 E29.87048
G1 X23.436 Y-6.767 E30.01211
G1 X24.610 Y-6.722 E30.15163
G1 X25.734 Y-6.479 E30.28822
G1 X26.801 Y-6.051 E30.42479
G1 X27.796 Y-5.434 E30.56374
G1 X28.641 Y-4.690 E30.69754
G1 X29.364 Y-3.795 E30.83421
G1 X29.925 Y-2.791 E30.97071
G1 X30.308 Y-1.708 E31.10722
G1 X30.502 Y-0.575 E31.24372
G1 X30.502 Y0.575 E31.38023
G1 X30.308 Y1.708 E31.51673
G1 X29.925 Y2.791 E31.65324
G1 X29.364 Y3.795 E31.78974
G1 X28.658 Y4.670 E31.92330
G1 X27.780 Y5.448 E32.06262
G1 X26.801 Y6.051 E32.19922
G1 X25.734 Y6.479 E32.33572
G1 X24.611 Y6.722 E32.47222
G1 X23.462 Y6.770 E32.60873
G1 X22.322 Y6.624 E32.74523
G1 X21.223 Y6.288 E32.88174
G1 X20.197 Y5.770 E33.01824
G1 X19.273 Y5.087 E33.15475
G1 X18.478 Y4.257 E33.29125
G1 X17.834 Y3.305 E33.42776
G1 X17.361 Y2.258 E33.56426
G1 X17.201 Y1.646 E33.63927
G1 X16.797 Y1.496 F7800.000
G1 E31.63927 F2400.00000
G1 X-14.784 Y0.635 F7800.000
G1 E33.63927 F2400.00000
G1 F1800
G1 X-14.999 Y1.888 E33.79022
G1 X-15.422 Y3.086 E33.94116
G1 X-16.042 Y4.196 E34.09210
G1 X-16.804 Y5.140 E34.23627
G1 X-17.791 Y6.022 E34.39338
G1 X-18.877 Y6.691 E34.54484
G1 X-20.056 Y7.165 E34.69579
G1 X-21.298 Y7.432 E34.84673
G1 X-22.568 Y7.486 E34.99767
G1 X-23.829 Y7.325 E35.14862
G1 X-25.044 Y6.953 E35.29956
G1 X-26.179 Y6.381 E35.45050
G1 X-27.201 Y5.625 E35.60144
G1 X-28.080 Y4.707 E35.75239
G1 X-28.792 Y3.654 E35.90333
G1 X-29.315 Y2.496 E36.05427
G1 X-29.635 Y1.266 E36.20521
G1 X-29.743 Y0.000 E36.35616
G1 X-29.638 Y-1.240 E36.50400
G1 X-29.316 Y-2.494 E36.65776
G1 X-28.792 Y-3.654 E36.80894
G1 X-28.080 Y-4.707 E36.95989
G1 X-27.201 Y-5.625 E37.11083
G1 X-26.179 Y-6.381 E37.26177
G1 X-25.044 Y-6.953 E37.41272
G1 X-23.830 Y-7.325 E37.56352
G1 X-22.647 Y-7.479 E37.70516
G1 X-21.303 Y-7.434 E37.86486
G1 X-20.056 Y-7.165 E38.01641
G1 X-18.877 Y-6.691 E38.16735
G1 X-17.794 Y-6.025 E38.31829
G1 X-16.840 Y-5.185 E38.46924
G1 X-16.042 Y-4.196 E38.62018
G1 X-15.422 Y-3.086 E38.77112
G1 X-14.999 Y-1.888 E38.92206
G1 X-14.784 Y-0.635 E39.07301
G1 X-14.784 Y0.575 E39.21682
G1 X-15.498 Y0.575 F7800.000
G1 F1800
G1 X-15.692 Y1.708 E39.35333
G1 X-16.075 Y2.791 E39.48983
G1 X-16.636 Y3.795 E39.62634
G1 X-17.324 Y4.647 E39.75640
G1 X-18.219 Y5.447 E39.89907
G1 X-19.199 Y6.051 E40.03576
G1 X-20.266 Y6.479 E40.17227
G1 X-21.389 Y6.722 E40.30877
G1 X-22.538 Y6.770 E40.44528
G1 X-23.678 Y6.624 E40.58178
G1 X-24.777 Y6.288 E40.71829
G1 X-25.803 Y5.770 E40.85479
G1 X-26.727 Y5.087 E40.99130
G1 X-27.522 Y4.257 E41.12780
G1 X-28.166 Y3.305 E41.26431
G1 X-28.639 Y2.258 E41.40081
G1 X-28.929 Y1.145 E41.53732
G1 X-29.026 Y0.000 E41.67382
G1 X-28.931 Y-1.121 E41.80738
G1 X-28.640 Y-2.257 E41.94670
G1 X-28.166 Y-3.305 E42.08329
G1 X-27.522 Y-4.257 E42.21980
G1 X-26.727 Y-5.087 E42.35630
G1 X-25.803 Y-5.770 E42.49281
G1 X-24.777 Y-6.288 E42.62931
G1 X-23.678 Y-6.624 E42.76577
G1 X-22.613 Y-6.763 E42.89335
G1 X-21.391 Y-6.722 E43.03853
G1 X-20.266 Y-6.479 E43.17525
G1 X-19.199 Y-6.051 E43.31176
G1 X-18.221 Y-5.448 E43.44826
G1 X-17.358 Y-4.689 E43.58477
G1 X-16.636 Y-3.795 E43.72127
G1 X-16.075 Y-2.791 E43.85777
G1 X-15.692 Y-1.708 E43.99428
G1 X-15.498 Y-0.575 E44.13078
G1 X-15.498 Y0.515 E44.26016
G1 X-15.498 Y0.575 F7800.000
G1 E42.26016 F2400.00000
G1 X-29.583 Y3.637 F7800.000
G1 E44.26016 F2400.00000
G1 F1800
G1 X-29.417 Y4.004 E44.30805
G1 X-28.638 Y5.158 E44.47343
G1 X-27.674 Y6.163 E44.63881
G1 X-26.555 Y6.991 E44.80419
G1 X-25.311 Y7.618 E44.96957
G1 X-23.980 Y8.026 E45.13495
G1 X-22.598 Y8.203 E45.30033
G1 X-21.207 Y8.143 E45.46571
G1 X-19.846 Y7.850 E45.63109
G1 X-18.554 Y7.331 E45.79647
G1 X-17.362 Y6.597 E45.96271
G1 X-16.285 Y5.634 E46.13426
G1 X-15.448 Y4.597 E46.29253
G1 X-14.769 Y3.382 E46.45791
G1 X-14.305 Y2.069 E46.62329
G1 X-14.070 Y0.696 E46.78867
G1 X-14.070 Y-0.696 E46.95405
G1 X-14.305 Y-2.069 E47.11944
G1 X-14.769 Y-3.382 E47.28482
G1 X-15.448 Y-4.597 E47.45020
G1 X-16.323 Y-5.681 E47.61558
G1 X-17.368 Y-6.601 E47.78096
G1 X-18.554 Y-7.331 E47.94634
G1 X-19.846 Y-7.850 E48.11172
G1 X-21.215 Y-8.145 E48.27809
G1 X-22.681 Y-8.194 E48.45231
G1 X-23.981 Y-8.025 E48.60800
G1 X-25.311 Y-7.618 E48.77316
G1 X-26.555 Y-6.991 E48.93854
G1 X-27.674 Y-6.163 E49.10392
G1 X-28.638 Y-5.158 E49.26931
G1 X-29.417 Y-4.004 E49.43469
G1 X-29.583 Y-3.637 E49.48257
G1 X-29.922 Y-3.709 E49.52366
G1 X-29.922 Y-16.428 E51.03421
G1 X-29.883 Y-16.706 E51.06749
G1 X-29.790 Y-16.890 E51.09201
G1 X-29.641 Y-17.039 E51.11699
G1 X-29.456 Y-17.133 E51.14173
G1 X-29.177 Y-17.172 E51.17515
G1 X29.178 Y-17.172 E58.10572
G1 X29.457 Y-17.133 E58.13913
G1 X29.641 Y-17.039 E58.16375
G1 X29.789 Y-16.891 E58.18850
G1 X29.883 Y-16.706 E58.21325
G1 X29.922 Y-16.427 E58.24666
G1 X29.922 Y-5.466 E59.54846
G1 X28.650 Y-6.585 E59.74971
G1 X27.449 Y-7.330 E59.91752
G1 X26.154 Y-7.850 E60.08323
G1 X24.789 Y-8.144 E60.24901
G1 X23.367 Y-8.199 E60.41812
G1 X21.945 Y-8.005 E60.58849
G1 X20.687 Y-7.617 E60.74488
G1 X19.445 Y-6.991 E60.91003
G1 X18.326 Y-6.163 E61.07541
G1 X17.362 Y-5.158 E61.24079
G1 X16.583 Y-4.004 E61.40617
G1 X16.009 Y-2.735 E61.57155
G1 X15.658 Y-1.387 E61.73693
G1 X15.540 Y-0.000 E61.90231
G1 X15.658 Y1.387 E62.06769
G1 X16.009 Y2.735 E62.23307
G1 X16.583 Y4.004 E62.39845
G1 X17.362 Y5.158 E62.56383
G1 X18.326 Y6.163 E62.72921
G1 X19.445 Y6.991 E62.89459
G1 X20.689 Y7.618 E63.05997
G1 X22.020 Y8.026 E63.22535
G1 X23.402 Y8.203 E63.39074
G1 X24.793 Y8.143 E63.55612
G1 X26.154 Y7.850 E63.72150
G1 X27.446 Y7.331 E63.88688
G1 X28.635 Y6.599 E64.05266
G1 X29.922 Y5.458 E64.25693
G1 X29.922 Y16.428 E65.55981
G1 X29.883 Y16.706 E65.59309
G1 X29.789 Y16.891 E65.61784
G1 X29.641 Y17.039 E65.64259
G1 X29.456 Y17.133 E65.66734
G1 X29.177 Y17.172 E65.70075
G1 X-29.178 Y17.172 E72.63132
G1 X-29.354 Y17.158 E72.65229
G1 X-29.456 Y17.133 E72.66471
G1 X-29.640 Y17.040 E72.68923
G1 X-29.789 Y16.891 E72.71420
G1 X-29.883 Y16.706 E72.73894
G1 X-29.922 Y16.427 E72.77236
G1 X-29.922 Y3.709 E74.28277
G1 X-29.642 Y3.649 E74.31674
G1 E72.31674 F2400.00000
G1 X30.315 Y3.557 F7800.000
G1 E74.31674 F2400.00000
G1 F1800
G1 X30.636 Y3.640 E74.35607
G1 X30.636 Y16.456 E75.87818
G1 X30.615 Y16.716 E75.90916
G1 X30.565 Y16.927 E75.93492
G1 X30.482 Y17.128 E75.96068
G1 X30.368 Y17.313 E75.98645
G1 X30.227 Y17.478 E76.01221
G1 X30.063 Y17.618 E76.03797
G1 X29.878 Y17.732 E76.06373
G1 X29.677 Y17.815 E76.08950
G1 X29.469 Y17.865 E76.11498
G1 X29.206 Y17.886 E76.14631
G1 X-29.206 Y17.886 E83.08360
G1 X-29.466 Y17.865 E83.11458
G1 X-29.677 Y17.815 E83.14034
G1 X-29.878 Y17.732 E83.16610
G1 X-30.061 Y17.620 E83.19159
G1 X-30.228 Y17.477 E83.21771
G1 X-30.368 Y17.313 E83.24339
G1 X-30.482 Y17.128 E83.26915
G1 X-30.565 Y16.927 E83.29491
G1 X-30.615 Y16.719 E83.32040
G1 X-30.636 Y16.456 E83.35173
G1 X-30.636 Y-16.456 E87.26050
G1 X-30.615 Y-16.716 E87.29148
G1 X-30.565 Y-16.927 E87.31724
G1 X-30.482 Y-17.128 E87.34301
G1 X-30.370 Y-17.311 E87.36849
G1 X-30.227 Y-17.478 E87.39461
G1 X-30.063 Y-17.618 E87.42029
G1 X-29.878 Y-17.732 E87.44606
G1 X-29.677 Y-17.815 E87.47182
G1 X-29.469 Y-17.865 E87.49730
G1 X-29.206 Y-17.886 E87.52863
G1 X29.206 Y-17.886 E94.46592
G1 X29.464 Y-17.866 E94.49662
G1 X29.678 Y-17.814 E94.52274
G1 X29.878 Y-17.732 E94.54842
G1 X30.063 Y-17.618 E94.57418
G1 X30.227 Y-17.478 E94.59994
G1 X30.368 Y-17.313 E94.62571
G1 X30.482 Y-17.128 E94.65147
G1 X30.565 Y-16.927 E94.67723
G1 X30.615 Y-16.719 E94.70272
G1 X30.636 Y-16.456 E94.73405
G1 X30.636 Y-3.640 E96.25608
G1 X30.315 Y-3.557 E96.29541
G1 X29.958 Y-4.196 E96.38239
G1 X29.159 Y-5.186 E96.53350
G1 X28.223 Y-6.010 E96.68161
G1 X27.125 Y-6.690 E96.83499
G1 X25.944 Y-7.165 E96.98613
G1 X24.700 Y-7.433 E97.13732
G1 X23.401 Y-7.483 E97.29163
G1 X22.100 Y-7.306 E97.44763
G1 X20.955 Y-6.952 E97.58993
G1 X19.821 Y-6.381 E97.74073
G1 X18.799 Y-5.625 E97.89168
G1 X17.920 Y-4.707 E98.04262
G1 X17.208 Y-3.654 E98.19356
G1 X16.685 Y-2.496 E98.34450
G1 X16.365 Y-1.266 E98.49545
G1 X16.257 Y-0.000 E98.64639
G1 X16.365 Y1.266 E98.79733
G1 X16.685 Y2.496 E98.94828
G1 X17.208 Y3.654 E99.09922
G1 X17.920 Y4.707 E99.25016
G1 X18.799 Y5.625 E99.40110
G1 X19.821 Y6.381 E99.55205
G1 X20.956 Y6.953 E99.70299
G1 X22.171 Y7.325 E99.85393
G1 X23.432 Y7.486 E100.00487
G1 X24.702 Y7.432 E100.15582
G1 X25.944 Y7.165 E100.30676
G1 X27.123 Y6.691 E100.45770
G1 X28.207 Y6.023 E100.60889
G1 X29.176 Y5.165 E100.76265
G1 X29.958 Y4.196 E100.91049
G1 X30.286 Y3.609 E100.99034
