; generated by Slic3r 1.3.0 on 2024-04-17 at 17:42:27

; external perimeters extrusion width = 0.44mm (3.38mm^3/s)
; perimeters extrusion width = 0.48mm (7.54mm^3/s)
; infill extrusion width = 0.48mm (10.05mm^3/s)
; solid infill extrusion width = 0.48mm (2.51mm^3/s)
; top infill extrusion width = 0.48mm (1.88mm^3/s)
; support material extrusion width = 0.44mm (6.76mm^3/s)

M127
;
;
;- - - - SUMMARY - - - -
;
;first layer temperature = 218C
;temperature = 218C
;first layer bed temperature = 63C
;bed temperature = 63C
;
;first layer height = 0.4mm
;layer height = 0.3mm
;z_offset = 0mm
;perimeters = 3
;fill density = 30%
;infill every n layers = 1
;skirts = 1
;brim width = 0mm
;raft layers = 0
;support material = 1
;support material threshold = 60% degrees
;support material enforced for first n layers = 0
;support material extruder = 1
;
;first layer speed = 30
;perimeter speed = 60mm/s
;small perimeter speed = 15
;external perimeter speed = 50%
;infill speed = 80mm/s
;solid infill speed = 20
;top solid infill speed = 15
;support material speed = 60mm/s
;gap fill speed = 20mm/s
;travel speed = 130mm/s
;bridge speed = 60mm/s
;bridge flow ratio = 1
;slowdown if layer time is less than = 5secs
;minimum print speed = 10mm/s
;
;bottom solid layers = 3
;top solid layers = 3
;
;
;- - - - EXTRUSION - - - -
;
;filament diameter = 1.75mm
;nozzle diameter = 0.4mm
;bridge flow ratio = 1
;extrusion axis = E
;extrusion multiplier = 1
;extrusion width = 0mm
;first layer extrusion width = 200%mm
;perimeter extrusion width = 0mm
;infill extrusion width = 0mm
;solid infill extrusion width = 0mm
;top infill extrusion width = 0mm
;support material extrusion width = 0mm
;
;
;- - - - SUPPORT - - - -
;
;raft layers = 0
;brim width = 0mm
;support material = 1
;support material threshold = 60% degrees
;support material enforced for first n layers = 0
;support material extruder = 1
;support material extrusion width = 0mm
;support material interface layers = 3
;support material interface spacing = 0mm
;support material pattern = pillars
;support material angle = 0 degrees
;support material spacing = 2.5mm
;support material speed = 60mm/s
;
;
;- - - - EVERYTHING ELSE - - - -
;
;complete objects = 0
;cooling enabled = 1
;default acceleration = 0mm/s/s
;disable fan for first layers = 3
;duplicate = [duplicate]
;duplicate distance = 6mm
;duplicate grid = [duplicate_grid]
;external perimeters first = 0
;extra perimeters = 1
;extruder clearance height = 20mm
;extruder clearance radius = 20mm
;extruder offset = 0,0mm
;fan always on = 0
;fan below layer time = 60secs
;fill angle = 45 degrees
;fill pattern = rectilinear
;gcode arcs = 0
;gcode comments = 0
;gcode flavor = sailfish
;infill acceleration = 0mm/s/s
;infill extruder = 1
;infill first = 0
;infill only where needed = 0
;minimum skirt length = 0mm
;only retract when crossing perimeters = 1
;perimeter acceleration = 0mm/s/s
;perimeter extruder = 1
;randomize start = [randomize_start]
;resolution = 0mm
;retract before travel = 2
;retract on layer change = 0
;retract length = 2mm
;retract length on tool change = 10mm
;retract lift = 0
;retract extra distance on restart = 0mm
;retract extra on tool change = 0mm
;retract speed = 40mm/s
;rotate = [rotate] degrees
;scale = 100%
;skirt distance = 6mm
;skirt height = 1mm
;solid fill pattern = [solid_fill_pattern]
;solid infill below area = 70mm (sq)
;solid infill every n layers = 0
;
;
;- - - - - - - - - - - - - - - - - - - - - - - - -
;
;
T0; set primary extruder
M73 P0; enable show build progress
;M109 S63 T0; heat bed up to first layer temperature
M140 S63 T0; heat bed up to first layer temperature
M104 S218 T0; set nozzle heater to first layer temperature
M103; disable RPM
G21; set units to mm
G162 X Y F6000; home XY axes maximum
G161 Z F9000; home Z axis minimum
G92 Z0; set Z to 0
M132 X Y Z A B; Recall stored home offsets
G90; set positioning to absolute
G1 Z30; move Z to waiting height
G1 X-95 Y-73 Z30 F14000; move to waiting position (front left corner of print bed)
G130 X0 Y0 A0 B0; set stepper motor vref to lower value while heating
M6 T0; wait for bed and extruder to heat up
G130 X127 Y127 A127 B127; set stepper motor vref to defaults
M108 T0 R3; set extruder speed
G92 E0; set E to 0
G90; use absolute coordinates
M320; acceleration enabled for all commands that follow
G1 Z0.4 F6000.000; move to first layer height
G1 X100 Y-73 F14000.000; move to front right corner of bed
G1 X-90 Y-73 E24 F2000.000; extrude a line of filament across the front edge of the bed
G4 P2000; wait for ooze to slow
G1 Z0 F6000.000; lower nozzle height to 0
G1 X-95; wipe nozzle
G1 Z0.4 F6000.000; set nozzle to first layer height
G1 F12000; ensure fast travel to first print move
G92 E0; set E to 0 again
M73 P0; reset build progress to 0
; Filament gcode

G21 ; set units to millimeters
G90 ; use absolute coordinates
M73 P0
G1 Z0.400 F7800.000
G1 E-2.00000 F2400.00000
G1 X31.500 Y-28.714 F7800.000
G1 E0.00000 F2400.00000
G1 F1800
G1 X32.418 Y-28.663 E0.10918
G1 X33.458 Y-28.498 E0.23431
G1 X33.842 Y-28.406 E0.28116
G1 X34.842 Y-28.081 E0.40603
G1 X35.204 Y-27.931 E0.45263
G1 X36.143 Y-27.452 E0.57775
G1 X36.477 Y-27.248 E0.62420
G1 X37.330 Y-26.628 E0.74946
G1 X37.629 Y-26.373 E0.79618
G1 X38.373 Y-25.628 E0.92120
G1 X38.628 Y-25.330 E0.96779
G1 X39.247 Y-24.478 E1.09289
G1 X39.452 Y-24.143 E1.13948
G1 X39.931 Y-23.204 E1.26463
G1 X40.081 Y-22.842 E1.31122
G1 X40.406 Y-21.840 E1.43635
G1 X40.498 Y-21.458 E1.48294
G1 X40.663 Y-20.418 E1.60805
G1 X40.714 Y-19.500 E1.71725
G1 X40.714 Y19.500 E6.34909
G1 X40.693 Y20.027 E6.41171
G1 X40.663 Y20.420 E6.45853
G1 X40.498 Y21.458 E6.58341
G1 X40.406 Y21.840 E6.63000
G1 X40.081 Y22.842 E6.75512
G1 X39.928 Y23.210 E6.80242
G1 X39.452 Y24.143 E6.92687
G1 X39.247 Y24.479 E6.97358
G1 X38.628 Y25.330 E7.09856
G1 X38.370 Y25.632 E7.14580
G1 X37.628 Y26.373 E7.27030
G1 X37.330 Y26.628 E7.31696
G1 X36.478 Y27.247 E7.44202
G1 X36.143 Y27.452 E7.48861
G1 X35.204 Y27.931 E7.61373
G1 X34.841 Y28.081 E7.66046
G1 X33.840 Y28.406 E7.78545
G1 X33.459 Y28.498 E7.83204
G1 X32.418 Y28.663 E7.95718
G1 X31.500 Y28.714 E8.06636
G1 X-31.500 Y28.714 E15.54856
G1 X-32.418 Y28.663 E15.65774
G1 X-33.458 Y28.498 E15.78288
G1 X-33.840 Y28.406 E15.82947
G1 X-34.842 Y28.081 E15.95460
G1 X-35.204 Y27.931 E16.00119
G1 X-36.143 Y27.452 E16.12631
G1 X-36.475 Y27.249 E16.17257
G1 X-37.330 Y26.628 E16.29803
G1 X-37.628 Y26.373 E16.34462
G1 X-38.373 Y25.628 E16.46975
G1 X-38.628 Y25.330 E16.51634
G1 X-39.247 Y24.478 E16.64147
G1 X-39.452 Y24.143 E16.68806
G1 X-39.931 Y23.204 E16.81319
G1 X-40.082 Y22.839 E16.86012
G1 X-40.406 Y21.840 E16.98490
G1 X-40.498 Y21.459 E17.03149
G1 X-40.663 Y20.418 E17.15662
G1 X-40.694 Y20.023 E17.20363
G1 X-40.714 Y19.500 E17.26583
G1 X-40.714 Y-19.500 E21.89767
G1 X-40.663 Y-20.420 E22.00713
G1 X-40.498 Y-21.458 E22.13198
G1 X-40.406 Y-21.842 E22.17888
G1 X-40.081 Y-22.842 E22.30370
G1 X-39.931 Y-23.204 E22.35029
G1 X-39.452 Y-24.143 E22.47542
G1 X-39.247 Y-24.478 E22.52201
G1 X-38.628 Y-25.330 E22.64714
G1 X-38.373 Y-25.629 E22.69383
G1 X-37.628 Y-26.373 E22.81886
G1 X-37.330 Y-26.628 E22.86552
G1 X-36.478 Y-27.247 E22.99058
G1 X-36.143 Y-27.452 E23.03717
G1 X-35.204 Y-27.931 E23.16230
G1 X-34.842 Y-28.081 E23.20889
G1 X-33.840 Y-28.406 E23.33401
G1 X-33.458 Y-28.498 E23.38061
G1 X-32.418 Y-28.663 E23.50573
G1 X-31.500 Y-28.714 E23.61492
G1 X31.440 Y-28.714 E31.09000
G1 E29.09000 F2400.00000
G1 X-20.180 Y-6.717 F7800.000
G1 E31.09000 F2400.00000
G1 F1800
G1 X-19.498 Y-6.442 E31.17730
G1 X-18.294 Y-5.701 E31.34520
G1 X-17.233 Y-4.767 E31.51310
G1 X-16.344 Y-3.667 E31.68100
G1 X-15.655 Y-2.433 E31.84890
G1 X-15.184 Y-1.100 E32.01680
G1 X-14.945 Y0.293 E32.18469
G1 X-14.945 Y1.707 E32.35259
G1 X-15.184 Y3.100 E32.52049
G1 X-15.655 Y4.433 E32.68839
G1 X-16.344 Y5.667 E32.85629
G1 X-17.233 Y6.767 E33.02419
G1 X-18.294 Y7.701 E33.19209
G1 X-19.498 Y8.442 E33.35998
G1 X-20.809 Y8.970 E33.52788
G1 X-22.191 Y9.267 E33.69576
G1 X-23.602 Y9.328 E33.86351
G1 X-25.006 Y9.148 E34.03158
G1 X-26.358 Y8.734 E34.19948
G1 X-27.620 Y8.097 E34.36738
G1 X-28.734 Y7.273 E34.53197
G1 X-29.733 Y6.239 E34.70273
G1 X-30.527 Y5.065 E34.87103
G1 X-31.109 Y3.777 E35.03893
G1 X-31.465 Y2.409 E35.20683
G1 X-31.585 Y1.000 E35.37473
G1 X-31.465 Y-0.409 E35.54263
G1 X-31.116 Y-1.750 E35.70722
G1 X-30.528 Y-3.062 E35.87798
G1 X-29.735 Y-4.236 E36.04628
G1 X-28.757 Y-5.257 E36.21418
G1 X-27.620 Y-6.097 E36.38208
G1 X-26.358 Y-6.734 E36.54998
G1 X-25.006 Y-7.148 E36.71788
G1 X-23.631 Y-7.324 E36.88247
G1 X-22.195 Y-7.268 E37.05323
G1 X-20.809 Y-6.970 E37.22153
G1 X-20.235 Y-6.739 E37.29500
G1 X-20.446 Y-6.054 F7800.000
G1 F1800
G1 X-19.820 Y-5.802 E37.37509
G1 X-18.720 Y-5.125 E37.52855
G1 X-17.750 Y-4.271 E37.68201
G1 X-16.938 Y-3.266 E37.83547
G1 X-16.308 Y-2.138 E37.98893
G1 X-15.878 Y-0.920 E38.14239
G1 X-15.659 Y0.354 E38.29585
G1 X-15.659 Y1.646 E38.44931
G1 X-15.878 Y2.920 E38.60277
G1 X-16.308 Y4.138 E38.75623
G1 X-16.938 Y5.266 E38.90969
G1 X-17.750 Y6.271 E39.06315
G1 X-18.720 Y7.125 E39.21661
G1 X-19.820 Y7.802 E39.37008
G1 X-21.019 Y8.284 E39.52354
G1 X-22.282 Y8.556 E39.67698
G1 X-23.572 Y8.611 E39.83029
G1 X-24.855 Y8.447 E39.98392
G1 X-26.090 Y8.069 E40.13738
G1 X-27.244 Y7.487 E40.29084
G1 X-28.262 Y6.735 E40.44115
G1 X-29.176 Y5.788 E40.59748
G1 X-29.901 Y4.715 E40.75118
G1 X-30.433 Y3.538 E40.90464
G1 X-30.759 Y2.287 E41.05810
G1 X-30.868 Y1.000 E41.21156
G1 X-30.759 Y-0.287 E41.36502
G1 X-30.440 Y-1.512 E41.51533
G1 X-29.902 Y-2.714 E41.67166
G1 X-29.177 Y-3.786 E41.82537
G1 X-28.283 Y-4.719 E41.97883
G1 X-27.244 Y-5.487 E42.13229
G1 X-26.090 Y-6.069 E42.28575
G1 X-24.855 Y-6.447 E42.43921
G1 X-23.600 Y-6.608 E42.58951
G1 X-22.284 Y-6.557 E42.74584
G1 X-21.019 Y-6.284 E42.89955
G1 X-20.502 Y-6.076 E42.96580
G1 X-20.712 Y-5.391 F7800.000
G1 F1800
G1 X-20.143 Y-5.162 E43.03866
G1 X-19.146 Y-4.549 E43.17769
G1 X-18.267 Y-3.775 E43.31671
G1 X-17.532 Y-2.865 E43.45573
G1 X-16.961 Y-1.843 E43.59476
G1 X-16.571 Y-0.739 E43.73378
G1 X-16.373 Y0.415 E43.87280
G1 X-16.373 Y1.585 E44.01182
G1 X-16.571 Y2.739 E44.15085
G1 X-16.961 Y3.843 E44.28987
G1 X-17.532 Y4.865 E44.42889
G1 X-18.267 Y5.775 E44.56791
G1 X-19.146 Y6.549 E44.70694
G1 X-20.143 Y7.162 E44.84596
G1 X-21.229 Y7.599 E44.98498
G1 X-22.373 Y7.846 E45.12400
G1 X-23.542 Y7.895 E45.26287
G1 X-24.704 Y7.747 E45.40205
G1 X-25.823 Y7.404 E45.54107
G1 X-26.868 Y6.877 E45.68010
G1 X-27.789 Y6.196 E45.81612
G1 X-28.619 Y5.336 E45.95801
G1 X-29.275 Y4.366 E46.09712
G1 X-29.757 Y3.299 E46.23615
G1 X-30.052 Y2.166 E46.37517
G1 X-30.151 Y1.000 E46.51419
G1 X-30.052 Y-0.166 E46.65321
G1 X-29.764 Y-1.275 E46.78924
G1 X-29.275 Y-2.365 E46.93113
G1 X-28.620 Y-3.336 E47.07024
G1 X-27.810 Y-4.181 E47.20926
G1 X-26.868 Y-4.877 E47.34829
G1 X-25.823 Y-5.404 E47.48731
G1 X-24.704 Y-5.747 E47.62633
G1 X-23.568 Y-5.892 E47.76236
G1 X-22.374 Y-5.846 E47.90425
G1 X-21.229 Y-5.599 E48.04336
G1 X-20.768 Y-5.414 E48.10239
G1 X-20.407 Y-5.650 F7800.000
G1 E46.10239 F2400.00000
G1 X15.035 Y-0.409 F7800.000
G1 E48.10239 F2400.00000
G1 F1800
G1 X15.391 Y-1.777 E48.27029
G1 X15.973 Y-3.065 E48.43819
G1 X16.765 Y-4.236 E48.60608
G1 X17.743 Y-5.257 E48.77398
G1 X18.880 Y-6.097 E48.94188
G1 X20.141 Y-6.733 E49.10956
G1 X21.451 Y-7.137 E49.27237
G1 X22.865 Y-7.324 E49.44180
G1 X24.305 Y-7.268 E49.61301
G1 X25.691 Y-6.970 E49.78131
G1 X27.002 Y-6.442 E49.94921
G1 X28.206 Y-5.701 E50.11711
G1 X29.267 Y-4.767 E50.28501
G1 X30.156 Y-3.667 E50.45291
G1 X30.845 Y-2.433 E50.62081
G1 X31.316 Y-1.100 E50.78870
G1 X31.555 Y0.293 E50.95660
G1 X31.555 Y1.707 E51.12450
G1 X31.316 Y3.100 E51.29240
G1 X30.845 Y4.433 E51.46030
G1 X30.156 Y5.667 E51.62820
G1 X29.267 Y6.767 E51.79610
G1 X28.206 Y7.701 E51.96399
G1 X27.002 Y8.442 E52.13189
G1 X25.691 Y8.970 E52.29979
G1 X24.309 Y9.267 E52.46769
G1 X22.896 Y9.327 E52.63559
G1 X21.496 Y9.148 E52.80326
G1 X20.219 Y8.760 E52.96179
G1 X18.886 Y8.102 E53.13829
G1 X17.743 Y7.257 E53.30711
G1 X16.765 Y6.236 E53.47501
G1 X15.973 Y5.065 E53.64291
G1 X15.391 Y3.777 E53.81081
G1 X15.035 Y2.409 E53.97871
G1 X14.915 Y1.000 E54.14660
G1 X15.030 Y-0.349 E54.30738
G1 X15.741 Y-0.287 F7800.000
G1 F1800
G1 X16.067 Y-1.538 E54.46084
G1 X16.599 Y-2.715 E54.61430
G1 X17.323 Y-3.786 E54.76776
G1 X18.217 Y-4.719 E54.92122
G1 X19.256 Y-5.487 E55.07468
G1 X20.408 Y-6.068 E55.22801
G1 X21.604 Y-6.437 E55.37655
G1 X22.898 Y-6.608 E55.53162
G1 X24.216 Y-6.557 E55.68821
G1 X25.481 Y-6.284 E55.84192
G1 X26.680 Y-5.802 E55.99538
G1 X27.780 Y-5.125 E56.14884
G1 X28.750 Y-4.271 E56.30230
G1 X29.562 Y-3.266 E56.45576
G1 X30.192 Y-2.138 E56.60922
G1 X30.622 Y-0.920 E56.76268
G1 X30.841 Y0.354 E56.91614
G1 X30.841 Y1.646 E57.06961
G1 X30.622 Y2.920 E57.22307
G1 X30.192 Y4.138 E57.37653
G1 X29.562 Y5.266 E57.52999
G1 X28.750 Y6.271 E57.68345
G1 X27.780 Y7.125 E57.83691
G1 X26.680 Y7.802 E57.99037
G1 X25.481 Y8.284 E58.14383
G1 X24.218 Y8.556 E58.29729
G1 X22.927 Y8.611 E58.45075
G1 X21.646 Y8.447 E58.60407
G1 X20.482 Y8.094 E58.74853
G1 X19.260 Y7.490 E58.91050
G1 X18.217 Y6.719 E59.06452
G1 X17.323 Y5.786 E59.21798
G1 X16.599 Y4.715 E59.37144
G1 X16.067 Y3.538 E59.52490
G1 X15.741 Y2.287 E59.67836
G1 X15.632 Y1.000 E59.83182
G1 X15.736 Y-0.228 E59.97816
G1 X16.448 Y-0.166 F7800.000
G1 F1800
G1 X16.743 Y-1.299 E60.11718
G1 X17.225 Y-2.366 E60.25620
G1 X17.880 Y-3.336 E60.39523
G1 X18.690 Y-4.181 E60.53425
G1 X19.632 Y-4.877 E60.67327
G1 X20.676 Y-5.404 E60.81225
G1 X21.757 Y-5.737 E60.94652
G1 X22.931 Y-5.892 E61.08722
G1 X24.126 Y-5.846 E61.22921
G1 X25.271 Y-5.599 E61.36832
G1 X26.357 Y-5.162 E61.50734
G1 X27.354 Y-4.549 E61.64637
G1 X28.233 Y-3.775 E61.78539
G1 X28.968 Y-2.865 E61.92441
G1 X29.539 Y-1.843 E62.06343
G1 X29.929 Y-0.739 E62.20246
G1 X30.127 Y0.415 E62.34148
G1 X30.127 Y1.585 E62.48050
G1 X29.929 Y2.739 E62.61952
G1 X29.539 Y3.843 E62.75855
G1 X28.968 Y4.865 E62.89757
G1 X28.233 Y5.775 E63.03659
G1 X27.354 Y6.549 E63.17561
G1 X26.357 Y7.162 E63.31464
G1 X25.271 Y7.599 E63.45366
G1 X24.127 Y7.846 E63.59268
G1 X22.957 Y7.895 E63.73171
G1 X21.796 Y7.747 E63.87068
G1 X20.746 Y7.427 E64.00105
G1 X19.633 Y6.878 E64.14850
G1 X18.690 Y6.181 E64.28772
G1 X17.880 Y5.336 E64.42675
G1 X17.225 Y4.366 E64.56577
G1 X16.743 Y3.299 E64.70479
G1 X16.448 Y2.166 E64.84381
G1 X16.349 Y1.000 E64.98284
G1 X16.443 Y-0.107 E65.11473
G1 X16.448 Y-0.166 F7800.000
G1 E63.11473 F2400.00000
G1 X31.890 Y20.039 F7800.000
G1 E65.11473 F2400.00000
G1 F1800
G1 X31.706 Y20.133 E65.13933
G1 X31.428 Y20.172 E65.17261
G1 X-31.428 Y20.172 E72.63776
G1 X-31.706 Y20.133 E72.67104
G1 X-31.891 Y20.039 E72.69579
G1 X-31.971 Y19.971 E72.70821
G1 X-32.093 Y19.802 E72.73295
G1 X-32.158 Y19.604 E72.75770
G1 X-32.172 Y19.428 E72.77867
G1 X-32.172 Y-19.428 E77.39345
G1 X-32.134 Y-19.704 E77.42647
G1 X-32.039 Y-19.891 E77.45148
G1 X-31.890 Y-20.040 E77.47638
G1 X-31.802 Y-20.093 E77.48864
G1 X-31.604 Y-20.158 E77.51338
G1 X-31.428 Y-20.172 E77.53435
G1 X31.428 Y-20.172 E84.99950
G1 X31.707 Y-20.133 E85.03293
G1 X31.891 Y-20.039 E85.05753
G1 X31.971 Y-19.971 E85.06994
G1 X32.093 Y-19.802 E85.09469
G1 X32.158 Y-19.604 E85.11944
G1 X32.172 Y-19.428 E85.14041
G1 X32.172 Y19.428 E89.75518
G1 X32.133 Y19.706 E89.78848
G1 X32.039 Y19.891 E89.81322
G1 X31.936 Y20.000 E89.83102
G1 X32.264 Y20.648 F7800.000
G1 F1800
G1 X32.128 Y20.732 E89.84996
G1 X31.927 Y20.815 E89.87572
G1 X31.716 Y20.865 E89.90148
G1 X31.456 Y20.886 E89.93246
G1 X-31.456 Y20.886 E97.40427
G1 X-31.716 Y20.865 E97.43525
G1 X-31.927 Y20.815 E97.46101
G1 X-32.128 Y20.732 E97.48677
G1 X-32.313 Y20.618 E97.51253
G1 X-32.478 Y20.478 E97.53830
G1 X-32.618 Y20.313 E97.56406
G1 X-32.732 Y20.128 E97.58982
G1 X-32.815 Y19.927 E97.61559
G1 X-32.865 Y19.716 E97.64135
G1 X-32.886 Y19.456 E97.67233
G1 X-32.886 Y-19.456 E102.29377
G1 X-32.865 Y-19.716 E102.32475
G1 X-32.815 Y-19.924 E102.35018
G1 X-32.731 Y-20.128 E102.37636
G1 X-32.618 Y-20.313 E102.40203
G1 X-32.479 Y-20.475 E102.42747
G1 X-32.312 Y-20.619 E102.45365
G1 X-32.128 Y-20.732 E102.47932
G1 X-31.927 Y-20.815 E102.50508
G1 X-31.716 Y-20.865 E102.53084
