; generated by Slic3r 1.3.0 on 2024-04-22 at 13:43:50

; external perimeters extrusion width = 0.44mm (3.38mm^3/s)
; perimeters extrusion width = 0.48mm (7.54mm^3/s)
; infill extrusion width = 0.48mm (10.05mm^3/s)
; solid infill extrusion width = 0.48mm (2.51mm^3/s)
; top infill extrusion width = 0.48mm (1.88mm^3/s)
; support material extrusion width = 0.44mm (6.76mm^3/s)

M127
;
;
;- - - - SUMMARY - - - -
;
;first layer temperature = 218C
;temperature = 216C
;first layer bed temperature = 58C
;bed temperature = 56C
;
;first layer height = 0.4mm
;layer height = 0.3mm
;z_offset = 0mm
;perimeters = 3
;fill density = 30%
;infill every n layers = 1
;skirts = 1
;brim width = 0mm
;raft layers = 0
;support material = 1
;support material threshold = 60% degrees
;support material enforced for first n layers = 0
;support material extruder = 1
;
;first layer speed = 30
;perimeter speed = 60mm/s
;small perimeter speed = 15
;external perimeter speed = 50%
;infill speed = 80mm/s
;solid infill speed = 20
;top solid infill speed = 15
;support material speed = 60mm/s
;gap fill speed = 20mm/s
;travel speed = 130mm/s
;bridge speed = 60mm/s
;bridge flow ratio = 1
;slowdown if layer time is less than = 5secs
;minimum print speed = 10mm/s
;
;bottom solid layers = 3
;top solid layers = 3
;
;
;- - - - EXTRUSION - - - -
;
;filament diameter = 1.75mm
;nozzle diameter = 0.4mm
;bridge flow ratio = 1
;extrusion axis = E
;extrusion multiplier = 1
;extrusion width = 0mm
;first layer extrusion width = 200%mm
;perimeter extrusion width = 0mm
;infill extrusion width = 0mm
;solid infill extrusion width = 0mm
;top infill extrusion width = 0mm
;support material extrusion width = 0mm
;
;
;- - - - SUPPORT - - - -
;
;raft layers = 0
;brim width = 0mm
;support material = 1
;support material threshold = 60% degrees
;support material enforced for first n layers = 0
;support material extruder = 1
;support material extrusion width = 0mm
;support material interface layers = 3
;support material interface spacing = 0mm
;support material pattern = pillars
;support material angle = 0 degrees
;support material spacing = 2.5mm
;support material speed = 60mm/s
;
;
;- - - - EVERYTHING ELSE - - - -
;
;complete objects = 0
;cooling enabled = 1
;default acceleration = 0mm/s/s
;disable fan for first layers = 3
;duplicate = [duplicate]
;duplicate distance = 6mm
;duplicate grid = [duplicate_grid]
;external perimeters first = 0
;extra perimeters = 1
;extruder clearance height = 20mm
;extruder clearance radius = 20mm
;extruder offset = 0,0mm
;fan always on = 0
;fan below layer time = 60secs
;fill angle = 45 degrees
;fill pattern = rectilinear
;gcode arcs = 0
;gcode comments = 0
;gcode flavor = sailfish
;infill acceleration = 0mm/s/s
;infill extruder = 1
;infill first = 0
;infill only where needed = 1
;minimum skirt length = 0mm
;only retract when crossing perimeters = 1
;perimeter acceleration = 0mm/s/s
;perimeter extruder = 1
;randomize start = [randomize_start]
;resolution = 0mm
;retract before travel = 2
;retract on layer change = 0
;retract length = 2mm
;retract length on tool change = 10mm
;retract lift = 0
;retract extra distance on restart = 0mm
;retract extra on tool change = 0mm
;retract speed = 40mm/s
;rotate = [rotate] degrees
;scale = 100%
;skirt distance = 6mm
;skirt height = 1mm
;solid fill pattern = [solid_fill_pattern]
;solid infill below area = 70mm (sq)
;solid infill every n layers = 4
;
;
;- - - - - - - - - - - - - - - - - - - - - - - - -
;
;
T0; set primary extruder
M73 P0; enable show build progress
;M109 S58 T0; heat bed up to first layer temperature
M140 S58 T0; heat bed up to first layer temperature
M104 S218 T0; set nozzle heater to first layer temperature
M103; disable RPM
G21; set units to mm
G162 X Y F6000; home XY axes maximum
G161 Z F9000; home Z axis minimum
G92 Z0; set Z to 0
M132 X Y Z A B; Recall stored home offsets
G90; set positioning to absolute
G1 Z30; move Z to waiting height
G1 X-95 Y-73 Z30 F14000; move to waiting position (front left corner of print bed)
G130 X0 Y0 A0 B0; set stepper motor vref to lower value while heating
M6 T0; wait for bed and extruder to heat up
G130 X127 Y127 A127 B127; set stepper motor vref to defaults
M108 T0 R3; set extruder speed
G92 E0; set E to 0
G90; use absolute coordinates
M320; acceleration enabled for all commands that follow
G1 Z0.4 F6000.000; move to first layer height
G1 X100 Y-73 F14000.000; move to front right corner of bed
G1 X-90 Y-73 E24 F2000.000; extrude a line of filament across the front edge of the bed
G4 P2000; wait for ooze to slow
G1 Z0 F6000.000; lower nozzle height to 0
G1 X-95; wipe nozzle
G1 Z0.4 F6000.000; set nozzle to first layer height
G1 F12000; ensure fast travel to first print move
G92 E0; set E to 0 again
M73 P0; reset build progress to 0
; Filament gcode

G21 ; set units to millimeters
G90 ; use absolute coordinates
M73 P0
G1 Z0.400 F7800.000
G1 E-2.00000 F2400.00000
G1 X-3.050 Y44.934 F7800.000
G1 E0.00000 F2400.00000
G1 F1800
G1 X-4.739 Y45.150 E0.20226
G1 X-31.239 Y45.150 E3.34954
G1 X-33.514 Y44.753 E3.62376
G1 X-34.979 Y44.011 E3.81880
G1 X-84.698 Y10.663 E10.92898
G1 X-85.319 Y10.193 E11.02146
G1 X-85.617 Y9.938 E11.06805
G1 X-86.362 Y9.193 E11.19318
G1 X-86.617 Y8.894 E11.23983
G1 X-87.236 Y8.042 E11.36490
G1 X-87.441 Y7.708 E11.41150
G1 X-87.920 Y6.769 E11.53663
G1 X-88.070 Y6.406 E11.58322
G1 X-88.395 Y5.405 E11.70833
G1 X-88.487 Y5.023 E11.75497
G1 X-88.652 Y3.982 E11.88005
G1 X-88.682 Y3.591 E11.92671
G1 X-88.703 Y3.065 E11.98926
G1 X-88.703 Y-35.935 E16.62110
G1 X-88.652 Y-36.853 E16.73029
G1 X-88.487 Y-37.894 E16.85541
G1 X-88.395 Y-38.276 E16.90207
G1 X-88.070 Y-39.277 E17.02713
G1 X-87.920 Y-39.640 E17.07372
G1 X-87.441 Y-40.579 E17.19885
G1 X-87.236 Y-40.913 E17.24544
G1 X-86.617 Y-41.765 E17.37057
G1 X-86.362 Y-42.064 E17.41720
G1 X-85.617 Y-42.809 E17.54229
G1 X-85.319 Y-43.064 E17.58893
G1 X-84.467 Y-43.683 E17.71401
G1 X-84.132 Y-43.888 E17.76060
G1 X-83.193 Y-44.366 E17.88573
G1 X-82.830 Y-44.516 E17.93240
G1 X-81.829 Y-44.842 E18.05744
G1 X-81.447 Y-44.933 E18.10404
G1 X-80.407 Y-45.098 E18.22916
G1 X-79.489 Y-45.150 E18.33835
G1 X-16.489 Y-45.150 E25.82055
G1 X-15.962 Y-45.129 E25.88316
G1 X-15.237 Y-45.063 E25.96960
G1 X76.741 Y-33.177 E36.98422
G1 X77.447 Y-33.047 E37.06958
G1 X77.831 Y-32.955 E37.11642
G1 X78.831 Y-32.630 E37.24130
G1 X79.193 Y-32.479 E37.28789
G1 X80.132 Y-32.001 E37.41301
G1 X80.469 Y-31.795 E37.45989
G1 X81.319 Y-31.177 E37.58473
G1 X81.618 Y-30.921 E37.63145
G1 X82.362 Y-30.177 E37.75647
G1 X82.617 Y-29.879 E37.80306
G1 X83.236 Y-29.027 E37.92816
G1 X83.441 Y-28.692 E37.97475
G1 X83.915 Y-27.764 E38.09847
G1 X89.324 Y-14.772 E39.76985
G1 X89.839 Y-12.192 E40.08238
G1 X89.839 Y15.594 E43.38237
G1 X89.442 Y17.869 E43.65660
G1 X88.298 Y19.874 E43.93082
G1 X86.542 Y21.374 E44.20505
G1 X84.815 Y22.092 E44.42730
G1 X-2.992 Y44.919 E55.20224
G1 E53.20224 F2400.00000
G1 X16.369 Y3.549 F7800.000
G1 E55.20224 F2400.00000
G1 F1800
G1 X15.255 Y2.724 E55.36683
G1 X14.256 Y1.690 E55.53759
G1 X13.462 Y0.516 E55.70589
G1 X12.880 Y-0.772 E55.87379
G1 X12.524 Y-2.140 E56.04169
G1 X12.404 Y-3.549 E56.20959
G1 X12.524 Y-4.958 E56.37749
G1 X12.873 Y-6.299 E56.54208
G1 X13.461 Y-7.611 E56.71284
G1 X14.254 Y-8.785 E56.88114
G1 X15.232 Y-9.806 E57.04904
G1 X16.369 Y-10.646 E57.21694
G1 X17.631 Y-11.283 E57.38484
G1 X18.983 Y-11.697 E57.55274
G1 X20.358 Y-11.873 E57.71733
G1 X21.794 Y-11.817 E57.88809
G1 X23.180 Y-11.519 E58.05639
G1 X24.491 Y-10.991 E58.22429
G1 X25.695 Y-10.250 E58.39219
G1 X26.756 Y-9.316 E58.56009
G1 X27.645 Y-8.216 E58.72799
G1 X28.334 Y-6.982 E58.89589
G1 X28.805 Y-5.649 E59.06379
G1 X29.044 Y-4.256 E59.23168
G1 X29.044 Y-2.842 E59.39958
G1 X28.805 Y-1.449 E59.56748
G1 X28.334 Y-0.116 E59.73538
G1 X27.645 Y1.118 E59.90328
G1 X26.756 Y2.218 E60.07118
G1 X25.695 Y3.152 E60.23908
G1 X24.491 Y3.894 E60.40698
G1 X23.180 Y4.421 E60.57487
G1 X21.798 Y4.718 E60.74275
G1 X20.387 Y4.779 E60.91050
G1 X18.983 Y4.599 E61.07857
G1 X17.631 Y4.185 E61.24647
G1 X16.422 Y3.576 E61.40724
G1 X16.745 Y2.938 F7800.000
G1 F1800
G1 X15.727 Y2.186 E61.55755
G1 X14.813 Y1.239 E61.71388
G1 X14.088 Y0.166 E61.86758
G1 X13.556 Y-1.011 E62.02104
G1 X13.230 Y-2.261 E62.17451
G1 X13.121 Y-3.549 E62.32797
G1 X13.230 Y-4.836 E62.48143
G1 X13.549 Y-6.061 E62.63173
G1 X14.087 Y-7.263 E62.78806
G1 X14.812 Y-8.335 E62.94177
G1 X15.706 Y-9.268 E63.09523
G1 X16.745 Y-10.036 E63.24869
G1 X17.898 Y-10.618 E63.40215
G1 X19.134 Y-10.996 E63.55561
G1 X20.389 Y-11.157 E63.70592
G1 X21.705 Y-11.106 E63.86225
G1 X22.970 Y-10.833 E64.01595
G1 X24.169 Y-10.351 E64.16941
G1 X25.269 Y-9.674 E64.32287
G1 X26.239 Y-8.820 E64.47633
G1 X27.051 Y-7.815 E64.62979
G1 X27.681 Y-6.687 E64.78325
G1 X28.111 Y-5.469 E64.93672
G1 X28.330 Y-4.195 E65.09018
G1 X28.330 Y-2.903 E65.24364
G1 X28.111 Y-1.629 E65.39710
G1 X27.681 Y-0.411 E65.55056
G1 X27.051 Y0.717 E65.70402
G1 X26.239 Y1.722 E65.85748
G1 X25.269 Y2.576 E66.01094
G1 X24.169 Y3.254 E66.16440
G1 X22.970 Y3.735 E66.31786
G1 X21.707 Y4.008 E66.47131
G1 X20.417 Y4.063 E66.62462
G1 X19.134 Y3.898 E66.77825
G1 X17.898 Y3.520 E66.93171
G1 X16.798 Y2.965 E67.07804
G1 X17.120 Y2.328 F7800.000
G1 F1800
G1 X16.200 Y1.647 E67.21407
G1 X15.370 Y0.787 E67.35596
G1 X14.714 Y-0.183 E67.49507
G1 X14.232 Y-1.250 E67.63409
G1 X13.937 Y-2.383 E67.77311
G1 X13.838 Y-3.549 E67.91214
G1 X13.937 Y-4.715 E68.05116
G1 X14.225 Y-5.824 E68.18718
G1 X14.713 Y-6.914 E68.32907
G1 X15.369 Y-7.885 E68.46819
G1 X16.179 Y-8.730 E68.60721
G1 X17.120 Y-9.426 E68.74623
G1 X18.166 Y-9.953 E68.88525
G1 X19.285 Y-10.295 E69.02428
G1 X20.421 Y-10.441 E69.16030
G1 X21.615 Y-10.395 E69.30219
G1 X22.760 Y-10.148 E69.44130
G1 X23.846 Y-9.711 E69.58032
G1 X24.843 Y-9.098 E69.71935
G1 X25.722 Y-8.324 E69.85837
G1 X26.457 Y-7.414 E69.99739
G1 X27.028 Y-6.392 E70.13642
G1 X27.418 Y-5.288 E70.27544
G1 X27.616 Y-4.134 E70.41446
G1 X27.616 Y-2.964 E70.55348
G1 X27.418 Y-1.810 E70.69251
G1 X27.028 Y-0.706 E70.83153
G1 X26.457 Y0.316 E70.97055
G1 X25.721 Y1.226 E71.10957
G1 X24.843 Y2.000 E71.24860
G1 X23.846 Y2.614 E71.38762
G1 X22.760 Y3.050 E71.52664
G1 X21.616 Y3.297 E71.66566
G1 X20.447 Y3.346 E71.80453
G1 X19.285 Y3.198 E71.94371
G1 X18.166 Y2.855 E72.08273
G1 X17.174 Y2.355 E72.21463
G1 X17.120 Y2.328 F7800.000
G1 E70.21463 F2400.00000
G1 X59.024 Y-2.140 F7800.000
G1 E72.21463 F2400.00000
G1 F1800
G1 X58.904 Y-3.549 E72.38253
G1 X59.024 Y-4.958 E72.55043
G1 X59.380 Y-6.326 E72.71833
G1 X59.962 Y-7.614 E72.88623
G1 X60.754 Y-8.785 E73.05412
G1 X61.732 Y-9.806 E73.22202
G1 X62.869 Y-10.646 E73.38992
G1 X64.130 Y-11.282 E73.55760
G1 X65.440 Y-11.686 E73.72041
G1 X66.854 Y-11.873 E73.88984
G1 X68.294 Y-11.817 E74.06105
G1 X69.680 Y-11.519 E74.22935
G1 X70.991 Y-10.991 E74.39725
G1 X72.195 Y-10.250 E74.56515
G1 X73.256 Y-9.316 E74.73305
G1 X74.145 Y-8.216 E74.90095
G1 X74.834 Y-6.982 E75.06884
G1 X75.305 Y-5.649 E75.23674
G1 X75.544 Y-4.256 E75.40464
G1 X75.544 Y-2.842 E75.57254
G1 X75.305 Y-1.449 E75.74044
G1 X74.834 Y-0.116 E75.90834
G1 X74.145 Y1.118 E76.07624
G1 X73.256 Y2.218 E76.24414
G1 X72.195 Y3.152 E76.41203
G1 X70.991 Y3.894 E76.57993
G1 X69.680 Y4.421 E76.74783
G1 X68.298 Y4.718 E76.91573
G1 X66.885 Y4.778 E77.08363
G1 X65.485 Y4.599 E77.25130
G1 X64.208 Y4.211 E77.40983
G1 X62.875 Y3.553 E77.58633
G1 X61.732 Y2.708 E77.75515
G1 X60.754 Y1.687 E77.92305
G1 X59.962 Y0.516 E78.09095
G1 X59.380 Y-0.772 E78.25885
G1 X59.039 Y-2.082 E78.41962
G1 X59.730 Y-2.261 F7800.000
G1 F1800
G1 X59.621 Y-3.549 E78.57308
G1 X59.730 Y-4.836 E78.72654
G1 X60.056 Y-6.087 E78.88000
G1 X60.588 Y-7.264 E79.03346
G1 X61.312 Y-8.335 E79.18692
G1 X62.206 Y-9.268 E79.34038
G1 X63.245 Y-10.036 E79.49384
G1 X64.397 Y-10.617 E79.64717
G1 X65.593 Y-10.986 E79.79571
G1 X66.887 Y-11.157 E79.95078
G1 X68.205 Y-11.106 E80.10738
G1 X69.470 Y-10.833 E80.26108
G1 X70.669 Y-10.351 E80.41454
G1 X71.769 Y-9.674 E80.56800
G1 X72.739 Y-8.820 E80.72147
G1 X73.551 Y-7.815 E80.87493
G1 X74.181 Y-6.687 E81.02839
G1 X74.611 Y-5.469 E81.18185
G1 X74.830 Y-4.195 E81.33531
G1 X74.830 Y-2.903 E81.48877
G1 X74.611 Y-1.629 E81.64223
G1 X74.181 Y-0.411 E81.79569
G1 X73.551 Y0.717 E81.94915
G1 X72.739 Y1.722 E82.10261
G1 X71.769 Y2.576 E82.25607
G1 X70.669 Y3.254 E82.40953
G1 X69.470 Y3.735 E82.56299
G1 X68.207 Y4.008 E82.71645
G1 X66.916 Y4.062 E82.86991
G1 X65.635 Y3.898 E83.02324
G1 X64.471 Y3.545 E83.16769
G1 X63.249 Y2.941 E83.32966
G1 X62.206 Y2.170 E83.48368
G1 X61.312 Y1.237 E83.63714
G1 X60.588 Y0.166 E83.79061
G1 X60.056 Y-1.011 E83.94407
G1 X59.745 Y-2.203 E84.09040
G1 X60.437 Y-2.383 F7800.000
G1 F1800
G1 X60.338 Y-3.549 E84.22942
G1 X60.437 Y-4.715 E84.36845
G1 X60.732 Y-5.848 E84.50747
G1 X61.214 Y-6.915 E84.64649
G1 X61.869 Y-7.885 E84.78551
G1 X62.679 Y-8.730 E84.92454
G1 X63.620 Y-9.426 E85.06356
G1 X64.665 Y-9.953 E85.20253
G1 X65.746 Y-10.286 E85.33681
G1 X66.920 Y-10.441 E85.47751
G1 X68.115 Y-10.395 E85.61950
G1 X69.260 Y-10.148 E85.75861
G1 X70.346 Y-9.711 E85.89763
G1 X71.343 Y-9.098 E86.03665
G1 X72.222 Y-8.324 E86.17568
G1 X72.957 Y-7.414 E86.31470
G1 X73.528 Y-6.392 E86.45372
G1 X73.918 Y-5.288 E86.59274
G1 X74.116 Y-4.134 E86.73177
G1 X74.116 Y-2.964 E86.87079
G1 X73.918 Y-1.810 E87.00981
G1 X73.528 Y-0.706 E87.14883
G1 X72.957 Y0.316 E87.28786
G1 X72.222 Y1.226 E87.42688
G1 X71.343 Y2.000 E87.56590
G1 X70.346 Y2.614 E87.70492
G1 X69.260 Y3.050 E87.84395
G1 X68.116 Y3.297 E87.98297
G1 X66.946 Y3.346 E88.12199
G1 X65.785 Y3.198 E88.26097
G1 X64.735 Y2.878 E88.39134
G1 X63.622 Y2.329 E88.53879
G1 X62.679 Y1.632 E88.67801
G1 X61.869 Y0.787 E88.81703
G1 X61.214 Y-0.183 E88.95606
G1 X60.732 Y-1.250 E89.09508
G1 X60.452 Y-2.325 E89.22697
G1 X60.437 Y-2.383 F7800.000
G1 E87.22697 F2400.00000
G1 X75.879 Y15.491 F7800.000
G1 E89.22697 F2400.00000
G1 F1800
G1 X75.695 Y15.585 E89.25157
G1 X75.417 Y15.623 E89.28486
G1 X12.561 Y15.623 E96.75000
G1 X12.283 Y15.585 E96.78329
G1 X12.097 Y15.490 E96.80804
G1 X12.018 Y15.422 E96.82045
G1 X11.896 Y15.253 E96.84519
G1 X11.831 Y15.055 E96.86994
G1 X11.817 Y14.879 E96.89091
G1 X11.817 Y-23.977 E101.50569
G1 X11.856 Y-24.255 E101.53898
G1 X11.950 Y-24.440 E101.56373
G1 X12.097 Y-24.588 E101.58848
G1 X12.187 Y-24.642 E101.60089
G1 X12.385 Y-24.707 E101.62564
G1 X12.561 Y-24.721 E101.64661
G1 X75.417 Y-24.721 E109.11175
G1 X75.696 Y-24.682 E109.14519
G1 X75.880 Y-24.588 E109.16978
G1 X75.960 Y-24.520 E109.18219
G1 X76.082 Y-24.351 E109.20694
G1 X76.147 Y-24.153 E109.23169
G1 X76.161 Y-23.977 E109.25266
G1 X76.161 Y14.879 E113.86744
G1 X76.122 Y15.157 E113.90073
G1 X76.028 Y15.343 E113.92547
G1 X75.925 Y15.452 E113.94327
G1 X76.252 Y16.099 F7800.000
G1 F1800
G1 X76.117 Y16.183 E113.96221
G1 X75.916 Y16.266 E113.98797
G1 X75.705 Y16.316 E114.01373
G1 X75.445 Y16.337 E114.04471
G1 X12.533 Y16.337 E121.51652
G1 X12.273 Y16.316 E121.54750
G1 X12.062 Y16.266 E121.57326
G1 X11.861 Y16.183 E121.59902
G1 X11.676 Y16.069 E121.62479
G1 X11.511 Y15.929 E121.65055
G1 X11.371 Y15.764 E121.67631
G1 X11.257 Y15.579 E121.70207
G1 X11.174 Y15.378 E121.72784
G1 X11.124 Y15.167 E121.75360
G1 X11.103 Y14.907 E121.78458
G1 X11.103 Y-24.005 E126.40602
G1 X11.124 Y-24.265 E126.43700
G1 X11.174 Y-24.476 E126.46276
G1 X11.257 Y-24.677 E126.48853
G1 X11.371 Y-24.861 E126.51429
G1 X11.511 Y-25.026 E126.54005
G1 X11.676 Y-25.167 E126.56581
G1 X11.861 Y-25.281 E126.59158
G1 X12.062 Y-25.364 E126.61734
G1 X12.273 Y-25.414 E126.64310
G1 X12.533 Y-25.435 E126.67408
G1 X75.445 Y-25.435 E134.14589
G1 X75.702 Y-25.415 E134.17654
G1 X75.917 Y-25.363 E134.20272
G1 X76.117 Y-25.281 E134.22839
G1 X76.302 Y-25.167 E134.25415
G1 X76.466 Y-25.026 E134.27991
G1 X76.607 Y-24.861 E134.30568
G1 X76.721 Y-24.677 E134.33144
G1 X76.804 Y-24.476 E134.35720
G1 X76.854 Y-24.265 E134.38297
G1 X76.875 Y-24.005 E134.41394
G1 X76.875 Y14.907 E139.03539
G1 X76.854 Y15.167 E139.06637
G1 X76.804 Y15.378 E139.09213
G1 X76.721 Y15.579 E139.11789
G1 X76.607 Y15.764 E139.14365
G1 X76.468 Y15.926 E139.16909
G1 X76.303 Y16.068 E139.19488
G1 X76.626 Y16.708 F7800.000
G1 F1800
G1 X76.442 Y16.821 E139.22049
