; generated by Slic3r 1.3.0 on 2024-04-28 at 15:41:30

; external perimeters extrusion width = 0.44mm (3.38mm^3/s)
; perimeters extrusion width = 0.48mm (7.54mm^3/s)
; infill extrusion width = 0.48mm (10.05mm^3/s)
; solid infill extrusion width = 0.48mm (2.51mm^3/s)
; top infill extrusion width = 0.48mm (1.88mm^3/s)
; support material extrusion width = 0.44mm (6.76mm^3/s)

M127
;
;
;- - - - SUMMARY - - - -
;
;first layer temperature = 220C
;temperature = 220C
;first layer bed temperature = 58C
;bed temperature = 58C
;
;first layer height = 0.4mm
;layer height = 0.3mm
;z_offset = 0mm
;perimeters = 3
;fill density = 15%
;infill every n layers = 1
;skirts = 1
;brim width = 0mm
;raft layers = 0
;support material = 1
;support material threshold = 60% degrees
;support material enforced for first n layers = 0
;support material extruder = 1
;
;first layer speed = 30
;perimeter speed = 60mm/s
;small perimeter speed = 15
;external perimeter speed = 50%
;infill speed = 80mm/s
;solid infill speed = 20
;top solid infill speed = 15
;support material speed = 60mm/s
;gap fill speed = 20mm/s
;travel speed = 130mm/s
;bridge speed = 60mm/s
;bridge flow ratio = 1
;slowdown if layer time is less than = 5secs
;minimum print speed = 10mm/s
;
;bottom solid layers = 3
;top solid layers = 3
;
;
;- - - - EXTRUSION - - - -
;
;filament diameter = 1.75mm
;nozzle diameter = 0.4mm
;bridge flow ratio = 1
;extrusion axis = E
;extrusion multiplier = 1
;extrusion width = 0mm
;first layer extrusion width = 200%mm
;perimeter extrusion width = 0mm
;infill extrusion width = 0mm
;solid infill extrusion width = 0mm
;top infill extrusion width = 0mm
;support material extrusion width = 0mm
;
;
;- - - - SUPPORT - - - -
;
;raft layers = 0
;brim width = 0mm
;support material = 1
;support material threshold = 60% degrees
;support material enforced for first n layers = 0
;support material extruder = 1
;support material extrusion width = 0mm
;support material interface layers = 3
;support material interface spacing = 0mm
;support material pattern = pillars
;support material angle = 0 degrees
;support material spacing = 2.5mm
;support material speed = 60mm/s
;
;
;- - - - EVERYTHING ELSE - - - -
;
;complete objects = 0
;cooling enabled = 1
;default acceleration = 0mm/s/s
;disable fan for first layers = 3
;duplicate = [duplicate]
;duplicate distance = 6mm
;duplicate grid = [duplicate_grid]
;external perimeters first = 0
;extra perimeters = 1
;extruder clearance height = 20mm
;extruder clearance radius = 20mm
;extruder offset = 0,0mm
;fan always on = 0
;fan below layer time = 60secs
;fill angle = 45 degrees
;fill pattern = rectilinear
;gcode arcs = 0
;gcode comments = 0
;gcode flavor = sailfish
;infill acceleration = 0mm/s/s
;infill extruder = 1
;infill first = 0
;infill only where needed = 0
;minimum skirt length = 0mm
;only retract when crossing perimeters = 1
;perimeter acceleration = 0mm/s/s
;perimeter extruder = 1
;randomize start = [randomize_start]
;resolution = 0mm
;retract before travel = 2
;retract on layer change = 0
;retract length = 2mm
;retract length on tool change = 10mm
;retract lift = 0
;retract extra distance on restart = 0mm
;retract extra on tool change = 0mm
;retract speed = 40mm/s
;rotate = [rotate] degrees
;scale = 100%
;skirt distance = 6mm
;skirt height = 1mm
;solid fill pattern = [solid_fill_pattern]
;solid infill below area = 70mm (sq)
;solid infill every n layers = 0
;
;
;- - - - - - - - - - - - - - - - - - - - - - - - -
;
;
T0; set primary extruder
M73 P0; enable show build progress
;M109 S58 T0; heat bed up to first layer temperature
M140 S58 T0; heat bed up to first layer temperature
M104 S220 T0; set nozzle heater to first layer temperature
M103; disable RPM
G21; set units to mm
G162 X Y F6000; home XY axes maximum
G161 Z F9000; home Z axis minimum
G92 Z0; set Z to 0
M132 X Y Z A B; Recall stored home offsets
G90; set positioning to absolute
G1 Z30; move Z to waiting height
G1 X-95 Y-73 Z30 F14000; move to waiting position (front left corner of print bed)
G130 X0 Y0 A0 B0; set stepper motor vref to lower value while heating
M6 T0; wait for bed and extruder to heat up
G130 X127 Y127 A127 B127; set stepper motor vref to defaults
M108 T0 R3; set extruder speed
G92 E0; set E to 0
G90; use absolute coordinates
M320; acceleration enabled for all commands that follow
G1 Z0.4 F6000.000; move to first layer height
G1 X100 Y-73 F14000.000; move to front right corner of bed
G1 X-90 Y-73 E24 F2000.000; extrude a line of filament across the front edge of the bed
G4 P2000; wait for ooze to slow
G1 Z0 F6000.000; lower nozzle height to 0
G1 X-95; wipe nozzle
G1 Z0.4 F6000.000; set nozzle to first layer height
G1 F12000; ensure fast travel to first print move
G92 E0; set E to 0 again
M73 P0; reset build progress to 0
; Filament gcode

G21 ; set units to millimeters
G90 ; use absolute coordinates
M73 P0
G1 Z0.400 F7800.000
G1 E-2.00000 F2400.00000
G1 X-9.998 Y29.857 F7800.000
G1 E0.00000 F2400.00000
G1 F1800
G1 X-32.851 Y29.857 E2.71415
G1 X-34.366 Y29.838 E2.89411
G1 X-35.027 Y29.801 E2.97270
G1 X-38.240 Y28.683 E3.37666
G1 X-40.876 Y26.916 E3.75360
G1 X-42.861 Y24.848 E4.09409
G1 X-42.974 Y24.664 E4.11971
G1 X-43.452 Y23.725 E4.24484
G1 X-43.671 Y23.196 E4.31280
G1 X-43.997 Y22.194 E4.43792
G1 X-44.130 Y21.638 E4.50587
G1 X-44.295 Y20.597 E4.63101
G1 X-44.357 Y19.545 E4.75622
G1 X-44.357 Y-19.545 E9.39871
G1 X-44.295 Y-20.597 E9.52391
G1 X-44.130 Y-21.638 E9.64903
G1 X-43.997 Y-22.194 E9.71699
G1 X-43.671 Y-23.196 E9.84211
G1 X-43.452 Y-23.725 E9.91007
G1 X-42.974 Y-24.664 E10.03520
G1 X-42.675 Y-25.151 E10.10316
G1 X-42.056 Y-26.004 E10.22828
G1 X-41.684 Y-26.439 E10.29624
G1 X-40.939 Y-27.184 E10.42137
G1 X-40.504 Y-27.556 E10.48933
G1 X-39.651 Y-28.175 E10.61446
G1 X-39.216 Y-28.442 E10.67511
G1 X-37.550 Y-29.173 E10.89117
G1 X-36.122 Y-29.581 E11.06758
G1 X-34.806 Y-29.818 E11.22635
G1 X-34.564 Y-29.837 E11.25528
G1 X-34.044 Y-29.857 E11.31700
G1 X31.045 Y-29.857 E19.04733
G1 X31.950 Y-29.807 E19.15496
G1 X33.578 Y-29.472 E19.35244
G1 X35.007 Y-28.988 E19.53155
G1 X36.221 Y-28.436 E19.68990
G1 X40.506 Y-25.950 E20.27825
G1 X42.274 Y-24.466 E20.55247
G1 X43.434 Y-22.469 E20.82670
G1 X43.850 Y-20.171 E21.10416
G1 X43.947 Y3.299 E23.89160
G1 X43.947 Y8.643 E24.52622
G1 X43.765 Y10.194 E24.71169
G1 X40.812 Y22.633 E26.23003
G1 X39.900 Y24.754 E26.50425
G1 X38.171 Y26.553 E26.80065
G1 X35.314 Y28.585 E27.21697
G1 X33.231 Y29.579 E27.49119
G1 X31.563 Y29.826 E27.69142
G1 X29.995 Y29.857 E27.87770
G1 X-9.938 Y29.857 E32.62033
G1 E30.62033 F2400.00000
G1 X-32.900 Y18.400 F7800.000
G1 E32.62033 F2400.00000
G1 F1800
G1 X-32.900 Y-18.400 E36.99089
G1 X27.900 Y-18.400 E44.21182
G1 X27.900 Y18.400 E48.58237
G1 X-32.840 Y18.400 E55.79617
G1 X-33.293 Y18.472 F7800.000
G1 E53.79617 F2400.00000
G1 X28.614 Y18.886 F7800.000
G1 E55.79617 F2400.00000
G1 F1800
G1 X28.614 Y-18.886 E60.28213
G1 X30.386 Y-18.886 E60.49255
G1 X30.386 Y18.886 E64.97851
G1 X28.674 Y18.886 E65.18179
G1 E63.18179 F2400.00000
G1 X31.100 Y19.600 F7800.000
G1 E65.18179 F2400.00000
G1 F1800
G1 X-34.100 Y19.600 E72.92528
G1 X-34.100 Y-19.600 E77.58088
G1 X31.100 Y-19.600 E85.32437
G1 X31.100 Y19.540 E89.97284
G1 X30.706 Y19.528 F7800.000
G1 X29.500 Y18.529 F7800.000
G1 F1800
G1 X29.500 Y-18.529 E95.96102
G1 X28.257 Y-19.000 F7800.000
G1 F1800
G1 X-33.257 Y-19.000 E100.05297
G1 X-33.358 Y-18.979 E100.05981
G1 F1800
G1 X-33.458 Y-18.958 E100.06807
G1 X-33.500 Y-18.757 E100.08459
G1 F1800
G1 X-33.500 Y18.757 E102.58005
G1 X-33.479 Y18.858 E102.58688
G1 F1800
G1 X-33.458 Y18.958 E102.59514
G1 X-33.257 Y19.000 E102.61166
G1 F1800
G1 X28.257 Y19.000 E106.70361
M73 P0
G1 Z0.400 F7800.000
G1 E104.70361 F2400.00000
G1 X4.278 Y20.905 F7800.000
G1 E106.70361 F2400.00000
G1 F1800
G1 X4.291 Y20.837 E106.70767
G1 X-9.291 Y20.837 E107.50764
G1 X-9.278 Y20.905 E107.51170
G1 X4.278 Y20.905 E108.31009
G1 X4.235 Y21.063 E108.31979
G1 X4.124 Y21.330 E108.33676
G1 X-9.124 Y21.330 E109.11708
G1 X-8.961 Y21.594 E109.13537
G1 X-8.824 Y21.755 E109.14782
G1 X3.824 Y21.755 E109.89274
G1 X3.461 Y22.180 E109.92566
G1 X-8.461 Y22.180 E110.62782
G1 E108.62782 F2400.00000
G1 X-9.291 Y-20.837 F7800.000
G1 E110.62782 F2400.00000
G1 F1800
G1 X4.291 Y-20.837 E111.42780
G1 X4.235 Y-21.064 E111.44156
G1 X4.156 Y-21.262 E111.45413
G1 X-9.156 Y-21.262 E112.23813
G1 X-9.055 Y-21.453 E112.25084
G1 X-8.882 Y-21.687 E112.26800
G1 X3.882 Y-21.687 E113.01971
G1 X3.519 Y-22.112 E113.05263
G1 X-8.519 Y-22.112 E113.76158
G1 X-8.461 Y-22.180 E113.76681
G1 X3.461 Y-22.180 E114.46897
G1 X3.519 Y-22.112 E114.47420
G1 X4.285 Y-23.143 F7800.000
G1 F1800
G1 X4.285 Y-22.715 E114.52507
G1 X4.739 Y-22.183 E114.60814
G1 X4.886 Y-21.962 E114.63961
G1 X5.086 Y-21.570 E114.69186
G1 X5.162 Y-21.365 E114.71785
G1 X5.249 Y-21.017 E114.76045
G1 X5.713 Y-21.017 E114.81563
G1 X5.713 Y-23.143 E115.06811
G1 X7.142 Y-23.143 E115.23774
G1 X7.142 Y-21.017 E115.49022
G1 E113.49022 F2400.00000
G1 X9.998 Y-23.143 F7800.000
G1 E115.49022 F2400.00000
G1 F1800
G1 X8.827 Y-23.143 E115.62931
G1 X8.827 Y-21.017 E115.88178
G1 X9.998 Y-21.017 E116.02088
G1 X9.998 Y-23.143 E116.27335
G1 X11.427 Y-23.143 E116.44299
G1 X11.427 Y-21.017 E116.69546
G1 X12.855 Y-21.017 E116.86510
G1 X12.855 Y-23.143 E117.11757
G1 X14.283 Y-23.143 E117.28721
G1 X14.283 Y-21.017 E117.53968
G1 X15.712 Y-21.017 E117.70932
G1 X15.712 Y-23.143 E117.96179
G1 X17.140 Y-23.143 E118.13143
G1 X17.140 Y-21.017 E118.38390
G1 E116.38390 F2400.00000
G1 X19.996 Y-23.143 F7800.000
G1 E118.38390 F2400.00000
G1 F1800
G1 X18.827 Y-23.143 E118.52278
G1 X18.827 Y-21.017 E118.77526
G1 X19.996 Y-21.017 E118.91414
G1 X19.996 Y-23.143 E119.16662
G1 X21.425 Y-23.143 E119.33625
G1 X21.425 Y-21.017 E119.58873
G1 X22.853 Y-21.017 E119.75836
G1 X22.853 Y-23.143 E120.01084
G1 X24.281 Y-23.143 E120.18047
G1 X24.281 Y-21.017 E120.43295
G1 X25.710 Y-21.017 E120.60258
G1 X25.710 Y-23.143 E120.85506
G1 X27.138 Y-23.143 E121.02469
G1 X27.138 Y-21.017 E121.27717
G1 E119.27717 F2400.00000
G1 X29.995 Y-23.143 F7800.000
G1 E121.27717 F2400.00000
G1 F1800
G1 X28.827 Y-23.143 E121.41584
G1 X28.827 Y-21.017 E121.66832
G1 X29.995 Y-21.017 E121.80699
G1 X29.995 Y-23.143 E122.05946
G1 X31.045 Y-23.143 E122.18419
G1 X31.423 Y-23.113 E122.22923
G1 X31.423 Y-21.017 E122.47818
G1 X32.517 Y-21.017 E122.60812
G1 X32.517 Y-18.267 E122.93472
G1 X32.612 Y-18.267 E122.94593
G1 X32.612 Y-18.047 E122.97206
G1 X32.851 Y-18.047 E123.00054
G1 X32.851 Y-22.629 E123.54472
G1 X33.143 Y-22.450 E123.58539
G1 X33.578 Y-22.078 E123.65335
G1 X33.950 Y-21.643 E123.72130
G1 X34.280 Y-21.082 E123.79866
G1 X34.280 Y-18.047 E124.15905
G1 X35.708 Y-18.047 E124.32868
G1 X35.708 Y-20.143 E124.57760
G1 X37.136 Y-20.143 E124.74723
G1 X37.136 Y-18.267 E124.97002
G1 E122.97002 F2400.00000
G1 X32.851 Y-16.673 F7800.000
G1 E124.97002 F2400.00000
G1 F1800
G1 X32.517 Y-16.673 E125.00971
G1 X32.517 Y-15.112 E125.19515
G1 X32.851 Y-15.112 E125.23485
G1 X32.851 Y-16.673 E125.42029
G1 X34.280 Y-16.673 E125.58992
G1 X34.280 Y-8.267 E126.58825
G1 X35.708 Y-8.267 E126.75788
G1 X35.708 Y-16.673 E127.75620
G1 X37.136 Y-16.673 E127.92584
G1 X37.136 Y-8.267 E128.92416
G1 E126.92416 F2400.00000
G1 X34.280 Y-6.673 F7800.000
G1 E128.92416 F2400.00000
G1 F1800
G1 X34.280 Y1.733 E129.92248
G1 X35.708 Y1.733 E130.09211
G1 X35.708 Y-6.673 E131.09044
G1 X37.136 Y-6.673 E131.26007
G1 X37.136 Y1.733 E132.25839
G1 E130.25839 F2400.00000
G1 X32.851 Y3.612 F7800.000
G1 E132.25839 F2400.00000
G1 F1800
G1 X32.851 Y11.733 E133.22293
G1 X34.280 Y11.733 E133.39257
G1 X34.280 Y3.107 E134.41702
G1 X35.708 Y3.107 E134.58665
G1 X35.708 Y8.643 E135.24412
G1 X37.136 Y8.643 F7800.000
G1 F1800
G1 X37.233 Y8.643 E135.25560
G1 X37.233 Y3.327 E135.88693
G1 X37.136 Y3.327 E135.89841
G1 X37.136 Y8.643 E136.52975
G1 E134.52975 F2400.00000
G1 X25.710 Y8.847 F7800.000
G1 E136.52975 F2400.00000
G1 F1800
G1 X25.710 Y3.327 E137.18533
G1 X25.658 Y3.327 E137.19152
G1 X25.104 Y3.668 E137.26878
G1 X24.281 Y3.999 E137.37402
G1 X24.281 Y9.180 E137.98942
G1 X23.888 Y9.198 E138.03613
G1 X23.888 Y11.733 E138.33720
G1 X22.853 Y11.733 E138.46017
G1 X22.853 Y4.209 E139.35369
G1 X22.528 Y4.223 E139.39233
G1 X21.649 Y4.111 E139.49764
G1 X21.425 Y4.042 E139.52544
G1 X21.425 Y11.733 E140.43884
G1 X19.996 Y11.733 E140.60848
G1 X19.996 Y3.501 E141.58610
G1 X19.996 Y3.488 F7800.000
G1 F1800
G1 X20.013 Y3.455 E141.59049
G1 X19.996 Y3.443 E141.59290
G1 X19.996 Y3.488 E141.59828
G1 E139.59828 F2400.00000
G1 X17.140 Y1.733 F7800.000
G1 E141.59828 F2400.00000
G1 F1800
G1 X17.140 Y-6.673 E142.59660
G1 X15.711 Y-6.673 E142.76623
G1 X15.711 Y1.733 E143.76455
G1 X14.283 Y1.733 E143.93419
G1 X14.283 Y-6.673 E144.93251
G1 X14.076 Y-6.673 E144.95710
G1 X13.778 Y-6.012 E145.04320
G1 X13.291 Y-5.312 E145.14445
G1 X13.060 Y-4.424 E145.25349
G1 X12.855 Y-3.971 E145.31250
G1 X12.855 Y1.733 E145.98994
G1 X12.739 Y1.733 E146.00370
G1 X12.683 Y1.611 E146.01965
G1 X12.620 Y0.737 E146.12372
G1 X12.395 Y-0.085 E146.22498
G1 X12.472 Y-1.000 E146.33400
G1 X12.389 Y-1.849 E146.43527
G1 X12.620 Y-2.737 E146.54429
G1 X12.681 Y-3.587 E146.64555
G1 X12.855 Y-3.971 E146.69557
G1 E144.69557 F2400.00000
G1 X15.711 Y-8.531 F7800.000
G1 E146.69557 F2400.00000
G1 F1800
G1 X15.268 Y-8.217 E146.76015
G1 X15.153 Y-8.047 E146.78453
G1 X15.711 Y-8.047 E146.85088
G1 X15.711 Y-8.531 E146.90840
G1 X15.960 Y-8.715 E146.94509
G1 X16.595 Y-9.378 E147.05412
G1 X16.629 Y-9.345 E147.05971
G1 X17.140 Y-9.622 E147.12871
G1 X17.140 Y-8.047 E147.31578
G1 X18.568 Y-8.047 E147.48541
G1 X18.568 Y-10.480 E147.77434
G1 X18.857 Y-10.575 E147.81047
G1 X18.857 Y-15.857 E148.43779
G1 X18.827 Y-15.857 E148.44135
G1 X18.827 Y-16.673 E148.53825
G1 X19.996 Y-16.673 E148.67713
G1 X19.996 Y-8.267 E149.67545
G1 X21.425 Y-8.267 E149.84508
G1 X21.425 Y-16.673 E150.84341
G1 X22.853 Y-16.673 E151.01304
G1 X22.853 Y-8.267 E152.01136
G1 X24.281 Y-8.267 E152.18100
G1 X24.281 Y-11.185 E152.52751
G1 X24.973 Y-11.155 E152.60967
G1 X25.710 Y-10.847 E152.70457
G1 X25.710 Y-8.267 E153.01098
G1 E151.01098 F2400.00000
G1 X25.710 Y-5.295 F7800.000
G1 E153.01098 F2400.00000
G1 F1800
G1 X25.710 Y-6.893 E153.20076
G1 X24.281 Y-6.893 E153.37039
G1 X24.281 Y-5.999 E153.47661
G1 X23.414 Y-6.186 E153.58199
G1 X22.853 Y-6.209 E153.64867
G1 X22.853 Y-6.893 E153.72984
G1 X21.425 Y-6.893 E153.89948
G1 X21.425 Y-6.042 E154.00053
G1 X20.772 Y-5.842 E154.08166
G1 X19.996 Y-5.501 E154.18222
G1 X19.996 Y-6.893 E154.34748
G1 X19.996 Y-5.443 F7800.000
G1 F1800
G1 X19.996 Y-5.443 E154.34748
G1 E152.34748 F2400.00000
G1 X14.283 Y3.107 F7800.000
G1 E154.34748 F2400.00000
G1 F1800
G1 X13.237 Y3.107 E154.47168
G1 X13.292 Y3.316 E154.49736
G1 X13.305 Y3.313 E154.49895
G1 X13.810 Y4.061 E154.60613
G1 X14.139 Y4.774 E154.69945
G1 X14.119 Y4.794 E154.70278
G1 X14.198 Y4.903 E154.71877
G1 X14.215 Y4.895 E154.72105
G1 X14.283 Y4.966 E154.73272
G1 X14.283 Y3.107 E154.95345
G1 X15.711 Y3.107 E155.12309
G1 X15.711 Y6.531 E155.52977
G1 X15.960 Y6.715 E155.56646
G1 X16.595 Y7.378 E155.67549
G1 X16.629 Y7.345 E155.68108
G1 X17.140 Y7.622 E155.75008
G1 X17.140 Y3.107 E156.28632
G1 X18.568 Y3.107 E156.45596
G1 X18.568 Y8.480 E157.09408
G1 E155.09408 F2400.00000
G1 X19.996 Y13.327 F7800.000
G1 E157.09408 F2400.00000
G1 F1800
G1 X19.996 Y16.983 E157.52827
G1 X21.425 Y16.983 E157.69790
G1 X21.425 Y13.327 E158.13209
G1 X22.853 Y13.327 E158.30172
G1 X22.853 Y16.983 E158.73591
G1 E156.73591 F2400.00000
G1 X29.995 Y21.017 F7800.000
G1 E158.73591 F2400.00000
G1 F1800
G1 X28.827 Y21.017 E158.87458
G1 X28.827 Y21.733 E158.95960
G1 X29.995 Y21.733 E159.09827
G1 X29.995 Y21.017 E159.18328
G1 X31.423 Y21.017 E159.35292
G1 X31.423 Y21.733 E159.43794
G1 X32.851 Y21.733 E159.60757
G1 X32.851 Y13.327 E160.60589
G1 X34.280 Y13.327 E160.77553
G1 X34.280 Y21.082 E161.69649
G1 E159.69649 F2400.00000
G1 X31.423 Y23.113 F7800.000
G1 E161.69649 F2400.00000
G1 F1800
G1 X29.995 Y23.107 E161.86612
G1 X29.995 Y23.143 E161.87038
G1 X28.566 Y23.143 E162.04001
G1 X28.566 Y23.107 E162.04427
G1 X27.453 Y23.107 E162.17651
G1 X27.453 Y21.017 E162.42473
G1 X27.138 Y21.017 E162.46212
