; generated by Slic3r 1.3.0 on 2024-04-24 at 16:19:06

; external perimeters extrusion width = 0.44mm (3.38mm^3/s)
; perimeters extrusion width = 0.48mm (7.54mm^3/s)
; infill extrusion width = 0.48mm (10.05mm^3/s)
; solid infill extrusion width = 0.48mm (2.51mm^3/s)
; top infill extrusion width = 0.48mm (1.88mm^3/s)

M127
;
;
;- - - - SUMMARY - - - -
;
;first layer temperature = 220C
;temperature = 220C
;first layer bed temperature = 55C
;bed temperature = 54C
;
;first layer height = 0.4mm
;layer height = 0.3mm
;z_offset = 0mm
;perimeters = 3
;fill density = 30%
;infill every n layers = 1
;skirts = 1
;brim width = 0mm
;raft layers = 0
;support material = 0
;support material threshold = 60% degrees
;support material enforced for first n layers = 0
;support material extruder = 1
;
;first layer speed = 30
;perimeter speed = 60mm/s
;small perimeter speed = 15
;external perimeter speed = 50%
;infill speed = 80mm/s
;solid infill speed = 20
;top solid infill speed = 15
;support material speed = 60mm/s
;gap fill speed = 20mm/s
;travel speed = 130mm/s
;bridge speed = 60mm/s
;bridge flow ratio = 1
;slowdown if layer time is less than = 5secs
;minimum print speed = 10mm/s
;
;bottom solid layers = 3
;top solid layers = 3
;
;
;- - - - EXTRUSION - - - -
;
;filament diameter = 1.75mm
;nozzle diameter = 0.4mm
;bridge flow ratio = 1
;extrusion axis = E
;extrusion multiplier = 1
;extrusion width = 0mm
;first layer extrusion width = 200%mm
;perimeter extrusion width = 0mm
;infill extrusion width = 0mm
;solid infill extrusion width = 0mm
;top infill extrusion width = 0mm
;support material extrusion width = 0mm
;
;
;- - - - SUPPORT - - - -
;
;raft layers = 0
;brim width = 0mm
;support material = 0
;support material threshold = 60% degrees
;support material enforced for first n layers = 0
;support material extruder = 1
;support material extrusion width = 0mm
;support material interface layers = 3
;support material interface spacing = 0mm
;support material pattern = pillars
;support material angle = 0 degrees
;support material spacing = 2.5mm
;support material speed = 60mm/s
;
;
;- - - - EVERYTHING ELSE - - - -
;
;complete objects = 0
;cooling enabled = 1
;default acceleration = 0mm/s/s
;disable fan for first layers = 3
;duplicate = [duplicate]
;duplicate distance = 6mm
;duplicate grid = [duplicate_grid]
;external perimeters first = 0
;extra perimeters = 1
;extruder clearance height = 20mm
;extruder clearance radius = 20mm
;extruder offset = 0,0mm
;fan always on = 0
;fan below layer time = 60secs
;fill angle = 45 degrees
;fill pattern = rectilinear
;gcode arcs = 0
;gcode comments = 0
;gcode flavor = sailfish
;infill acceleration = 0mm/s/s
;infill extruder = 1
;infill first = 0
;infill only where needed = 0
;minimum skirt length = 0mm
;only retract when crossing perimeters = 1
;perimeter acceleration = 0mm/s/s
;perimeter extruder = 1
;randomize start = [randomize_start]
;resolution = 0mm
;retract before travel = 2
;retract on layer change = 0
;retract length = 2mm
;retract length on tool change = 10mm
;retract lift = 0
;retract extra distance on restart = 0mm
;retract extra on tool change = 0mm
;retract speed = 40mm/s
;rotate = [rotate] degrees
;scale = 100%
;skirt distance = 6mm
;skirt height = 1mm
;solid fill pattern = [solid_fill_pattern]
;solid infill below area = 70mm (sq)
;solid infill every n layers = 0
;
;
;- - - - - - - - - - - - - - - - - - - - - - - - -
;
;
T0; set primary extruder
M73 P0; enable show build progress
;M109 S55 T0; heat bed up to first layer temperature
M140 S55 T0; heat bed up to first layer temperature
M104 S220 T0; set nozzle heater to first layer temperature
M103; disable RPM
G21; set units to mm
G162 X Y F6000; home XY axes maximum
G161 Z F9000; home Z axis minimum
G92 Z0; set Z to 0
M132 X Y Z A B; Recall stored home offsets
G90; set positioning to absolute
G1 Z30; move Z to waiting height
G1 X-95 Y-73 Z30 F14000; move to waiting position (front left corner of print bed)
G130 X0 Y0 A0 B0; set stepper motor vref to lower value while heating
M6 T0; wait for bed and extruder to heat up
G130 X127 Y127 A127 B127; set stepper motor vref to defaults
M108 T0 R3; set extruder speed
G92 E0; set E to 0
G90; use absolute coordinates
M320; acceleration enabled for all commands that follow
G1 Z0.4 F6000.000; move to first layer height
G1 X100 Y-73 F14000.000; move to front right corner of bed
G1 X-90 Y-73 E24 F2000.000; extrude a line of filament across the front edge of the bed
G4 P2000; wait for ooze to slow
G1 Z0 F6000.000; lower nozzle height to 0
G1 X-95; wipe nozzle
G1 Z0.4 F6000.000; set nozzle to first layer height
G1 F12000; ensure fast travel to first print move
G92 E0; set E to 0 again
M73 P0; reset build progress to 0
; Filament gcode

G21 ; set units to millimeters
G90 ; use absolute coordinates
M73 P0
G1 Z0.400 F7800.000
G1 E-2.00000 F2400.00000
G1 X39.895 Y7.490 F7800.000
G1 E0.00000 F2400.00000
G1 F1800
G1 X39.897 Y46.659 E4.65189
G1 X39.846 Y47.579 E4.76131
G1 X39.681 Y48.617 E4.88620
G1 X39.589 Y48.999 E4.93279
G1 X39.264 Y50.001 E5.05791
G1 X39.112 Y50.369 E5.10520
G1 X38.635 Y51.302 E5.22966
G1 X38.430 Y51.637 E5.27637
G1 X37.811 Y52.489 E5.40135
G1 X37.559 Y52.784 E5.44751
G1 X36.811 Y53.532 E5.57309
G1 X36.513 Y53.787 E5.61974
G1 X35.661 Y54.406 E5.74481
G1 X35.326 Y54.611 E5.79140
G1 X34.388 Y55.089 E5.91651
G1 X34.029 Y55.238 E5.96268
G1 X33.023 Y55.565 E6.08823
G1 X32.642 Y55.657 E6.13483
G1 X31.601 Y55.822 E6.25996
G1 X30.683 Y55.873 E6.36914
G1 X-32.317 Y55.873 E13.85135
G1 X-33.235 Y55.822 E13.96052
G1 X-34.275 Y55.657 E14.08566
G1 X-34.657 Y55.565 E14.13225
G1 X-35.659 Y55.240 E14.25738
G1 X-36.021 Y55.089 E14.30397
G1 X-36.960 Y54.611 E14.42909
G1 X-37.295 Y54.406 E14.47578
G1 X-38.147 Y53.787 E14.60081
G1 X-38.445 Y53.532 E14.64740
G1 X-39.190 Y52.787 E14.77253
G1 X-39.445 Y52.488 E14.81919
G1 X-40.064 Y51.636 E14.94426
G1 X-40.269 Y51.302 E14.99085
G1 X-40.747 Y50.363 E15.11597
G1 X-40.899 Y49.998 E15.16291
G1 X-41.223 Y48.999 E15.28769
G1 X-41.315 Y48.617 E15.33428
G1 X-41.479 Y47.577 E15.45940
G1 X-41.511 Y47.182 E15.50642
G1 X-42.895 Y-7.490 E22.00166
G1 X-42.897 Y-46.659 E26.65355
G1 X-42.877 Y-47.186 E26.71617
G1 X-42.846 Y-47.577 E26.76276
G1 X-42.681 Y-48.617 E26.88789
G1 X-42.589 Y-48.999 E26.93454
G1 X-42.264 Y-50.001 E27.05960
G1 X-42.114 Y-50.363 E27.10619
G1 X-41.635 Y-51.302 E27.23132
G1 X-41.430 Y-51.637 E27.27794
G1 X-40.811 Y-52.489 E27.40304
G1 X-40.556 Y-52.788 E27.44969
G1 X-39.811 Y-53.532 E27.57476
G1 X-39.513 Y-53.787 E27.62135
G1 X-38.661 Y-54.406 E27.74648
G1 X-38.326 Y-54.611 E27.79307
G1 X-37.388 Y-55.089 E27.91820
G1 X-37.025 Y-55.240 E27.96481
G1 X-36.023 Y-55.565 E28.08992
G1 X-35.642 Y-55.657 E28.13651
G1 X-34.601 Y-55.822 E28.26164
G1 X-33.683 Y-55.873 E28.37082
G1 X29.317 Y-55.873 E35.85303
G1 X30.235 Y-55.822 E35.96227
G1 X31.275 Y-55.657 E36.08734
G1 X31.657 Y-55.565 E36.13402
G1 X32.659 Y-55.240 E36.25906
G1 X33.021 Y-55.089 E36.30565
G1 X33.960 Y-54.611 E36.43077
G1 X34.294 Y-54.406 E36.47737
G1 X35.147 Y-53.787 E36.60248
G1 X35.446 Y-53.531 E36.64924
G1 X36.190 Y-52.787 E36.77422
G1 X36.445 Y-52.489 E36.82081
G1 X37.064 Y-51.637 E36.94591
G1 X37.270 Y-51.301 E36.99267
G1 X37.747 Y-50.363 E37.11766
G1 X37.893 Y-50.012 E37.16281
G1 X38.223 Y-48.999 E37.28937
G1 X38.315 Y-48.617 E37.33606
G1 X38.479 Y-47.577 E37.46107
G1 X38.510 Y-47.185 E37.50781
G1 X39.894 Y7.430 E43.99621
G1 E41.99621 F2400.00000
G1 X-16.597 Y24.757 F7800.000
G1 E43.99621 F2400.00000
G1 F1800
G1 X-16.122 Y26.090 E44.16424
G1 X-15.886 Y27.463 E44.32962
G1 X-15.886 Y28.855 E44.49500
G1 X-16.122 Y30.228 E44.66038
G1 X-16.586 Y31.541 E44.82576
G1 X-17.265 Y32.756 E44.99115
G1 X-18.140 Y33.840 E45.15653
G1 X-19.185 Y34.760 E45.32191
G1 X-20.371 Y35.490 E45.48729
G1 X-21.663 Y36.009 E45.65267
G1 X-23.024 Y36.302 E45.81804
G1 X-24.415 Y36.362 E45.98336
G1 X-25.796 Y36.185 E46.14881
G1 X-27.128 Y35.777 E46.31419
G1 X-28.371 Y35.150 E46.47957
G1 X-29.491 Y34.322 E46.64495
G1 X-30.454 Y33.317 E46.81033
G1 X-31.234 Y32.163 E46.97571
G1 X-31.808 Y30.894 E47.14109
G1 X-32.171 Y29.499 E47.31234
G1 X-32.276 Y28.152 E47.47270
G1 X-32.159 Y26.771 E47.63731
G1 X-31.808 Y25.424 E47.80269
G1 X-31.234 Y24.155 E47.96808
G1 X-30.454 Y23.001 E48.13346
G1 X-29.491 Y21.996 E48.29884
G1 X-28.371 Y21.168 E48.46422
G1 X-27.128 Y20.541 E48.62960
G1 X-25.796 Y20.133 E48.79498
G1 X-24.440 Y19.960 E48.95743
G1 X-23.027 Y20.015 E49.12534
G1 X-21.663 Y20.309 E49.29108
G1 X-20.371 Y20.828 E49.45647
G1 X-19.185 Y21.558 E49.62185
G1 X-18.140 Y22.478 E49.78723
G1 X-17.265 Y23.562 E49.95261
G1 X-16.626 Y24.705 E50.10817
G1 X-17.239 Y25.072 F7800.000
G1 F1800
G1 X-16.815 Y26.271 E50.25911
G1 X-16.601 Y27.523 E50.41006
G1 X-16.601 Y28.794 E50.56100
G1 X-16.815 Y30.047 E50.71194
G1 X-17.239 Y31.245 E50.86288
G1 X-17.859 Y32.355 E51.01383
G1 X-18.657 Y33.344 E51.16477
G1 X-19.611 Y34.183 E51.31571
G1 X-20.693 Y34.850 E51.46665
G1 X-21.873 Y35.324 E51.61760
G1 X-23.115 Y35.591 E51.76853
G1 X-24.384 Y35.645 E51.91942
G1 X-25.645 Y35.484 E52.07043
G1 X-26.861 Y35.112 E52.22137
G1 X-27.996 Y34.540 E52.37231
G1 X-29.017 Y33.784 E52.52325
G1 X-29.897 Y32.866 E52.67420
G1 X-30.608 Y31.813 E52.82514
G1 X-31.132 Y30.655 E52.97608
G1 X-31.464 Y29.380 E53.13259
G1 X-31.560 Y28.155 E53.27851
G1 X-31.452 Y26.893 E53.42899
G1 X-31.132 Y25.663 E53.57993
G1 X-30.608 Y24.505 E53.73087
G1 X-29.897 Y23.452 E53.88181
G1 X-29.017 Y22.534 E54.03276
G1 X-27.996 Y21.778 E54.18370
G1 X-26.861 Y21.206 E54.33464
G1 X-25.645 Y20.834 E54.48558
G1 X-24.408 Y20.675 E54.63374
G1 X-23.117 Y20.726 E54.78721
G1 X-21.873 Y20.994 E54.93838
G1 X-20.693 Y21.468 E55.08932
G1 X-19.611 Y22.134 E55.24026
G1 X-18.657 Y22.974 E55.39120
G1 X-17.859 Y23.963 E55.54215
G1 X-17.268 Y25.020 E55.68596
G1 X-17.892 Y25.368 F7800.000
G1 F1800
G1 X-17.509 Y26.451 E55.82247
G1 X-17.315 Y27.584 E55.95897
G1 X-17.315 Y28.734 E56.09548
G1 X-17.509 Y29.866 E56.23198
G1 X-17.892 Y30.950 E56.36849
G1 X-18.452 Y31.954 E56.50499
G1 X-19.175 Y32.848 E56.64150
G1 X-20.037 Y33.607 E56.77800
G1 X-21.016 Y34.210 E56.91450
G1 X-22.083 Y34.638 E57.05101
G1 X-23.206 Y34.880 E57.18751
G1 X-24.354 Y34.929 E57.32396
G1 X-25.494 Y34.783 E57.46052
G1 X-26.593 Y34.447 E57.59703
G1 X-27.620 Y33.929 E57.73353
G1 X-28.544 Y33.246 E57.87004
G1 X-29.339 Y32.416 E58.00654
G1 X-29.983 Y31.464 E58.14305
G1 X-30.456 Y30.416 E58.27955
G1 X-30.757 Y29.261 E58.42132
G1 X-30.843 Y28.158 E58.55280
G1 X-30.746 Y27.014 E58.68914
G1 X-30.456 Y25.901 E58.82565
G1 X-29.983 Y24.854 E58.96215
G1 X-29.339 Y23.902 E59.09866
G1 X-28.544 Y23.072 E59.23516
G1 X-27.620 Y22.389 E59.37167
G1 X-26.593 Y21.871 E59.50817
G1 X-25.494 Y21.535 E59.64467
G1 X-24.377 Y21.391 E59.77853
G1 X-23.207 Y21.437 E59.91757
G1 X-22.083 Y21.679 E60.05415
G1 X-21.016 Y22.108 E60.19066
G1 X-20.037 Y22.711 E60.32716
G1 X-19.175 Y23.470 E60.46367
G1 X-18.452 Y24.364 E60.60017
G1 X-17.921 Y25.315 E60.72955
G1 X-17.892 Y25.368 F7800.000
G1 E58.72955 F2400.00000
G1 X14.228 Y28.101 F7800.000
G1 E60.72955 F2400.00000
G1 F1800
G1 X14.341 Y26.771 E60.88808
G1 X14.677 Y25.483 E61.04616
G1 X15.262 Y24.161 E61.21787
G1 X16.046 Y23.001 E61.38413
G1 X17.009 Y21.996 E61.54951
G1 X18.129 Y21.168 E61.71489
G1 X19.372 Y20.541 E61.88028
G1 X20.704 Y20.133 E62.04566
G1 X22.060 Y19.960 E62.20811
G1 X23.473 Y20.015 E62.37602
G1 X24.837 Y20.309 E62.54176
G1 X26.129 Y20.828 E62.70714
G1 X27.315 Y21.558 E62.87252
G1 X28.360 Y22.478 E63.03790
G1 X29.235 Y23.562 E63.20328
G1 X29.914 Y24.777 E63.36867
G1 X30.378 Y26.090 E63.53405
G1 X30.614 Y27.463 E63.69943
G1 X30.614 Y28.855 E63.86481
G1 X30.382 Y30.203 E64.02726
G1 X29.916 Y31.538 E64.19517
G1 X29.235 Y32.756 E64.36091
G1 X28.360 Y33.840 E64.52629
G1 X27.315 Y34.760 E64.69167
G1 X26.129 Y35.490 E64.85706
G1 X24.837 Y36.009 E65.02244
G1 X23.476 Y36.302 E65.18782
G1 X22.085 Y36.361 E65.35320
G1 X20.704 Y36.185 E65.51858
G1 X19.372 Y35.777 E65.68396
G1 X18.129 Y35.150 E65.84934
G1 X17.009 Y34.322 E66.01472
G1 X16.046 Y33.317 E66.18010
G1 X15.266 Y32.163 E66.34548
G1 X14.692 Y30.894 E66.51086
G1 X14.341 Y29.546 E66.67624
G1 X14.223 Y28.161 E66.84135
G1 X14.940 Y28.159 F7800.000
G1 F1800
G1 X15.048 Y26.893 E66.99229
G1 X15.353 Y25.719 E67.13628
G1 X15.889 Y24.508 E67.29355
G1 X16.603 Y23.452 E67.44503
G1 X17.483 Y22.534 E67.59597
G1 X18.504 Y21.778 E67.74692
G1 X19.639 Y21.206 E67.89786
G1 X20.855 Y20.834 E68.04880
G1 X22.092 Y20.675 E68.19695
G1 X23.383 Y20.726 E68.35043
G1 X24.627 Y20.994 E68.50159
G1 X25.807 Y21.468 E68.65254
G1 X26.889 Y22.134 E68.80348
G1 X27.843 Y22.974 E68.95442
G1 X28.641 Y23.963 E69.10536
G1 X29.261 Y25.072 E69.25631
G1 X29.685 Y26.271 E69.40725
G1 X29.899 Y27.523 E69.55819
G1 X29.899 Y28.794 E69.70913
G1 X29.689 Y30.024 E69.85729
G1 X29.262 Y31.244 E70.01076
G1 X28.641 Y32.355 E70.16193
G1 X27.843 Y33.344 E70.31287
G1 X26.889 Y34.183 E70.46381
G1 X25.807 Y34.850 E70.61475
G1 X24.627 Y35.324 E70.76570
G1 X23.385 Y35.591 E70.91664
G1 X22.115 Y35.645 E71.06758
G1 X20.855 Y35.484 E71.21853
G1 X19.639 Y35.112 E71.36947
G1 X18.504 Y34.540 E71.52041
G1 X17.483 Y33.784 E71.67135
G1 X16.603 Y32.866 E71.82229
G1 X15.892 Y31.813 E71.97324
G1 X15.368 Y30.655 E72.12418
G1 X15.048 Y29.425 E72.27512
G1 X14.945 Y28.219 E72.41894
G1 X15.657 Y28.159 F7800.000
G1 F1800
G1 X15.754 Y27.014 E72.55544
G1 X16.030 Y25.955 E72.68534
G1 X16.516 Y24.855 E72.82817
G1 X17.161 Y23.902 E72.96487
G1 X17.956 Y23.072 E73.10138
G1 X18.880 Y22.389 E73.23788
G1 X19.907 Y21.871 E73.37438
G1 X21.006 Y21.535 E73.51089
G1 X22.123 Y21.391 E73.64475
G1 X23.293 Y21.437 E73.78378
G1 X24.417 Y21.679 E73.92037
G1 X25.484 Y22.108 E74.05687
G1 X26.463 Y22.711 E74.19338
G1 X27.325 Y23.470 E74.32988
G1 X28.048 Y24.364 E74.46638
G1 X28.608 Y25.368 E74.60289
G1 X28.991 Y26.451 E74.73939
G1 X29.185 Y27.584 E74.87590
G1 X29.185 Y28.734 E75.01240
G1 X28.995 Y29.844 E75.14626
G1 X28.608 Y30.950 E75.28530
G1 X28.048 Y31.954 E75.42188
G1 X27.325 Y32.848 E75.55839
G1 X26.463 Y33.607 E75.69489
G1 X25.484 Y34.210 E75.83140
G1 X24.417 Y34.638 E75.96790
G1 X23.294 Y34.880 E76.10440
G1 X22.146 Y34.929 E76.24091
G1 X21.006 Y34.783 E76.37741
G1 X19.907 Y34.447 E76.51392
G1 X18.880 Y33.929 E76.65042
G1 X17.956 Y33.246 E76.78693
G1 X17.161 Y32.416 E76.92343
G1 X16.517 Y31.464 E77.05994
G1 X16.044 Y30.416 E77.19644
G1 X15.754 Y29.304 E77.33295
G1 X15.662 Y28.219 E77.46232
G1 X15.657 Y28.159 F7800.000
G1 E75.46232 F2400.00000
G1 X31.074 Y47.198 F7800.000
G1 E77.46232 F2400.00000
G1 F1800
G1 X30.889 Y47.292 E77.48692
G1 X30.611 Y47.331 E77.52021
G1 X-32.245 Y47.331 E84.98535
G1 X-32.523 Y47.292 E85.01864
G1 X-32.708 Y47.198 E85.04339
G1 X-32.788 Y47.130 E85.05580
G1 X-32.910 Y46.961 E85.08054
G1 X-32.975 Y46.763 E85.10529
G1 X-32.988 Y46.587 E85.12626
G1 X-32.988 Y7.731 E89.74104
G1 X-32.950 Y7.453 E89.77433
G1 X-32.856 Y7.267 E89.79908
G1 X-32.708 Y7.120 E89.82383
G1 X-32.619 Y7.065 E89.83624
G1 X-32.421 Y7.001 E89.86099
G1 X-32.245 Y6.987 E89.88196
G1 X30.611 Y6.987 E97.34710
G1 X30.890 Y7.026 E97.38053
G1 X31.075 Y7.120 E97.40513
G1 X31.154 Y7.188 E97.41754
G1 X31.277 Y7.357 E97.44229
G1 X31.341 Y7.555 E97.46704
G1 X31.355 Y7.731 E97.48801
G1 X31.355 Y46.587 E102.10279
G1 X31.317 Y46.865 E102.13608
G1 X31.222 Y47.050 E102.16082
G1 X31.119 Y47.159 E102.17862
G1 X31.447 Y47.807 F7800.000
G1 F1800
G1 X31.311 Y47.891 E102.19756
G1 X31.110 Y47.974 E102.22332
G1 X30.899 Y48.024 E102.24908
G1 X30.639 Y48.045 E102.28006
G1 X-32.273 Y48.045 E109.75187
G1 X-32.533 Y48.024 E109.78285
G1 X-32.744 Y47.974 E109.80861
G1 X-32.944 Y47.891 E109.83437
G1 X-33.129 Y47.777 E109.86014
G1 X-33.294 Y47.636 E109.88590
G1 X-33.435 Y47.471 E109.91166
G1 X-33.549 Y47.287 E109.93742
G1 X-33.632 Y47.086 E109.96319
G1 X-33.682 Y46.875 E109.98895
G1 X-33.703 Y46.615 E110.01993
G1 X-33.703 Y7.703 E114.64137
G1 X-33.682 Y7.443 E114.67235
G1 X-33.632 Y7.232 E114.69811
G1 X-33.549 Y7.031 E114.72388
G1 X-33.435 Y6.846 E114.74964
G1 X-33.294 Y6.681 E114.77540
G1 X-33.129 Y6.541 E114.80116
G1 X-32.944 Y6.427 E114.82693
G1 X-32.744 Y6.344 E114.85269
G1 X-32.533 Y6.294 E114.87845
