; generated by Slic3r 1.3.0 on 2024-04-09 at 11:50:12

; external perimeters extrusion width = 0.44mm (3.38mm^3/s)
; perimeters extrusion width = 0.48mm (7.54mm^3/s)
; infill extrusion width = 0.48mm (10.05mm^3/s)
; solid infill extrusion width = 0.48mm (2.51mm^3/s)
; top infill extrusion width = 0.48mm (1.88mm^3/s)

M127
;
;
;- - - - SUMMARY - - - -
;
;first layer temperature = 217C
;temperature = 217C
;first layer bed temperature = 62C
;bed temperature = 62C
;
;first layer height = 0.4mm
;layer height = 0.3mm
;z_offset = 0mm
;perimeters = 3
;fill density = 30%
;infill every n layers = 1
;skirts = 1
;brim width = 0mm
;raft layers = 0
;support material = 0
;support material threshold = 60% degrees
;support material enforced for first n layers = 0
;support material extruder = 1
;
;first layer speed = 30
;perimeter speed = 60mm/s
;small perimeter speed = 15
;external perimeter speed = 50%
;infill speed = 80mm/s
;solid infill speed = 20
;top solid infill speed = 15
;support material speed = 60mm/s
;gap fill speed = 20mm/s
;travel speed = 130mm/s
;bridge speed = 60mm/s
;bridge flow ratio = 1
;slowdown if layer time is less than = 5secs
;minimum print speed = 10mm/s
;
;bottom solid layers = 3
;top solid layers = 3
;
;
;- - - - EXTRUSION - - - -
;
;filament diameter = 1.75mm
;nozzle diameter = 0.4mm
;bridge flow ratio = 1
;extrusion axis = E
;extrusion multiplier = 1
;extrusion width = 0mm
;first layer extrusion width = 200%mm
;perimeter extrusion width = 0mm
;infill extrusion width = 0mm
;solid infill extrusion width = 0mm
;top infill extrusion width = 0mm
;support material extrusion width = 0mm
;
;
;- - - - SUPPORT - - - -
;
;raft layers = 0
;brim width = 0mm
;support material = 0
;support material threshold = 60% degrees
;support material enforced for first n layers = 0
;support material extruder = 1
;support material extrusion width = 0mm
;support material interface layers = 3
;support material interface spacing = 0mm
;support material pattern = pillars
;support material angle = 0 degrees
;support material spacing = 2.5mm
;support material speed = 60mm/s
;
;
;- - - - EVERYTHING ELSE - - - -
;
;complete objects = 0
;cooling enabled = 1
;default acceleration = 0mm/s/s
;disable fan for first layers = 3
;duplicate = [duplicate]
;duplicate distance = 6mm
;duplicate grid = [duplicate_grid]
;external perimeters first = 0
;extra perimeters = 1
;extruder clearance height = 20mm
;extruder clearance radius = 20mm
;extruder offset = 0,0mm
;fan always on = 0
;fan below layer time = 60secs
;fill angle = 45 degrees
;fill pattern = honeycomb
;gcode arcs = 0
;gcode comments = 0
;gcode flavor = sailfish
;infill acceleration = 0mm/s/s
;infill extruder = 1
;infill first = 0
;infill only where needed = 0
;minimum skirt length = 0mm
;only retract when crossing perimeters = 1
;perimeter acceleration = 0mm/s/s
;perimeter extruder = 1
;randomize start = [randomize_start]
;resolution = 0mm
;retract before travel = 2
;retract on layer change = 0
;retract length = 2mm
;retract length on tool change = 10mm
;retract lift = 0
;retract extra distance on restart = 0mm
;retract extra on tool change = 0mm
;retract speed = 40mm/s
;rotate = [rotate] degrees
;scale = 100%
;skirt distance = 6mm
;skirt height = 1mm
;solid fill pattern = [solid_fill_pattern]
;solid infill below area = 70mm (sq)
;solid infill every n layers = 0
;
;
;- - - - - - - - - - - - - - - - - - - - - - - - -
;
;
T0; set primary extruder
M73 P0; enable show build progress
;M109 S62 T0; heat bed up to first layer temperature
M140 S62 T0; heat bed up to first layer temperature
M104 S217 T0; set nozzle heater to first layer temperature
M103; disable RPM
G21; set units to mm
G162 X Y F6000; home XY axes maximum
G161 Z F9000; home Z axis minimum
G92 Z0; set Z to 0
M132 X Y Z A B; Recall stored home offsets
G90; set positioning to absolute
G1 Z30; move Z to waiting height
G1 X-95 Y-73 Z30 F14000; move to waiting position (front left corner of print bed)
G130 X0 Y0 A0 B0; set stepper motor vref to lower value while heating
M6 T0; wait for bed and extruder to heat up
G130 X127 Y127 A127 B127; set stepper motor vref to defaults
M108 T0 R3; set extruder speed
G92 E0; set E to 0
G90; use absolute coordinates
M320; acceleration enabled for all commands that follow
G1 Z0.4 F6000.000; move to first layer height
G1 X100 Y-73 F14000.000; move to front right corner of bed
G1 X-90 Y-73 E24 F2000.000; extrude a line of filament across the front edge of the bed
G4 P2000; wait for ooze to slow
G1 Z0 F6000.000; lower nozzle height to 0
G1 X-95; wipe nozzle
G1 Z0.4 F6000.000; set nozzle to first layer height
G1 F12000; ensure fast travel to first print move
G92 E0; set E to 0 again
M73 P0; reset build progress to 0
; Filament gcode

G21 ; set units to millimeters
G90 ; use absolute coordinates
M73 P0
G1 Z0.400 F7800.000
G1 E-2.00000 F2400.00000
G1 X28.500 Y25.714 F7800.000
G1 E0.00000 F2400.00000
G1 F1800
G1 X-28.500 Y25.714 E6.76961
G1 X-29.418 Y25.663 E6.87880
G1 X-30.458 Y25.498 E7.00393
G1 X-30.840 Y25.406 E7.05052
G1 X-31.842 Y25.081 E7.17564
G1 X-32.207 Y24.930 E7.22252
G1 X-33.143 Y24.452 E7.34736
G1 X-33.478 Y24.247 E7.39395
G1 X-34.330 Y23.628 E7.51909
G1 X-34.629 Y23.372 E7.56585
G1 X-35.373 Y22.628 E7.69079
G1 X-35.630 Y22.327 E7.73779
G1 X-36.247 Y21.478 E7.86252
G1 X-36.452 Y21.143 E7.90911
G1 X-36.931 Y20.204 E8.03425
G1 X-37.081 Y19.842 E8.08084
G1 X-37.406 Y18.840 E8.20596
G1 X-37.498 Y18.458 E8.25255
G1 X-37.663 Y17.418 E8.37768
G1 X-37.714 Y16.500 E8.48686
G1 X-37.714 Y-16.500 E12.40611
G1 X-37.693 Y-17.027 E12.46872
G1 X-37.663 Y-17.418 E12.51531
G1 X-37.498 Y-18.458 E12.64044
G1 X-37.406 Y-18.840 E12.68703
G1 X-37.081 Y-19.842 E12.81217
G1 X-36.930 Y-20.205 E12.85880
G1 X-36.452 Y-21.143 E12.98388
G1 X-36.246 Y-21.479 E13.03067
G1 X-35.628 Y-22.330 E13.15560
G1 X-35.373 Y-22.629 E13.20231
G1 X-34.628 Y-23.373 E13.32732
G1 X-34.330 Y-23.628 E13.37396
G1 X-33.478 Y-24.247 E13.49904
G1 X-33.143 Y-24.452 E13.54563
G1 X-32.204 Y-24.931 E13.67076
G1 X-31.842 Y-25.081 E13.71735
G1 X-30.840 Y-25.406 E13.84248
G1 X-30.458 Y-25.498 E13.88917
G1 X-29.418 Y-25.663 E14.01420
G1 X-28.500 Y-25.714 E14.12338
G1 X28.500 Y-25.714 E20.89299
G1 X29.418 Y-25.663 E21.00218
G1 X30.458 Y-25.498 E21.12731
G1 X30.840 Y-25.406 E21.17390
G1 X31.842 Y-25.081 E21.29902
G1 X32.204 Y-24.931 E21.34561
G1 X33.143 Y-24.452 E21.47074
G1 X33.479 Y-24.246 E21.51753
G1 X34.330 Y-23.628 E21.64246
G1 X34.628 Y-23.373 E21.68905
G1 X35.373 Y-22.628 E21.81418
G1 X35.628 Y-22.330 E21.86077
G1 X36.247 Y-21.478 E21.98590
G1 X36.453 Y-21.143 E22.03257
G1 X36.931 Y-20.204 E22.15761
G1 X37.081 Y-19.842 E22.20421
G1 X37.406 Y-18.840 E22.32934
G1 X37.498 Y-18.458 E22.37603
G1 X37.663 Y-17.418 E22.50105
G1 X37.714 Y-16.500 E22.61024
G1 X37.714 Y16.500 E26.52949
G1 X37.663 Y17.418 E26.63868
G1 X37.498 Y18.458 E26.76380
G1 X37.406 Y18.840 E26.81039
G1 X37.081 Y19.842 E26.93552
G1 X36.930 Y20.207 E26.98240
G1 X36.452 Y21.143 E27.10724
G1 X36.247 Y21.478 E27.15383
G1 X35.628 Y22.330 E27.27897
G1 X35.373 Y22.628 E27.32556
G1 X34.628 Y23.373 E27.45067
G1 X34.329 Y23.629 E27.49746
G1 X33.478 Y24.247 E27.62240
G1 X33.142 Y24.453 E27.66910
G1 X32.204 Y24.931 E27.79412
G1 X31.842 Y25.081 E27.84071
G1 X30.840 Y25.406 E27.96583
G1 X30.459 Y25.498 E28.01242
G1 X29.418 Y25.663 E28.13755
G1 X28.560 Y25.712 E28.23961
G1 E26.23961 F2400.00000
G1 X16.484 Y1.771 F7800.000
G1 E28.23961 F2400.00000
G1 F1800
G1 X16.321 Y1.145 E28.31642
G1 X16.224 Y-0.000 E28.45293
G1 X16.321 Y-1.145 E28.58943
G1 X16.611 Y-2.258 E28.72594
G1 X17.084 Y-3.305 E28.86244
G1 X17.728 Y-4.257 E28.99895
G1 X18.523 Y-5.087 E29.13545
G1 X19.447 Y-5.770 E29.27196
G1 X20.473 Y-6.288 E29.40846
G1 X21.572 Y-6.624 E29.54493
G1 X22.689 Y-6.769 E29.67866
G1 X23.860 Y-6.722 E29.81791
G1 X24.984 Y-6.479 E29.95447
G1 X26.051 Y-6.051 E30.09098
G1 X27.030 Y-5.448 E30.22748
G1 X27.892 Y-4.689 E30.36398
G1 X28.614 Y-3.795 E30.50049
G1 X29.175 Y-2.791 E30.63699
G1 X29.558 Y-1.708 E30.77350
G1 X29.752 Y-0.575 E30.91000
G1 X29.752 Y0.575 E31.04651
G1 X29.558 Y1.707 E31.18300
G1 X29.179 Y2.780 E31.31813
G1 X28.615 Y3.794 E31.45598
G1 X27.892 Y4.689 E31.59252
G1 X27.030 Y5.448 E31.72902
G1 X26.051 Y6.051 E31.86553
G1 X24.984 Y6.479 E32.00203
G1 X23.861 Y6.722 E32.13854
G1 X22.712 Y6.770 E32.27504
G1 X21.572 Y6.624 E32.41154
G1 X20.473 Y6.288 E32.54805
G1 X19.447 Y5.770 E32.68455
G1 X18.523 Y5.087 E32.82106
G1 X17.728 Y4.257 E32.95756
G1 X17.084 Y3.305 E33.09407
G1 X16.611 Y2.258 E33.23057
G1 X16.499 Y1.829 E33.28314
G1 X16.094 Y1.680 F7800.000
G1 E31.28314 F2400.00000
G1 X29.172 Y5.466 F7800.000
G1 E33.28314 F2400.00000
G1 F1800
G1 X29.172 Y16.428 E34.58511
G1 X29.133 Y16.706 E34.61840
G1 X29.039 Y16.891 E34.64315
G1 X28.891 Y17.039 E34.66790
G1 X28.706 Y17.133 E34.69264
G1 X28.604 Y17.158 E34.70506
G1 X28.428 Y17.172 E34.72603
G1 X-28.428 Y17.172 E41.47858
G1 X-28.706 Y17.133 E41.51186
G1 X-28.891 Y17.039 E41.53661
G1 X-29.039 Y16.891 E41.56136
G1 X-29.133 Y16.706 E41.58611
G1 X-29.172 Y16.428 E41.61940
G1 X-29.172 Y5.383 E42.93118
G1 X-28.424 Y6.163 E43.05950
G1 X-27.305 Y6.991 E43.22488
G1 X-26.061 Y7.618 E43.39026
G1 X-24.721 Y8.028 E43.55670
G1 X-23.261 Y8.201 E43.73135
G1 X-21.956 Y8.143 E43.88652
G1 X-20.596 Y7.850 E44.05170
G1 X-19.304 Y7.331 E44.21708
G1 X-18.118 Y6.601 E44.38246
G1 X-17.073 Y5.681 E44.54784
G1 X-16.198 Y4.597 E44.71322
G1 X-15.519 Y3.382 E44.87860
G1 X-15.055 Y2.069 E45.04398
G1 X-14.820 Y0.696 E45.20936
G1 X-14.820 Y-0.696 E45.37474
G1 X-15.055 Y-2.069 E45.54012
G1 X-15.519 Y-3.382 E45.70550
G1 X-16.198 Y-4.597 E45.87089
G1 X-17.073 Y-5.681 E46.03627
G1 X-18.118 Y-6.601 E46.20165
G1 X-19.304 Y-7.331 E46.36703
G1 X-20.596 Y-7.850 E46.53241
G1 X-21.952 Y-8.142 E46.69721
G1 X-23.311 Y-8.207 E46.85877
G1 X-24.730 Y-8.026 E47.02861
G1 X-26.061 Y-7.618 E47.19399
G1 X-27.305 Y-6.991 E47.35937
G1 X-28.427 Y-6.161 E47.52515
G1 X-29.172 Y-5.378 E47.65349
G1 X-29.172 Y-16.428 E48.96587
G1 X-29.133 Y-16.706 E48.99915
G1 X-29.039 Y-16.891 E49.02390
G1 X-28.891 Y-17.039 E49.04865
G1 X-28.706 Y-17.133 E49.07340
G1 X-28.428 Y-17.172 E49.10668
G1 X28.428 Y-17.172 E55.85924
G1 X28.707 Y-17.133 E55.89265
G1 X28.891 Y-17.039 E55.91727
G1 X29.039 Y-16.891 E55.94201
G1 X29.133 Y-16.706 E55.96676
G1 X29.172 Y-16.428 E56.00005
G1 X29.172 Y-5.466 E57.30202
G1 X27.882 Y-6.601 E57.50608
G1 X26.696 Y-7.331 E57.67146
G1 X25.404 Y-7.850 E57.83684
G1 X24.041 Y-8.144 E58.00245
G1 X22.625 Y-8.201 E58.17071
G1 X21.269 Y-8.025 E58.33313
G1 X19.939 Y-7.618 E58.49836
G1 X18.695 Y-6.991 E58.66374
G1 X17.576 Y-6.163 E58.82912
G1 X16.612 Y-5.158 E58.99450
G1 X15.833 Y-4.004 E59.15988
G1 X15.259 Y-2.735 E59.32526
G1 X14.908 Y-1.387 E59.49064
G1 X14.790 Y-0.000 E59.65602
G1 X14.908 Y1.387 E59.82140
G1 X15.259 Y2.735 E59.98678
G1 X15.833 Y4.004 E60.15216
G1 X16.612 Y5.158 E60.31754
G1 X17.576 Y6.163 E60.48292
G1 X18.695 Y6.991 E60.64830
G1 X19.939 Y7.618 E60.81368
G1 X21.270 Y8.026 E60.97906
G1 X22.652 Y8.203 E61.14445
G1 X24.043 Y8.143 E61.30983
G1 X25.404 Y7.850 E61.47521
G1 X26.696 Y7.331 E61.64059
G1 X27.882 Y6.601 E61.80597
G1 X29.127 Y5.505 E62.00290
G1 X29.565 Y3.555 F7800.000
G1 F1800
G1 X29.886 Y3.639 E62.04226
G1 X29.886 Y16.456 E63.56453
G1 X29.865 Y16.716 E63.59551
G1 X29.815 Y16.927 E63.62127
G1 X29.732 Y17.128 E63.64703
G1 X29.618 Y17.313 E63.67280
G1 X29.477 Y17.477 E63.69856
G1 X29.313 Y17.618 E63.72432
G1 X29.128 Y17.732 E63.75008
G1 X28.927 Y17.815 E63.77585
G1 X28.716 Y17.865 E63.80161
G1 X28.456 Y17.886 E63.83259
G1 X-28.456 Y17.886 E70.59181
G1 X-28.716 Y17.865 E70.62278
G1 X-28.927 Y17.815 E70.64855
G1 X-29.128 Y17.732 E70.67431
G1 X-29.313 Y17.618 E70.70007
G1 X-29.478 Y17.477 E70.72584
G1 X-29.618 Y17.313 E70.75160
G1 X-29.732 Y17.128 E70.77736
G1 X-29.815 Y16.927 E70.80312
G1 X-29.865 Y16.716 E70.82889
G1 X-29.886 Y16.456 E70.85987
G1 X-29.886 Y3.686 E72.37649
G1 X-29.583 Y3.593 E72.41413
G1 X-28.830 Y4.707 E72.57380
G1 X-27.951 Y5.625 E72.72474
G1 X-26.929 Y6.381 E72.87569
G1 X-25.794 Y6.953 E73.02663
G1 X-24.573 Y7.327 E73.17821
G1 X-23.235 Y7.485 E73.33834
G1 X-22.047 Y7.432 E73.47949
G1 X-20.806 Y7.165 E73.63031
G1 X-19.627 Y6.691 E73.78125
G1 X-18.544 Y6.024 E73.93220
G1 X-17.590 Y5.185 E74.08314
G1 X-16.792 Y4.196 E74.23408
G1 X-16.172 Y3.086 E74.38503
G1 X-15.749 Y1.888 E74.53597
G1 X-15.534 Y0.635 E74.68691
G1 X-15.534 Y-0.635 E74.83785
G1 X-15.749 Y-1.888 E74.98880
G1 X-16.172 Y-3.086 E75.13974
G1 X-16.792 Y-4.196 E75.29068
G1 X-17.590 Y-5.185 E75.44162
G1 X-18.544 Y-6.025 E75.59257
G1 X-19.627 Y-6.691 E75.74351
G1 X-20.806 Y-7.165 E75.89445
G1 X-22.045 Y-7.432 E76.04504
G1 X-23.283 Y-7.491 E76.19216
G1 X-24.579 Y-7.325 E76.34734
G1 X-25.794 Y-6.953 E76.49828
G1 X-26.929 Y-6.381 E76.64922
G1 X-27.952 Y-5.624 E76.80041
G1 X-28.845 Y-4.686 E76.95417
G1 X-29.583 Y-3.593 E77.11074
G1 X-29.886 Y-3.686 E77.14838
G1 X-29.886 Y-16.456 E78.66500
G1 X-29.865 Y-16.716 E78.69598
G1 X-29.815 Y-16.927 E78.72174
G1 X-29.732 Y-17.128 E78.74751
G1 X-29.618 Y-17.313 E78.77327
G1 X-29.478 Y-17.478 E78.79903
G1 X-29.313 Y-17.618 E78.82479
G1 X-29.128 Y-17.732 E78.85056
G1 X-28.927 Y-17.815 E78.87632
G1 X-28.716 Y-17.865 E78.90208
G1 X-28.456 Y-17.886 E78.93306
G1 X28.456 Y-17.886 E85.69228
G1 X28.714 Y-17.866 E85.72298
G1 X28.928 Y-17.814 E85.74909
G1 X29.128 Y-17.732 E85.77478
G1 X29.313 Y-17.618 E85.80054
G1 X29.478 Y-17.478 E85.82630
G1 X29.618 Y-17.313 E85.85207
G1 X29.732 Y-17.128 E85.87783
G1 X29.815 Y-16.927 E85.90359
G1 X29.865 Y-16.716 E85.92936
G1 X29.886 Y-16.456 E85.96033
G1 X29.886 Y-3.640 E87.48244
G1 X29.565 Y-3.557 E87.52177
G1 X29.208 Y-4.196 E87.60875
G1 X28.410 Y-5.185 E87.75969
G1 X27.456 Y-6.025 E87.91063
G1 X26.373 Y-6.691 E88.06158
G1 X25.194 Y-7.165 E88.21252
G1 X23.951 Y-7.433 E88.36360
G1 X22.657 Y-7.485 E88.51736
G1 X21.421 Y-7.325 E88.66544
G1 X20.206 Y-6.953 E88.81628
G1 X19.071 Y-6.381 E88.96722
G1 X18.049 Y-5.625 E89.11817
G1 X17.170 Y-4.707 E89.26911
G1 X16.458 Y-3.654 E89.42005
G1 X15.935 Y-2.496 E89.57099
G1 X15.615 Y-1.266 E89.72194
G1 X15.507 Y-0.000 E89.87288
G1 X15.615 Y1.266 E90.02382
G1 X15.935 Y2.496 E90.17476
G1 X16.458 Y3.654 E90.32571
G1 X17.170 Y4.707 E90.47665
G1 X18.049 Y5.625 E90.62759
G1 X19.071 Y6.381 E90.77854
G1 X20.206 Y6.953 E90.92948
G1 X21.421 Y7.325 E91.08042
G1 X22.682 Y7.486 E91.23136
G1 X23.952 Y7.432 E91.38231
G1 X25.194 Y7.165 E91.53325
G1 X26.373 Y6.691 E91.68419
G1 X27.456 Y6.024 E91.83513
G1 X28.410 Y5.185 E91.98608
G1 X29.209 Y4.195 E92.13710
G1 X29.536 Y3.608 E92.21698
G1 E90.21698 F2400.00000
G1 X-16.248 Y0.575 F7800.000
G1 E92.21698 F2400.00000
G1 F1800
G1 X-16.442 Y1.708 E92.35348
G1 X-16.825 Y2.791 E92.48999
G1 X-17.386 Y3.795 E92.62649
G1 X-18.108 Y4.689 E92.76300
G1 X-18.971 Y5.448 E92.89950
G1 X-19.949 Y6.051 E93.03600
G1 X-21.016 Y6.479 E93.17251
G1 X-22.139 Y6.721 E93.30897
G1 X-23.208 Y6.769 E93.43609
G1 X-24.426 Y6.625 E93.58170
G1 X-25.527 Y6.288 E93.71844
G1 X-26.553 Y5.770 E93.85494
G1 X-27.477 Y5.087 E93.99145
G1 X-28.272 Y4.257 E94.12795
G1 X-28.902 Y3.325 E94.26152
G1 X-29.389 Y2.259 E94.40079
G1 X-29.679 Y1.145 E94.53743
G1 X-29.776 Y0.000 E94.67393
G1 X-29.679 Y-1.145 E94.81044
G1 X-29.389 Y-2.258 E94.94694
G1 X-28.916 Y-3.305 E95.08345
G1 X-28.286 Y-4.237 E95.21701
G1 X-27.478 Y-5.086 E95.35633
G1 X-26.553 Y-5.770 E95.49292
G1 X-25.527 Y-6.288 E95.62943
G1 X-24.428 Y-6.624 E95.76593
G1 X-23.254 Y-6.775 E95.90644
G1 X-22.138 Y-6.721 E96.03912
G1 X-21.016 Y-6.479 E96.17550
G1 X-19.949 Y-6.051 E96.31201
G1 X-18.971 Y-5.448 E96.44851
G1 X-18.108 Y-4.689 E96.58502
G1 X-17.386 Y-3.795 E96.72152
G1 X-16.825 Y-2.791 E96.85802
G1 X-16.442 Y-1.708 E96.99453
G1 X-16.248 Y-0.575 E97.13103
G1 X-16.248 Y0.515 E97.26041
G1 X-16.248 Y0.575 F7800.000
G1 E95.26041 F2400.00000
G1 X-30.600 Y0.575 F7800.000
G1 E97.26041 F2400.00000
G1 F1800
G1 X-30.600 Y-16.484 E99.28642
G1 X-30.573 Y-16.828 E99.32741
G1 X-30.496 Y-17.149 E99.36652
G1 X-30.370 Y-17.453 E99.40564
G1 X-30.198 Y-17.734 E99.44475
G1 X-29.984 Y-17.984 E99.48386
G1 X-29.734 Y-18.198 E99.52298
G1 X-29.453 Y-18.370 E99.56209
G1 X-29.149 Y-18.496 E99.60120
