; generated by Slic3r 1.3.0 on 2024-04-18 at 09:52:19

; external perimeters extrusion width = 0.44mm (3.38mm^3/s)
; perimeters extrusion width = 0.48mm (7.54mm^3/s)
; infill extrusion width = 0.48mm (10.05mm^3/s)
; solid infill extrusion width = 0.48mm (2.51mm^3/s)
; top infill extrusion width = 0.48mm (1.88mm^3/s)

M127
;
;
;- - - - SUMMARY - - - -
;
;first layer temperature = 218C
;temperature = 218C
;first layer bed temperature = 63C
;bed temperature = 63C
;
;first layer height = 0.4mm
;layer height = 0.3mm
;z_offset = 0mm
;perimeters = 3
;fill density = 15%
;infill every n layers = 1
;skirts = 1
;brim width = 0mm
;raft layers = 0
;support material = 0
;support material threshold = 60% degrees
;support material enforced for first n layers = 0
;support material extruder = 1
;
;first layer speed = 30
;perimeter speed = 60mm/s
;small perimeter speed = 15
;external perimeter speed = 50%
;infill speed = 80mm/s
;solid infill speed = 20
;top solid infill speed = 15
;support material speed = 60mm/s
;gap fill speed = 20mm/s
;travel speed = 130mm/s
;bridge speed = 60mm/s
;bridge flow ratio = 1
;slowdown if layer time is less than = 5secs
;minimum print speed = 10mm/s
;
;bottom solid layers = 3
;top solid layers = 3
;
;
;- - - - EXTRUSION - - - -
;
;filament diameter = 1.75mm
;nozzle diameter = 0.4mm
;bridge flow ratio = 1
;extrusion axis = E
;extrusion multiplier = 1
;extrusion width = 0mm
;first layer extrusion width = 200%mm
;perimeter extrusion width = 0mm
;infill extrusion width = 0mm
;solid infill extrusion width = 0mm
;top infill extrusion width = 0mm
;support material extrusion width = 0mm
;
;
;- - - - SUPPORT - - - -
;
;raft layers = 0
;brim width = 0mm
;support material = 0
;support material threshold = 60% degrees
;support material enforced for first n layers = 0
;support material extruder = 1
;support material extrusion width = 0mm
;support material interface layers = 3
;support material interface spacing = 0mm
;support material pattern = pillars
;support material angle = 0 degrees
;support material spacing = 2.5mm
;support material speed = 60mm/s
;
;
;- - - - EVERYTHING ELSE - - - -
;
;complete objects = 0
;cooling enabled = 1
;default acceleration = 0mm/s/s
;disable fan for first layers = 3
;duplicate = [duplicate]
;duplicate distance = 6mm
;duplicate grid = [duplicate_grid]
;external perimeters first = 0
;extra perimeters = 1
;extruder clearance height = 20mm
;extruder clearance radius = 20mm
;extruder offset = 0,0mm
;fan always on = 0
;fan below layer time = 60secs
;fill angle = 45 degrees
;fill pattern = rectilinear
;gcode arcs = 0
;gcode comments = 0
;gcode flavor = sailfish
;infill acceleration = 0mm/s/s
;infill extruder = 1
;infill first = 0
;infill only where needed = 0
;minimum skirt length = 0mm
;only retract when crossing perimeters = 1
;perimeter acceleration = 0mm/s/s
;perimeter extruder = 1
;randomize start = [randomize_start]
;resolution = 0mm
;retract before travel = 2
;retract on layer change = 0
;retract length = 2mm
;retract length on tool change = 10mm
;retract lift = 0
;retract extra distance on restart = 0mm
;retract extra on tool change = 0mm
;retract speed = 40mm/s
;rotate = [rotate] degrees
;scale = 100%
;skirt distance = 6mm
;skirt height = 1mm
;solid fill pattern = [solid_fill_pattern]
;solid infill below area = 70mm (sq)
;solid infill every n layers = 0
;
;
;- - - - - - - - - - - - - - - - - - - - - - - - -
;
;
T0; set primary extruder
M73 P0; enable show build progress
;M109 S63 T0; heat bed up to first layer temperature
M140 S63 T0; heat bed up to first layer temperature
M104 S218 T0; set nozzle heater to first layer temperature
M103; disable RPM
G21; set units to mm
G162 X Y F6000; home XY axes maximum
G161 Z F9000; home Z axis minimum
G92 Z0; set Z to 0
M132 X Y Z A B; Recall stored home offsets
G90; set positioning to absolute
G1 Z30; move Z to waiting height
G1 X-95 Y-73 Z30 F14000; move to waiting position (front left corner of print bed)
G130 X0 Y0 A0 B0; set stepper motor vref to lower value while heating
M6 T0; wait for bed and extruder to heat up
G130 X127 Y127 A127 B127; set stepper motor vref to defaults
M108 T0 R3; set extruder speed
G92 E0; set E to 0
G90; use absolute coordinates
M320; acceleration enabled for all commands that follow
G1 Z0.4 F6000.000; move to first layer height
G1 X100 Y-73 F14000.000; move to front right corner of bed
G1 X-90 Y-73 E24 F2000.000; extrude a line of filament across the front edge of the bed
G4 P2000; wait for ooze to slow
G1 Z0 F6000.000; lower nozzle height to 0
G1 X-95; wipe nozzle
G1 Z0.4 F6000.000; set nozzle to first layer height
G1 F12000; ensure fast travel to first print move
G92 E0; set E to 0 again
M73 P0; reset build progress to 0
; Filament gcode

G21 ; set units to millimeters
G90 ; use absolute coordinates
M73 P0
G1 Z0.400 F7800.000
G1 E-2.00000 F2400.00000
G1 X31.500 Y-28.714 F7800.000
G1 E0.00000 F2400.00000
G1 F1800
G1 X32.418 Y-28.663 E0.10924
G1 X33.458 Y-28.498 E0.23431
G1 X33.840 Y-28.406 E0.28096
G1 X34.842 Y-28.081 E0.40603
G1 X35.204 Y-27.931 E0.45264
G1 X36.143 Y-27.452 E0.57775
G1 X36.466 Y-27.254 E0.62278
G1 X37.330 Y-26.628 E0.74946
G1 X37.628 Y-26.373 E0.79605
G1 X38.373 Y-25.628 E0.92119
G1 X38.628 Y-25.330 E0.96778
G1 X39.247 Y-24.478 E1.09288
G1 X39.452 Y-24.143 E1.13952
G1 X39.931 Y-23.204 E1.26462
G1 X40.082 Y-22.840 E1.31147
G1 X40.406 Y-21.840 E1.43635
G1 X40.498 Y-21.458 E1.48294
G1 X40.663 Y-20.418 E1.60804
G1 X40.714 Y-19.500 E1.71724
G1 X40.714 Y19.500 E6.34908
G1 X40.693 Y20.027 E6.41170
G1 X40.663 Y20.418 E6.45830
G1 X40.498 Y21.458 E6.58340
G1 X40.409 Y21.827 E6.62844
G1 X40.081 Y22.842 E6.75511
G1 X39.930 Y23.206 E6.80196
G1 X39.452 Y24.143 E6.92686
G1 X39.247 Y24.478 E6.97346
G1 X38.628 Y25.330 E7.09855
G1 X38.373 Y25.629 E7.14526
G1 X37.628 Y26.373 E7.27029
G1 X37.330 Y26.628 E7.31693
G1 X36.478 Y27.247 E7.44201
G1 X36.143 Y27.452 E7.48860
G1 X35.204 Y27.931 E7.61372
G1 X34.842 Y28.081 E7.66031
G1 X33.840 Y28.406 E7.78544
G1 X33.458 Y28.498 E7.83204
G1 X32.418 Y28.663 E7.95716
G1 X31.500 Y28.714 E8.06634
G1 X-31.500 Y28.714 E15.54855
G1 X-32.418 Y28.663 E15.65773
G1 X-33.458 Y28.498 E15.78286
G1 X-33.840 Y28.406 E15.82945
G1 X-34.842 Y28.081 E15.95458
G1 X-35.204 Y27.931 E16.00118
G1 X-36.143 Y27.452 E16.12629
G1 X-36.478 Y27.247 E16.17289
G1 X-37.330 Y26.628 E16.29802
G1 X-37.628 Y26.373 E16.34461
G1 X-38.373 Y25.628 E16.46973
G1 X-38.628 Y25.330 E16.51638
G1 X-39.247 Y24.478 E16.64146
G1 X-39.452 Y24.143 E16.68805
G1 X-39.931 Y23.204 E16.81318
G1 X-40.081 Y22.842 E16.85977
G1 X-40.406 Y21.840 E16.98489
G1 X-40.498 Y21.458 E17.03152
G1 X-40.663 Y20.418 E17.15661
G1 X-40.694 Y20.026 E17.20326
G1 X-40.714 Y19.500 E17.26582
G1 X-40.714 Y-19.500 E21.89766
G1 X-40.663 Y-20.418 E22.00685
G1 X-40.498 Y-21.458 E22.13197
G1 X-40.406 Y-21.840 E22.17863
G1 X-40.081 Y-22.842 E22.30368
G1 X-39.931 Y-23.204 E22.35027
G1 X-39.452 Y-24.143 E22.47540
G1 X-39.247 Y-24.478 E22.52199
G1 X-38.628 Y-25.330 E22.64713
G1 X-38.373 Y-25.628 E22.69375
G1 X-37.628 Y-26.373 E22.81884
G1 X-37.330 Y-26.628 E22.86549
G1 X-36.478 Y-27.247 E22.99056
G1 X-36.143 Y-27.452 E23.03716
G1 X-35.204 Y-27.931 E23.16228
G1 X-34.841 Y-28.081 E23.20896
G1 X-33.840 Y-28.406 E23.33400
G1 X-33.458 Y-28.498 E23.38059
G1 X-32.418 Y-28.663 E23.50572
G1 X-31.500 Y-28.714 E23.61490
G1 X31.440 Y-28.714 E31.08998
G1 E29.08998 F2400.00000
G1 X-31.891 Y-20.039 F7800.000
G1 E31.08998 F2400.00000
G1 F1800
G1 X-31.706 Y-20.133 E31.11473
G1 X-31.428 Y-20.172 E31.14802
G1 X31.428 Y-20.172 E38.61316
G1 X31.710 Y-20.132 E38.64698
G1 X31.891 Y-20.039 E38.67118
G1 X31.971 Y-19.971 E38.68359
G1 X32.093 Y-19.802 E38.70834
G1 X32.158 Y-19.604 E38.73309
G1 X32.172 Y-19.428 E38.75406
G1 X32.172 Y19.428 E43.36884
G1 X32.135 Y19.698 E43.40113
G1 X32.039 Y19.891 E43.42685
G1 X31.888 Y20.041 E43.45214
G1 X31.802 Y20.093 E43.46400
G1 X31.604 Y20.158 E43.48875
G1 X31.428 Y20.172 E43.50972
G1 X-31.428 Y20.172 E50.97486
G1 X-31.706 Y20.133 E51.00814
G1 X-31.891 Y20.039 E51.03289
G1 X-31.971 Y19.971 E51.04531
G1 X-32.093 Y19.802 E51.07005
G1 X-32.158 Y19.604 E51.09480
G1 X-32.172 Y19.428 E51.11577
G1 X-32.172 Y-19.428 E55.73055
G1 X-32.133 Y-19.706 E55.76384
G1 X-32.039 Y-19.891 E55.78859
G1 X-31.937 Y-20.000 E55.80624
G1 X-32.355 Y-20.582 F7800.000
G1 F1800
G1 X-32.128 Y-20.732 E55.83861
G1 X-31.927 Y-20.815 E55.86438
G1 X-31.716 Y-20.865 E55.89014
G1 X-31.456 Y-20.886 E55.92112
G1 X31.456 Y-20.886 E63.39293
G1 X31.706 Y-20.866 E63.42269
G1 X31.930 Y-20.814 E63.44998
G1 X32.128 Y-20.732 E63.47541
G1 X32.313 Y-20.618 E63.50117
G1 X32.477 Y-20.478 E63.52694
G1 X32.618 Y-20.313 E63.55270
G1 X32.732 Y-20.128 E63.57846
G1 X32.815 Y-19.927 E63.60422
G1 X32.865 Y-19.716 E63.62999
G1 X32.886 Y-19.456 E63.66097
G1 X32.886 Y19.456 E68.28241
G1 X32.865 Y19.716 E68.31339
G1 X32.817 Y19.917 E68.33793
G1 X32.730 Y20.130 E68.36523
G1 X32.618 Y20.313 E68.39066
G1 X32.484 Y20.470 E68.41520
G1 X32.310 Y20.620 E68.44250
G1 X32.128 Y20.732 E68.46793
G1 X31.927 Y20.815 E68.49369
G1 X31.716 Y20.865 E68.51945
G1 X31.456 Y20.886 E68.55043
G1 X-31.456 Y20.886 E76.02224
G1 X-31.716 Y20.865 E76.05322
G1 X-31.927 Y20.815 E76.07898
G1 X-32.128 Y20.732 E76.10474
G1 X-32.313 Y20.618 E76.13051
G1 X-32.478 Y20.477 E76.15627
G1 X-32.618 Y20.313 E76.18203
G1 X-32.732 Y20.128 E76.20779
G1 X-32.815 Y19.927 E76.23356
G1 X-32.865 Y19.716 E76.25932
G1 X-32.886 Y19.456 E76.29030
G1 X-32.886 Y-19.456 E80.91174
G1 X-32.865 Y-19.716 E80.94272
G1 X-32.815 Y-19.927 E80.96848
G1 X-32.732 Y-20.128 E80.99425
G1 X-32.618 Y-20.313 E81.02001
G1 X-32.401 Y-20.543 E81.05763
G1 X-32.819 Y-21.125 F7800.000
G1 F1800
G1 X-32.734 Y-21.198 E81.07098
G1 X-32.453 Y-21.370 E81.11010
G1 X-32.149 Y-21.496 E81.14921
G1 X-31.828 Y-21.573 E81.18832
G1 X-31.484 Y-21.600 E81.22931
G1 X31.484 Y-21.600 E88.70778
G1 X31.816 Y-21.574 E88.74734
G1 X32.149 Y-21.496 E88.78798
G1 X32.453 Y-21.370 E88.82698
G1 X32.734 Y-21.198 E88.86609
G1 X32.984 Y-20.984 E88.90520
G1 X33.198 Y-20.734 E88.94432
G1 X33.370 Y-20.453 E88.98343
G1 X33.496 Y-20.149 E89.02254
G1 X33.573 Y-19.828 E89.06166
G1 X33.600 Y-19.484 E89.10264
G1 X33.600 Y19.484 E93.73075
G1 X33.573 Y19.828 E93.77174
G1 X33.499 Y20.137 E93.80942
G1 X33.369 Y20.454 E93.85007
G1 X33.198 Y20.734 E93.88906
G1 X32.992 Y20.975 E93.92674
G1 X32.733 Y21.198 E93.96739
G1 X32.453 Y21.370 E94.00638
G1 X32.149 Y21.496 E94.04549
G1 X31.828 Y21.573 E94.08461
G1 X31.484 Y21.600 E94.12559
G1 X-31.484 Y21.600 E101.60407
G1 X-31.828 Y21.573 E101.64505
G1 X-32.149 Y21.496 E101.68416
G1 X-32.453 Y21.370 E101.72328
G1 X-32.734 Y21.198 E101.76239
G1 X-32.984 Y20.984 E101.80151
G1 X-33.198 Y20.734 E101.84062
G1 X-33.370 Y20.453 E101.87973
G1 X-33.496 Y20.149 E101.91885
G1 X-33.573 Y19.828 E101.95796
G1 X-33.600 Y19.484 E101.99895
G1 X-33.600 Y-19.484 E106.62705
G1 X-33.573 Y-19.828 E106.66804
G1 X-33.496 Y-20.149 E106.70715
G1 X-33.370 Y-20.453 E106.74627
G1 X-33.198 Y-20.734 E106.78538
G1 X-32.984 Y-20.984 E106.82449
G1 X-32.865 Y-21.086 E106.84313
G1 X-32.712 Y-21.091 F7800.000
G1 E104.84313 F2400.00000
G1 X-31.176 Y-19.725 F7800.000
G1 E106.84313 F2400.00000
G1 F1800
G1 X-31.732 Y-19.169 E106.93721
G1 X-31.735 Y-18.148 E107.05952
G1 X-30.148 Y-19.735 E107.32830
G1 X-29.130 Y-19.735 E107.45017
G1 X-31.735 Y-17.130 E107.89131
G1 X-31.735 Y-16.112 E108.01317
G1 X-28.112 Y-19.735 E108.62665
G1 X-27.094 Y-19.735 E108.74852
G1 X-31.735 Y-15.094 E109.53435
G1 X-31.735 Y-14.076 E109.65622
G1 X-26.076 Y-19.735 E110.61440
G1 X-25.058 Y-19.735 E110.73627
G1 X-31.735 Y-13.058 E111.86679
G1 X-31.735 Y-12.040 E111.98866
G1 X-24.040 Y-19.735 E113.29153
G1 X-23.021 Y-19.735 E113.41340
G1 X-31.735 Y-11.021 E114.88862
G1 X-31.735 Y-10.003 E115.01049
G1 X-22.003 Y-19.735 E116.65805
G1 X-20.985 Y-19.735 E116.77992
G1 X-31.735 Y-8.985 E118.59984
G1 X-31.735 Y-7.967 E118.72171
G1 X-19.967 Y-19.735 E120.71397
G1 X-18.949 Y-19.735 E120.83584
G1 X-31.735 Y-6.949 E123.00045
G1 X-31.735 Y-5.931 E123.12232
G1 X-17.931 Y-19.735 E125.45927
G1 X-16.913 Y-19.735 E125.58114
G1 X-31.735 Y-4.913 E128.09045
G1 X-31.735 Y-3.895 E128.21232
G1 X-15.895 Y-19.735 E130.89397
G1 X-14.877 Y-19.735 E131.01584
G1 X-31.735 Y-2.877 E133.86984
G1 X-31.735 Y-1.859 E133.99171
G1 X-13.859 Y-19.735 E137.01806
G1 X-12.841 Y-19.735 E137.13993
G1 X-31.735 Y-0.841 E140.33862
G1 X-31.735 Y0.177 E140.46049
G1 X-11.823 Y-19.735 E143.83154
G1 X-10.805 Y-19.735 E143.95341
G1 X-31.735 Y1.195 E147.49680
G1 X-31.735 Y2.213 E147.61867
G1 X-9.787 Y-19.735 E151.33441
G1 X-8.769 Y-19.735 E151.45628
G1 X-31.735 Y3.231 E155.34436
G1 X-31.735 Y4.249 E155.46623
G1 X-7.751 Y-19.735 E159.52667
G1 X-6.733 Y-19.735 E159.64854
G1 X-31.735 Y5.267 E163.88132
G1 X-31.735 Y6.285 E164.00319
G1 X-5.715 Y-19.735 E168.40832
G1 X-4.697 Y-19.735 E168.53019
G1 X-31.735 Y7.303 E173.10767
G1 X-31.735 Y8.321 E173.22954
G1 X-3.679 Y-19.735 E177.97936
G1 X-2.661 Y-19.735 E178.10123
G1 X-31.735 Y9.339 E183.02341
G1 X-31.735 Y10.357 E183.14528
G1 X-1.643 Y-19.735 E188.23980
G1 X-0.625 Y-19.735 E188.36167
G1 X-31.735 Y11.375 E193.62854
G1 X-31.735 Y12.393 E193.75041
G1 X0.393 Y-19.735 E199.18962
G1 X1.411 Y-19.735 E199.31149
G1 X-31.735 Y13.411 E204.92306
G1 X-31.735 Y14.429 E205.04493
G1 X2.429 Y-19.735 E210.82884
G1 X3.447 Y-19.735 E210.95071
G1 X-31.735 Y15.447 E216.90697
G1 X-31.735 Y16.465 E217.02884
G1 X4.465 Y-19.735 E223.15745
G1 X5.483 Y-19.735 E223.27932
G1 X-31.735 Y17.483 E229.58027
G1 X-31.735 Y18.501 E229.70214
G1 X6.501 Y-19.735 E236.17545
G1 X7.519 Y-19.735 E236.29731
G1 X-31.735 Y19.519 E242.94297
G1 X-31.725 Y19.732 E242.96844
G1 X-30.933 Y19.735 E243.06319
G1 X8.537 Y-19.735 E249.74545
G1 X9.555 Y-19.735 E249.86732
G1 X-29.915 Y19.735 E256.54958
G1 X-28.897 Y19.735 E256.67145
G1 X10.573 Y-19.735 E263.35370
G1 X11.591 Y-19.735 E263.47557
G1 X-27.879 Y19.735 E270.15783
G1 X-26.861 Y19.735 E270.27970
G1 X12.609 Y-19.735 E276.96196
G1 X13.627 Y-19.735 E277.08383
G1 X-25.843 Y19.735 E283.76609
G1 X-24.825 Y19.735 E283.88795
G1 X14.645 Y-19.735 E290.57021
G1 X15.663 Y-19.735 E290.69208
G1 X-23.807 Y19.735 E297.37434
G1 X-22.789 Y19.735 E297.49621
G1 X16.681 Y-19.735 E304.17847
G1 X17.699 Y-19.735 E304.30034
G1 X-21.771 Y19.735 E310.98260
G1 X-20.753 Y19.735 E311.10447
G1 X18.717 Y-19.735 E317.78672
G1 X19.735 Y-19.735 E317.90859
G1 X-19.735 Y19.735 E324.59085
G1 X-18.717 Y19.735 E324.71272
G1 X20.753 Y-19.735 E331.39498
G1 X21.771 Y-19.735 E331.51685
G1 X-17.699 Y19.735 E338.19911
G1 X-16.681 Y19.735 E338.32098
G1 X22.789 Y-19.735 E345.00323
G1 X23.807 Y-19.735 E345.12510
G1 X-15.663 Y19.735 E351.80736
G1 X-14.645 Y19.735 E351.92923
G1 X24.825 Y-19.735 E358.61149
G1 X25.843 Y-19.735 E358.73336
G1 X-13.627 Y19.735 E365.41562
G1 X-12.609 Y19.735 E365.53748
G1 X26.861 Y-19.735 E372.21974
G1 X27.879 Y-19.735 E372.34161
G1 X-11.591 Y19.735 E379.02387
G1 X-10.573 Y19.735 E379.14574
G1 X28.897 Y-19.735 E385.82800
G1 X29.915 Y-19.735 E385.94987
G1 X-9.555 Y19.735 E392.63213
G1 X-8.537 Y19.735 E392.75400
G1 X30.934 Y-19.735 E399.43625
G1 X31.678 Y-19.735 E399.52536
G1 X31.725 Y-19.732 E399.53102
G1 X31.735 Y-19.519 E399.55649
G1 X-7.519 Y19.735 E406.20215
G1 X-6.501 Y19.735 E406.32401
G1 X31.735 Y-18.501 E412.79732
G1 X31.735 Y-17.483 E412.91918
G1 X-5.483 Y19.735 E419.22014
G1 X-4.465 Y19.735 E419.34201
G1 X31.735 Y-16.465 E425.47061
G1 X31.735 Y-15.447 E425.59248
G1 X-3.447 Y19.735 E431.54874
G1 X-2.429 Y19.735 E431.67061
G1 X31.735 Y-14.429 E437.45452
G1 X31.735 Y-13.411 E437.57639
G1 X-1.411 Y19.735 E443.18795
G1 X-0.393 Y19.735 E443.30982
G1 X31.735 Y-12.393 E448.74904
G1 X31.735 Y-11.375 E448.87090
G1 X0.625 Y19.735 E454.13777
G1 X1.643 Y19.735 E454.25964
G1 X31.735 Y-10.357 E459.35416
G1 X31.735 Y-9.339 E459.47603
G1 X2.661 Y19.735 E464.39820
G1 X3.679 Y19.735 E464.52007
G1 X31.735 Y-8.321 E469.26990
G1 X31.735 Y-7.303 E469.39176
G1 X4.697 Y19.735 E473.96924
G1 X5.715 Y19.735 E474.09111
G1 X31.735 Y-6.285 E478.49624
G1 X31.735 Y-5.267 E478.61811
G1 X6.733 Y19.735 E482.85089
G1 X7.751 Y19.735 E482.97276
G1 X31.735 Y-4.249 E487.03319
G1 X31.735 Y-3.231 E487.15506
