; generated by Slic3r 1.3.0 on 2024-04-28 at 14:18:02

; external perimeters extrusion width = 0.44mm (3.38mm^3/s)
; perimeters extrusion width = 0.48mm (7.54mm^3/s)
; infill extrusion width = 0.48mm (10.05mm^3/s)
; solid infill extrusion width = 0.48mm (2.51mm^3/s)
; top infill extrusion width = 0.48mm (1.88mm^3/s)

M127
;
;
;- - - - SUMMARY - - - -
;
;first layer temperature = 220C
;temperature = 220C
;first layer bed temperature = 58C
;bed temperature = 58C
;
;first layer height = 0.4mm
;layer height = 0.3mm
;z_offset = 0mm
;perimeters = 3
;fill density = 10%
;infill every n layers = 1
;skirts = 1
;brim width = 0mm
;raft layers = 0
;support material = 0
;support material threshold = 60% degrees
;support material enforced for first n layers = 0
;support material extruder = 1
;
;first layer speed = 30
;perimeter speed = 60mm/s
;small perimeter speed = 15
;external perimeter speed = 50%
;infill speed = 80mm/s
;solid infill speed = 20
;top solid infill speed = 15
;support material speed = 60mm/s
;gap fill speed = 20mm/s
;travel speed = 130mm/s
;bridge speed = 60mm/s
;bridge flow ratio = 1
;slowdown if layer time is less than = 5secs
;minimum print speed = 10mm/s
;
;bottom solid layers = 3
;top solid layers = 3
;
;
;- - - - EXTRUSION - - - -
;
;filament diameter = 1.75mm
;nozzle diameter = 0.4mm
;bridge flow ratio = 1
;extrusion axis = E
;extrusion multiplier = 1
;extrusion width = 0mm
;first layer extrusion width = 200%mm
;perimeter extrusion width = 0mm
;infill extrusion width = 0mm
;solid infill extrusion width = 0mm
;top infill extrusion width = 0mm
;support material extrusion width = 0mm
;
;
;- - - - SUPPORT - - - -
;
;raft layers = 0
;brim width = 0mm
;support material = 0
;support material threshold = 60% degrees
;support material enforced for first n layers = 0
;support material extruder = 1
;support material extrusion width = 0mm
;support material interface layers = 3
;support material interface spacing = 0mm
;support material pattern = pillars
;support material angle = 0 degrees
;support material spacing = 2.5mm
;support material speed = 60mm/s
;
;
;- - - - EVERYTHING ELSE - - - -
;
;complete objects = 0
;cooling enabled = 1
;default acceleration = 0mm/s/s
;disable fan for first layers = 3
;duplicate = [duplicate]
;duplicate distance = 6mm
;duplicate grid = [duplicate_grid]
;external perimeters first = 0
;extra perimeters = 1
;extruder clearance height = 20mm
;extruder clearance radius = 20mm
;extruder offset = 0,0mm
;fan always on = 0
;fan below layer time = 60secs
;fill angle = 45 degrees
;fill pattern = rectilinear
;gcode arcs = 0
;gcode comments = 0
;gcode flavor = sailfish
;infill acceleration = 0mm/s/s
;infill extruder = 1
;infill first = 0
;infill only where needed = 0
;minimum skirt length = 0mm
;only retract when crossing perimeters = 1
;perimeter acceleration = 0mm/s/s
;perimeter extruder = 1
;randomize start = [randomize_start]
;resolution = 0mm
;retract before travel = 2
;retract on layer change = 0
;retract length = 2mm
;retract length on tool change = 10mm
;retract lift = 0
;retract extra distance on restart = 0mm
;retract extra on tool change = 0mm
;retract speed = 40mm/s
;rotate = [rotate] degrees
;scale = 100%
;skirt distance = 6mm
;skirt height = 1mm
;solid fill pattern = [solid_fill_pattern]
;solid infill below area = 70mm (sq)
;solid infill every n layers = 0
;
;
;- - - - - - - - - - - - - - - - - - - - - - - - -
;
;
T0; set primary extruder
M73 P0; enable show build progress
;M109 S58 T0; heat bed up to first layer temperature
M140 S58 T0; heat bed up to first layer temperature
M104 S220 T0; set nozzle heater to first layer temperature
M103; disable RPM
G21; set units to mm
G162 X Y F6000; home XY axes maximum
G161 Z F9000; home Z axis minimum
G92 Z0; set Z to 0
M132 X Y Z A B; Recall stored home offsets
G90; set positioning to absolute
G1 Z30; move Z to waiting height
G1 X-95 Y-73 Z30 F14000; move to waiting position (front left corner of print bed)
G130 X0 Y0 A0 B0; set stepper motor vref to lower value while heating
M6 T0; wait for bed and extruder to heat up
G130 X127 Y127 A127 B127; set stepper motor vref to defaults
M108 T0 R3; set extruder speed
G92 E0; set E to 0
G90; use absolute coordinates
M320; acceleration enabled for all commands that follow
G1 Z0.4 F6000.000; move to first layer height
G1 X100 Y-73 F14000.000; move to front right corner of bed
G1 X-90 Y-73 E24 F2000.000; extrude a line of filament across the front edge of the bed
G4 P2000; wait for ooze to slow
G1 Z0 F6000.000; lower nozzle height to 0
G1 X-95; wipe nozzle
G1 Z0.4 F6000.000; set nozzle to first layer height
G1 F12000; ensure fast travel to first print move
G92 E0; set E to 0 again
M73 P0; reset build progress to 0
; Filament gcode

G21 ; set units to millimeters
G90 ; use absolute coordinates
M73 P0
G1 Z0.400 F7800.000
G1 E-2.00000 F2400.00000
G1 X32.500 Y-28.714 F7800.000
G1 E0.00000 F2400.00000
G1 F1800
G1 X33.418 Y-28.663 E0.10918
G1 X34.458 Y-28.498 E0.23431
G1 X34.840 Y-28.406 E0.28097
G1 X35.842 Y-28.081 E0.40603
G1 X36.204 Y-27.931 E0.45263
G1 X37.143 Y-27.452 E0.57775
G1 X37.478 Y-27.247 E0.62434
G1 X38.330 Y-26.628 E0.74947
G1 X38.629 Y-26.372 E0.79623
G1 X39.373 Y-25.628 E0.92117
G1 X39.629 Y-25.329 E0.96796
G1 X40.247 Y-24.478 E1.09290
G1 X40.452 Y-24.143 E1.13949
G1 X40.931 Y-23.204 E1.26463
G1 X41.081 Y-22.842 E1.31122
G1 X41.406 Y-21.840 E1.43633
G1 X41.498 Y-21.457 E1.48316
G1 X41.663 Y-20.418 E1.60807
G1 X41.714 Y-19.500 E1.71725
G1 X41.714 Y19.500 E6.34909
G1 X41.693 Y20.027 E6.41169
G1 X41.662 Y20.421 E6.45868
G1 X41.498 Y21.459 E6.58343
G1 X41.406 Y21.840 E6.63002
G1 X41.081 Y22.842 E6.75512
G1 X40.930 Y23.206 E6.80197
G1 X40.452 Y24.143 E6.92686
G1 X40.247 Y24.478 E6.97345
G1 X39.628 Y25.330 E7.09859
G1 X39.373 Y25.628 E7.14518
G1 X38.628 Y26.373 E7.27029
G1 X38.330 Y26.628 E7.31688
G1 X37.478 Y27.247 E7.44202
G1 X37.143 Y27.452 E7.48861
G1 X36.204 Y27.931 E7.61373
G1 X35.842 Y28.081 E7.66033
G1 X34.840 Y28.406 E7.78546
G1 X34.458 Y28.498 E7.83205
G1 X33.418 Y28.663 E7.95718
G1 X32.500 Y28.714 E8.06636
G1 X-32.500 Y28.714 E15.78609
G1 X-33.418 Y28.663 E15.89527
G1 X-34.458 Y28.498 E16.02040
G1 X-34.841 Y28.406 E16.06708
G1 X-35.842 Y28.081 E16.19213
G1 X-36.204 Y27.931 E16.23873
G1 X-37.143 Y27.452 E16.36383
G1 X-37.470 Y27.252 E16.40933
G1 X-38.330 Y26.628 E16.53555
G1 X-38.629 Y26.373 E16.58222
G1 X-39.373 Y25.628 E16.70728
G1 X-39.628 Y25.330 E16.75390
G1 X-40.247 Y24.478 E16.87899
G1 X-40.453 Y24.143 E16.92566
G1 X-40.931 Y23.204 E17.05072
G1 X-41.081 Y22.841 E17.09739
G1 X-41.406 Y21.840 E17.22243
G1 X-41.498 Y21.458 E17.26908
G1 X-41.663 Y20.418 E17.39415
G1 X-41.694 Y20.026 E17.44086
G1 X-41.714 Y19.500 E17.50336
G1 X-41.714 Y-19.500 E22.13520
G1 X-41.663 Y-20.418 E22.24438
G1 X-41.498 Y-21.458 E22.36951
G1 X-41.406 Y-21.841 E22.41619
G1 X-41.081 Y-22.842 E22.54122
G1 X-40.931 Y-23.204 E22.58782
G1 X-40.452 Y-24.143 E22.71295
G1 X-40.247 Y-24.478 E22.75954
G1 X-39.628 Y-25.330 E22.88466
G1 X-39.373 Y-25.628 E22.93126
G1 X-38.628 Y-26.373 E23.05638
G1 X-38.330 Y-26.628 E23.10303
G1 X-37.478 Y-27.247 E23.22810
G1 X-37.143 Y-27.452 E23.27470
G1 X-36.204 Y-27.931 E23.39982
G1 X-35.842 Y-28.081 E23.44645
G1 X-34.840 Y-28.406 E23.57154
G1 X-34.458 Y-28.498 E23.61813
G1 X-33.418 Y-28.663 E23.74326
G1 X-32.500 Y-28.714 E23.85244
G1 X32.440 Y-28.714 E31.56505
G1 E29.56505 F2400.00000
G1 X-32.802 Y-20.093 F7800.000
G1 E31.56505 F2400.00000
G1 F1800
G1 X-32.604 Y-20.158 E31.58980
G1 X-32.428 Y-20.172 E31.61077
G1 X32.428 Y-20.172 E39.31345
G1 X32.598 Y-20.158 E39.33371
G1 X32.802 Y-20.093 E39.35914
G1 X32.971 Y-19.971 E39.38389
G1 X33.093 Y-19.802 E39.40864
G1 X33.156 Y-19.610 E39.43269
G1 X33.172 Y-19.425 E39.45474
G1 X33.172 Y19.428 E44.06913
G1 X33.158 Y19.604 E44.09010
G1 X33.093 Y19.802 E44.11485
G1 X32.971 Y19.971 E44.13960
G1 X32.802 Y20.093 E44.16435
G1 X32.604 Y20.158 E44.18909
G1 X32.428 Y20.172 E44.21006
G1 X-32.428 Y20.172 E51.91274
G1 X-32.604 Y20.158 E51.93371
G1 X-32.805 Y20.092 E51.95884
G1 X-32.966 Y19.975 E51.98249
G1 X-33.093 Y19.802 E52.00793
G1 X-33.158 Y19.604 E52.03268
G1 X-33.172 Y19.428 E52.05365
G1 X-33.172 Y-19.428 E56.66842
G1 X-33.158 Y-19.604 E56.68940
G1 X-33.092 Y-19.805 E56.71453
G1 X-32.975 Y-19.966 E56.73818
G1 X-32.854 Y-20.062 E56.75652
G1 X-33.076 Y-20.753 F7800.000
G1 F1800
G1 X-32.927 Y-20.815 E56.77561
G1 X-32.716 Y-20.865 E56.80137
G1 X-32.456 Y-20.886 E56.83235
G1 X32.456 Y-20.886 E64.54169
G1 X32.709 Y-20.866 E64.57181
G1 X32.929 Y-20.814 E64.59866
G1 X33.128 Y-20.732 E64.62418
G1 X33.313 Y-20.618 E64.64994
G1 X33.477 Y-20.478 E64.67571
G1 X33.618 Y-20.313 E64.70147
G1 X33.732 Y-20.128 E64.72723
G1 X33.815 Y-19.927 E64.75300
G1 X33.864 Y-19.723 E64.77790
G1 X33.886 Y-19.454 E64.80996
G1 X33.886 Y19.456 E69.43117
G1 X33.865 Y19.716 E69.46215
G1 X33.815 Y19.927 E69.48791
G1 X33.732 Y20.128 E69.51367
G1 X33.618 Y20.313 E69.53944
G1 X33.477 Y20.478 E69.56520
G1 X33.313 Y20.618 E69.59096
G1 X33.128 Y20.732 E69.61673
G1 X32.927 Y20.815 E69.64249
G1 X32.716 Y20.865 E69.66825
G1 X32.456 Y20.886 E69.69923
G1 X-32.456 Y20.886 E77.40857
G1 X-32.716 Y20.865 E77.43955
G1 X-32.920 Y20.816 E77.46445
G1 X-33.129 Y20.731 E77.49130
G1 X-33.313 Y20.618 E77.51682
G1 X-33.472 Y20.482 E77.54173
G1 X-33.619 Y20.311 E77.56857
G1 X-33.732 Y20.128 E77.59410
G1 X-33.815 Y19.927 E77.61986
G1 X-33.865 Y19.716 E77.64562
G1 X-33.886 Y19.456 E77.67660
G1 X-33.886 Y-19.456 E82.29804
G1 X-33.865 Y-19.716 E82.32902
G1 X-33.816 Y-19.920 E82.35393
G1 X-33.731 Y-20.129 E82.38077
G1 X-33.618 Y-20.313 E82.40630
G1 X-33.482 Y-20.472 E82.43120
G1 X-33.311 Y-20.619 E82.45805
G1 X-33.131 Y-20.730 E82.48312
G1 X-33.349 Y-21.413 F7800.000
G1 F1800
G1 X-33.149 Y-21.496 E82.50889
G1 X-32.828 Y-21.573 E82.54800
G1 X-32.484 Y-21.600 E82.58898
G1 X32.484 Y-21.600 E90.30499
G1 X32.820 Y-21.574 E90.34496
G1 X33.149 Y-21.496 E90.38516
G1 X33.453 Y-21.370 E90.42419
G1 X33.734 Y-21.198 E90.46330
G1 X33.984 Y-20.984 E90.50241
G1 X34.198 Y-20.734 E90.54153
G1 X34.370 Y-20.453 E90.58064
G1 X34.496 Y-20.149 E90.61975
G1 X34.571 Y-19.837 E90.65786
G1 X34.600 Y-19.484 E90.69993
G1 X34.600 Y19.484 E95.32795
G1 X34.573 Y19.828 E95.36894
G1 X34.496 Y20.149 E95.40805
G1 X34.370 Y20.453 E95.44716
G1 X34.198 Y20.734 E95.48628
G1 X33.984 Y20.984 E95.52539
G1 X33.734 Y21.198 E95.56450
G1 X33.453 Y21.370 E95.60362
G1 X33.149 Y21.496 E95.64273
G1 X32.828 Y21.573 E95.68184
G1 X32.484 Y21.600 E95.72283
G1 X-32.484 Y21.600 E103.43883
G1 X-32.828 Y21.573 E103.47982
G1 X-33.140 Y21.498 E103.51792
G1 X-33.453 Y21.370 E103.55812
G1 X-33.734 Y21.198 E103.59715
G1 X-33.978 Y20.990 E103.63525
G1 X-34.198 Y20.733 E103.67544
G1 X-34.370 Y20.453 E103.71447
G1 X-34.496 Y20.149 E103.75359
G1 X-34.573 Y19.828 E103.79270
G1 X-34.600 Y19.484 E103.83369
G1 X-34.600 Y-19.484 E108.46179
G1 X-34.573 Y-19.828 E108.50278
G1 X-34.498 Y-20.140 E108.54088
G1 X-34.370 Y-20.453 E108.58108
G1 X-34.198 Y-20.734 E108.62011
G1 X-33.990 Y-20.978 E108.65821
G1 X-33.733 Y-21.198 E108.69841
G1 X-33.404 Y-21.390 E108.74359
G1 X-33.172 Y-21.288 F7800.000
G1 E106.74359 F2400.00000
G1 X-32.175 Y-19.731 F7800.000
G1 E108.74359 F2400.00000
G1 F1800
G1 X-32.731 Y-19.175 E108.83764
G1 X-32.735 Y-18.153 E108.95995
G1 X-31.153 Y-19.735 E109.22768
G1 X-30.136 Y-19.735 E109.34949
G1 X-32.735 Y-17.136 E109.78949
G1 X-32.735 Y-16.118 E109.91130
G1 X-29.118 Y-19.735 E110.52356
G1 X-28.100 Y-19.735 E110.64537
G1 X-32.735 Y-15.100 E111.42990
G1 X-32.735 Y-14.082 E111.55171
G1 X-27.082 Y-19.735 E112.50850
G1 X-26.065 Y-19.735 E112.63031
G1 X-32.735 Y-13.065 E113.75937
G1 X-32.735 Y-12.047 E113.88118
G1 X-25.047 Y-19.735 E115.18250
G1 X-24.029 Y-19.735 E115.30431
G1 X-32.735 Y-11.029 E116.77790
G1 X-32.735 Y-10.011 E116.89971
G1 X-23.011 Y-19.735 E118.54556
G1 X-21.994 Y-19.735 E118.66737
G1 X-32.735 Y-8.994 E120.48549
G1 X-32.735 Y-7.976 E120.60730
G1 X-20.976 Y-19.735 E122.59768
G1 X-19.958 Y-19.735 E122.71949
G1 X-32.735 Y-6.958 E124.88214
G1 X-32.735 Y-5.940 E125.00395
G1 X-18.940 Y-19.735 E127.33887
G1 X-17.922 Y-19.735 E127.46068
G1 X-32.735 Y-4.922 E129.96786
G1 X-32.735 Y-3.905 E130.08967
G1 X-16.905 Y-19.735 E132.76911
G1 X-15.887 Y-19.735 E132.89092
G1 X-32.735 Y-2.887 E135.74264
G1 X-32.735 Y-1.869 E135.86445
G1 X-14.869 Y-19.735 E138.88842
G1 X-13.851 Y-19.735 E139.01023
G1 X-32.735 Y-0.851 E142.20647
G1 X-32.735 Y0.166 E142.32829
G1 X-12.834 Y-19.735 E145.69679
G1 X-11.816 Y-19.735 E145.81860
G1 X-32.735 Y1.184 E149.35938
G1 X-32.735 Y2.202 E149.48119
G1 X-10.798 Y-19.735 E153.19422
G1 X-9.780 Y-19.735 E153.31603
G1 X-32.735 Y3.220 E157.20134
G1 X-32.735 Y4.238 E157.32315
G1 X-8.762 Y-19.735 E161.38072
G1 X-7.745 Y-19.735 E161.50253
G1 X-32.735 Y5.255 E165.73236
G1 X-32.735 Y6.273 E165.85417
G1 X-6.727 Y-19.735 E170.25627
G1 X-5.709 Y-19.735 E170.37808
G1 X-32.735 Y7.291 E174.95245
G1 X-32.735 Y8.309 E175.07426
G1 X-4.691 Y-19.735 E179.82089
G1 X-3.674 Y-19.735 E179.94270
G1 X-32.735 Y9.326 E184.86159
G1 X-32.735 Y10.344 E184.98340
G1 X-2.656 Y-19.735 E190.07457
G1 X-1.638 Y-19.735 E190.19638
G1 X-32.735 Y11.362 E195.45980
G1 X-32.735 Y12.380 E195.58161
G1 X-0.620 Y-19.735 E201.01731
G1 X0.398 Y-19.735 E201.13912
G1 X-32.735 Y13.398 E206.74707
G1 X-32.735 Y14.415 E206.86888
G1 X1.415 Y-19.735 E212.64911
G1 X2.433 Y-19.735 E212.77092
G1 X-32.735 Y15.433 E218.72341
G1 X-32.735 Y16.451 E218.84522
G1 X3.451 Y-19.735 E224.96997
G1 X4.469 Y-19.735 E225.09178
G1 X-32.735 Y17.469 E231.38880
G1 X-32.735 Y18.486 E231.51061
G1 X5.486 Y-19.735 E237.97989
G1 X6.504 Y-19.735 E238.10170
G1 X-32.735 Y19.504 E244.74325
G1 X-32.731 Y19.731 E244.77041
G1 X-31.949 Y19.735 E244.86407
G1 X7.522 Y-19.735 E251.54473
G1 X8.540 Y-19.735 E251.66654
G1 X-30.931 Y19.735 E258.34720
G1 X-29.913 Y19.735 E258.46901
G1 X9.558 Y-19.735 E265.14968
G1 X10.575 Y-19.735 E265.27149
G1 X-28.895 Y19.735 E271.95215
G1 X-27.877 Y19.735 E272.07396
G1 X11.593 Y-19.735 E278.75462
G1 X12.611 Y-19.735 E278.87643
G1 X-26.860 Y19.735 E285.55709
G1 X-25.842 Y19.735 E285.67890
G1 X13.629 Y-19.735 E292.35957
G1 X14.646 Y-19.735 E292.48138
G1 X-24.824 Y19.735 E299.16204
G1 X-23.806 Y19.735 E299.28385
G1 X15.664 Y-19.735 E305.96451
G1 X16.682 Y-19.735 E306.08632
G1 X-22.789 Y19.735 E312.76699
G1 X-21.771 Y19.735 E312.88880
G1 X17.700 Y-19.735 E319.56946
G1 X18.718 Y-19.735 E319.69127
G1 X-20.753 Y19.735 E326.37193
G1 X-19.735 Y19.735 E326.49374
G1 X19.735 Y-19.735 E333.17441
G1 X20.753 Y-19.735 E333.29622
G1 X-18.718 Y19.735 E339.97688
G1 X-17.700 Y19.735 E340.09869
G1 X21.771 Y-19.735 E346.77935
G1 X22.789 Y-19.735 E346.90116
G1 X-16.682 Y19.735 E353.58182
G1 X-15.664 Y19.735 E353.70363
G1 X23.806 Y-19.735 E360.38430
G1 X24.824 Y-19.735 E360.50611
G1 X-14.646 Y19.735 E367.18677
G1 X-13.629 Y19.735 E367.30858
G1 X25.842 Y-19.735 E373.98924
G1 X26.860 Y-19.735 E374.11105
G1 X-12.611 Y19.735 E380.79171
G1 X-11.593 Y19.735 E380.91352
G1 X27.878 Y-19.735 E387.59419
G1 X28.895 Y-19.735 E387.71600
G1 X-10.575 Y19.735 E394.39666
G1 X-9.558 Y19.735 E394.51847
G1 X29.913 Y-19.735 E401.19913
G1 X30.931 Y-19.735 E401.32094
G1 X-8.540 Y19.735 E408.00161
G1 X-7.522 Y19.735 E408.12342
G1 X31.949 Y-19.735 E414.80408
G1 X32.678 Y-19.735 E414.89136
G1 X32.725 Y-19.732 E414.89699
G1 X32.735 Y-19.504 E414.92423
G1 X-6.504 Y19.735 E421.56578
G1 X-5.486 Y19.735 E421.68759
G1 X32.735 Y-18.486 E428.15687
G1 X32.735 Y-17.469 E428.27868
G1 X-4.469 Y19.735 E434.57570
G1 X-3.451 Y19.735 E434.69751
G1 X32.735 Y-16.451 E440.82226
G1 X32.735 Y-15.433 E440.94407
G1 X-2.433 Y19.735 E446.89656
G1 X-1.415 Y19.735 E447.01837
G1 X32.735 Y-14.415 E452.79859
G1 X32.735 Y-13.398 E452.92040
G1 X-0.398 Y19.735 E458.52835
G1 X0.620 Y19.735 E458.65016
G1 X32.735 Y-12.380 E464.08585
G1 X32.735 Y-11.362 E464.20766
G1 X1.638 Y19.735 E469.47109
G1 X2.656 Y19.735 E469.59290
G1 X32.735 Y-10.344 E474.68406
G1 X32.735 Y-9.326 E474.80587
G1 X3.674 Y19.735 E479.72476
G1 X4.691 Y19.735 E479.84657
G1 X32.735 Y-8.309 E484.59320
G1 X32.735 Y-7.291 E484.71501
G1 X5.709 Y19.735 E489.28937
G1 X6.727 Y19.735 E489.41118
G1 X32.735 Y-6.273 E493.81328
