; generated by Slic3r 1.3.0 on 2024-04-17 at 17:37:11

; external perimeters extrusion width = 0.44mm (3.38mm^3/s)
; perimeters extrusion width = 0.48mm (7.54mm^3/s)
; infill extrusion width = 0.48mm (10.05mm^3/s)
; solid infill extrusion width = 0.48mm (2.51mm^3/s)
; top infill extrusion width = 0.48mm (1.88mm^3/s)

M127
;
;
;- - - - SUMMARY - - - -
;
;first layer temperature = 218C
;temperature = 218C
;first layer bed temperature = 63C
;bed temperature = 63C
;
;first layer height = 0.4mm
;layer height = 0.3mm
;z_offset = 0mm
;perimeters = 3
;fill density = 30%
;infill every n layers = 1
;skirts = 1
;brim width = 0mm
;raft layers = 0
;support material = 0
;support material threshold = 60% degrees
;support material enforced for first n layers = 0
;support material extruder = 1
;
;first layer speed = 30
;perimeter speed = 60mm/s
;small perimeter speed = 15
;external perimeter speed = 50%
;infill speed = 80mm/s
;solid infill speed = 20
;top solid infill speed = 15
;support material speed = 60mm/s
;gap fill speed = 20mm/s
;travel speed = 130mm/s
;bridge speed = 60mm/s
;bridge flow ratio = 1
;slowdown if layer time is less than = 5secs
;minimum print speed = 10mm/s
;
;bottom solid layers = 3
;top solid layers = 3
;
;
;- - - - EXTRUSION - - - -
;
;filament diameter = 1.75mm
;nozzle diameter = 0.4mm
;bridge flow ratio = 1
;extrusion axis = E
;extrusion multiplier = 1
;extrusion width = 0mm
;first layer extrusion width = 200%mm
;perimeter extrusion width = 0mm
;infill extrusion width = 0mm
;solid infill extrusion width = 0mm
;top infill extrusion width = 0mm
;support material extrusion width = 0mm
;
;
;- - - - SUPPORT - - - -
;
;raft layers = 0
;brim width = 0mm
;support material = 0
;support material threshold = 60% degrees
;support material enforced for first n layers = 0
;support material extruder = 1
;support material extrusion width = 0mm
;support material interface layers = 3
;support material interface spacing = 0mm
;support material pattern = pillars
;support material angle = 0 degrees
;support material spacing = 2.5mm
;support material speed = 60mm/s
;
;
;- - - - EVERYTHING ELSE - - - -
;
;complete objects = 0
;cooling enabled = 1
;default acceleration = 0mm/s/s
;disable fan for first layers = 3
;duplicate = [duplicate]
;duplicate distance = 6mm
;duplicate grid = [duplicate_grid]
;external perimeters first = 0
;extra perimeters = 1
;extruder clearance height = 20mm
;extruder clearance radius = 20mm
;extruder offset = 0,0mm
;fan always on = 0
;fan below layer time = 60secs
;fill angle = 45 degrees
;fill pattern = rectilinear
;gcode arcs = 0
;gcode comments = 0
;gcode flavor = sailfish
;infill acceleration = 0mm/s/s
;infill extruder = 1
;infill first = 0
;infill only where needed = 0
;minimum skirt length = 0mm
;only retract when crossing perimeters = 1
;perimeter acceleration = 0mm/s/s
;perimeter extruder = 1
;randomize start = [randomize_start]
;resolution = 0mm
;retract before travel = 2
;retract on layer change = 0
;retract length = 2mm
;retract length on tool change = 10mm
;retract lift = 0
;retract extra distance on restart = 0mm
;retract extra on tool change = 0mm
;retract speed = 40mm/s
;rotate = [rotate] degrees
;scale = 100%
;skirt distance = 6mm
;skirt height = 1mm
;solid fill pattern = [solid_fill_pattern]
;solid infill below area = 70mm (sq)
;solid infill every n layers = 0
;
;
;- - - - - - - - - - - - - - - - - - - - - - - - -
;
;
T0; set primary extruder
M73 P0; enable show build progress
;M109 S63 T0; heat bed up to first layer temperature
M140 S63 T0; heat bed up to first layer temperature
M104 S218 T0; set nozzle heater to first layer temperature
M103; disable RPM
G21; set units to mm
G162 X Y F6000; home XY axes maximum
G161 Z F9000; home Z axis minimum
G92 Z0; set Z to 0
M132 X Y Z A B; Recall stored home offsets
G90; set positioning to absolute
G1 Z30; move Z to waiting height
G1 X-95 Y-73 Z30 F14000; move to waiting position (front left corner of print bed)
G130 X0 Y0 A0 B0; set stepper motor vref to lower value while heating
M6 T0; wait for bed and extruder to heat up
G130 X127 Y127 A127 B127; set stepper motor vref to defaults
M108 T0 R3; set extruder speed
G92 E0; set E to 0
G90; use absolute coordinates
M320; acceleration enabled for all commands that follow
G1 Z0.4 F6000.000; move to first layer height
G1 X100 Y-73 F14000.000; move to front right corner of bed
G1 X-90 Y-73 E24 F2000.000; extrude a line of filament across the front edge of the bed
G4 P2000; wait for ooze to slow
G1 Z0 F6000.000; lower nozzle height to 0
G1 X-95; wipe nozzle
G1 Z0.4 F6000.000; set nozzle to first layer height
G1 F12000; ensure fast travel to first print move
G92 E0; set E to 0 again
M73 P0; reset build progress to 0
; Filament gcode

G21 ; set units to millimeters
G90 ; use absolute coordinates
M73 P0
G1 Z0.400 F7800.000
G1 E-2.00000 F2400.00000
G1 X31.500 Y-28.714 F7800.000
G1 E0.00000 F2400.00000
G1 F1800
G1 X32.418 Y-28.663 E0.10924
G1 X33.458 Y-28.498 E0.23431
G1 X33.840 Y-28.406 E0.28096
G1 X34.842 Y-28.081 E0.40603
G1 X35.204 Y-27.931 E0.45264
G1 X36.143 Y-27.452 E0.57775
G1 X36.466 Y-27.254 E0.62278
G1 X37.330 Y-26.628 E0.74946
G1 X37.628 Y-26.373 E0.79605
G1 X38.373 Y-25.628 E0.92119
G1 X38.628 Y-25.330 E0.96778
G1 X39.247 Y-24.478 E1.09288
G1 X39.452 Y-24.143 E1.13950
G1 X39.931 Y-23.204 E1.26462
G1 X40.081 Y-22.840 E1.31143
G1 X40.406 Y-21.840 E1.43635
G1 X40.498 Y-21.458 E1.48294
G1 X40.663 Y-20.418 E1.60804
G1 X40.714 Y-19.500 E1.71724
G1 X40.714 Y19.500 E6.34908
G1 X40.693 Y20.027 E6.41170
G1 X40.663 Y20.418 E6.45830
G1 X40.498 Y21.458 E6.58340
G1 X40.409 Y21.827 E6.62844
G1 X40.081 Y22.842 E6.75511
G1 X39.930 Y23.206 E6.80196
G1 X39.452 Y24.143 E6.92686
G1 X39.247 Y24.478 E6.97345
G1 X38.628 Y25.330 E7.09855
G1 X38.373 Y25.629 E7.14526
G1 X37.628 Y26.373 E7.27029
G1 X37.330 Y26.628 E7.31693
G1 X36.478 Y27.247 E7.44201
G1 X36.143 Y27.452 E7.48860
G1 X35.204 Y27.931 E7.61372
G1 X34.842 Y28.081 E7.66031
G1 X33.840 Y28.406 E7.78544
G1 X33.458 Y28.498 E7.83204
G1 X32.418 Y28.663 E7.95716
G1 X31.500 Y28.714 E8.06634
G1 X-31.500 Y28.714 E15.54855
G1 X-32.418 Y28.663 E15.65773
G1 X-33.458 Y28.498 E15.78286
G1 X-33.840 Y28.406 E15.82945
G1 X-34.842 Y28.081 E15.95458
G1 X-35.204 Y27.931 E16.00118
G1 X-36.143 Y27.452 E16.12629
G1 X-36.478 Y27.247 E16.17289
G1 X-37.330 Y26.628 E16.29802
G1 X-37.628 Y26.373 E16.34461
G1 X-38.373 Y25.628 E16.46974
G1 X-38.628 Y25.330 E16.51633
G1 X-39.247 Y24.478 E16.64145
G1 X-39.452 Y24.143 E16.68805
G1 X-39.931 Y23.204 E16.81318
G1 X-40.081 Y22.842 E16.85977
G1 X-40.406 Y21.840 E16.98489
G1 X-40.498 Y21.458 E17.03152
G1 X-40.663 Y20.418 E17.15661
G1 X-40.694 Y20.026 E17.20326
G1 X-40.714 Y19.500 E17.26582
G1 X-40.714 Y-19.500 E21.89766
G1 X-40.663 Y-20.418 E22.00690
G1 X-40.498 Y-21.458 E22.13197
G1 X-40.406 Y-21.840 E22.17863
G1 X-40.081 Y-22.842 E22.30368
G1 X-39.931 Y-23.204 E22.35028
G1 X-39.452 Y-24.143 E22.47541
G1 X-39.247 Y-24.478 E22.52201
G1 X-38.628 Y-25.330 E22.64712
G1 X-38.373 Y-25.628 E22.69375
G1 X-37.628 Y-26.373 E22.81884
G1 X-37.330 Y-26.628 E22.86549
G1 X-36.478 Y-27.247 E22.99056
G1 X-36.143 Y-27.452 E23.03716
G1 X-35.204 Y-27.931 E23.16228
G1 X-34.841 Y-28.081 E23.20896
G1 X-33.840 Y-28.406 E23.33400
G1 X-33.458 Y-28.498 E23.38059
G1 X-32.418 Y-28.663 E23.50572
G1 X-31.500 Y-28.714 E23.61490
G1 X31.440 Y-28.714 E31.08998
G1 E29.08998 F2400.00000
G1 X-31.888 Y-20.041 F7800.000
G1 E31.08998 F2400.00000
G1 F1800
G1 X-31.706 Y-20.133 E31.11418
G1 X-31.428 Y-20.172 E31.14747
G1 X31.428 Y-20.172 E38.61261
G1 X31.710 Y-20.132 E38.64643
G1 X31.891 Y-20.039 E38.67063
G1 X31.971 Y-19.971 E38.68304
G1 X32.093 Y-19.802 E38.70779
G1 X32.158 Y-19.604 E38.73254
G1 X32.172 Y-19.428 E38.75351
G1 X32.172 Y19.428 E43.36829
G1 X32.135 Y19.698 E43.40058
G1 X32.039 Y19.891 E43.42630
G1 X31.888 Y20.041 E43.45159
G1 X31.802 Y20.093 E43.46345
G1 X31.604 Y20.158 E43.48820
G1 X31.428 Y20.172 E43.50917
G1 X-31.428 Y20.172 E50.97431
G1 X-31.706 Y20.133 E51.00760
G1 X-31.891 Y20.039 E51.03235
G1 X-31.971 Y19.971 E51.04476
G1 X-32.093 Y19.802 E51.06950
G1 X-32.158 Y19.604 E51.09425
G1 X-32.172 Y19.428 E51.11522
G1 X-32.172 Y-19.428 E55.73000
G1 X-32.158 Y-19.604 E55.75097
G1 X-32.091 Y-19.806 E55.77626
G1 X-32.039 Y-19.891 E55.78812
G1 X-31.933 Y-20.002 E55.80630
G1 X-32.354 Y-20.582 F7800.000
G1 F1800
G1 X-32.128 Y-20.732 E55.83855
G1 X-31.927 Y-20.815 E55.86431
G1 X-31.716 Y-20.865 E55.89007
G1 X-31.456 Y-20.886 E55.92105
G1 X31.456 Y-20.886 E63.39286
G1 X31.706 Y-20.866 E63.42262
G1 X31.930 Y-20.814 E63.44992
G1 X32.128 Y-20.732 E63.47534
G1 X32.313 Y-20.618 E63.50111
G1 X32.477 Y-20.478 E63.52687
G1 X32.618 Y-20.313 E63.55263
G1 X32.732 Y-20.128 E63.57840
G1 X32.815 Y-19.927 E63.60416
G1 X32.865 Y-19.716 E63.62992
G1 X32.886 Y-19.456 E63.66090
G1 X32.886 Y19.456 E68.28234
G1 X32.865 Y19.716 E68.31332
G1 X32.817 Y19.917 E68.33787
G1 X32.730 Y20.130 E68.36516
G1 X32.618 Y20.313 E68.39059
G1 X32.484 Y20.470 E68.41514
G1 X32.310 Y20.620 E68.44243
G1 X32.128 Y20.732 E68.46786
G1 X31.927 Y20.815 E68.49362
G1 X31.716 Y20.865 E68.51939
G1 X31.456 Y20.886 E68.55036
G1 X-31.456 Y20.886 E76.02217
G1 X-31.716 Y20.865 E76.05315
G1 X-31.927 Y20.815 E76.07891
G1 X-32.128 Y20.732 E76.10468
G1 X-32.313 Y20.618 E76.13044
G1 X-32.478 Y20.478 E76.15620
G1 X-32.618 Y20.313 E76.18196
G1 X-32.732 Y20.128 E76.20773
G1 X-32.815 Y19.927 E76.23349
G1 X-32.865 Y19.716 E76.25925
G1 X-32.886 Y19.456 E76.29023
G1 X-32.886 Y-19.456 E80.91168
G1 X-32.865 Y-19.716 E80.94265
G1 X-32.817 Y-19.917 E80.96720
G1 X-32.730 Y-20.130 E80.99450
G1 X-32.618 Y-20.313 E81.01992
G1 X-32.399 Y-20.543 E81.05765
G1 X-32.821 Y-21.123 F7800.000
G1 F1800
G1 X-32.733 Y-21.198 E81.07143
G1 X-32.453 Y-21.370 E81.11042
G1 X-32.149 Y-21.496 E81.14954
G1 X-31.828 Y-21.573 E81.18865
G1 X-31.484 Y-21.600 E81.22964
G1 X31.484 Y-21.600 E88.70811
G1 X31.816 Y-21.574 E88.74766
G1 X32.149 Y-21.496 E88.78831
G1 X32.453 Y-21.370 E88.82730
G1 X32.734 Y-21.198 E88.86642
G1 X32.984 Y-20.984 E88.90553
G1 X33.198 Y-20.734 E88.94464
G1 X33.370 Y-20.453 E88.98376
G1 X33.496 Y-20.149 E89.02287
G1 X33.573 Y-19.828 E89.06198
G1 X33.600 Y-19.484 E89.10297
G1 X33.600 Y19.484 E93.73108
G1 X33.573 Y19.828 E93.77206
G1 X33.499 Y20.137 E93.80975
G1 X33.369 Y20.454 E93.85039
G1 X33.198 Y20.734 E93.88939
G1 X32.992 Y20.975 E93.92707
G1 X32.733 Y21.198 E93.96772
G1 X32.453 Y21.370 E94.00671
G1 X32.149 Y21.496 E94.04582
G1 X31.828 Y21.573 E94.08493
G1 X31.484 Y21.600 E94.12592
G1 X-31.484 Y21.600 E101.60439
G1 X-31.828 Y21.573 E101.64538
G1 X-32.149 Y21.496 E101.68449
G1 X-32.453 Y21.370 E101.72361
G1 X-32.734 Y21.198 E101.76272
G1 X-32.984 Y20.984 E101.80183
G1 X-33.198 Y20.734 E101.84095
G1 X-33.370 Y20.453 E101.88006
G1 X-33.496 Y20.149 E101.91917
G1 X-33.573 Y19.828 E101.95829
G1 X-33.600 Y19.484 E101.99927
G1 X-33.600 Y-19.484 E106.62738
G1 X-33.573 Y-19.828 E106.66837
G1 X-33.499 Y-20.137 E106.70605
G1 X-33.369 Y-20.454 E106.74670
G1 X-33.198 Y-20.734 E106.78569
G1 X-32.992 Y-20.975 E106.82337
G1 X-32.866 Y-21.083 E106.84311
G1 X-32.710 Y-21.088 F7800.000
G1 E104.84311 F2400.00000
G1 X-31.176 Y-19.725 F7800.000
G1 E106.84311 F2400.00000
G1 F1800
G1 X-31.732 Y-19.169 E106.93719
G1 X-31.735 Y-18.148 E107.05950
G1 X-30.148 Y-19.735 E107.32828
G1 X-29.130 Y-19.735 E107.45015
G1 X-31.735 Y-17.130 E107.89129
G1 X-31.735 Y-16.112 E108.01315
G1 X-28.112 Y-19.735 E108.62664
G1 X-27.094 Y-19.735 E108.74850
G1 X-31.735 Y-15.094 E109.53433
G1 X-31.735 Y-14.076 E109.65620
G1 X-26.076 Y-19.735 E110.61438
G1 X-25.058 Y-19.735 E110.73625
G1 X-31.735 Y-13.058 E111.86677
G1 X-31.735 Y-12.040 E111.98864
G1 X-24.040 Y-19.735 E113.29151
G1 X-23.021 Y-19.735 E113.41338
G1 X-31.735 Y-11.021 E114.88860
G1 X-31.735 Y-10.003 E115.01047
G1 X-22.003 Y-19.735 E116.65803
G1 X-20.985 Y-19.735 E116.77990
G1 X-31.735 Y-8.985 E118.59982
G1 X-31.735 Y-7.967 E118.72169
G1 X-19.967 Y-19.735 E120.71395
G1 X-18.949 Y-19.735 E120.83582
G1 X-31.735 Y-6.949 E123.00043
G1 X-31.735 Y-5.931 E123.12230
G1 X-17.931 Y-19.735 E125.45925
G1 X-16.913 Y-19.735 E125.58112
G1 X-31.735 Y-4.913 E128.09043
G1 X-31.735 Y-3.895 E128.21230
G1 X-15.895 Y-19.735 E130.89395
G1 X-14.877 Y-19.735 E131.01582
G1 X-31.735 Y-2.877 E133.86982
G1 X-31.735 Y-1.859 E133.99169
G1 X-13.859 Y-19.735 E137.01804
G1 X-12.841 Y-19.735 E137.13991
G1 X-31.735 Y-0.841 E140.33861
G1 X-31.735 Y0.177 E140.46047
G1 X-11.823 Y-19.735 E143.83152
G1 X-10.805 Y-19.735 E143.95339
G1 X-31.735 Y1.195 E147.49678
G1 X-31.735 Y2.213 E147.61865
G1 X-9.787 Y-19.735 E151.33439
G1 X-8.769 Y-19.735 E151.45626
G1 X-31.735 Y3.231 E155.34434
G1 X-31.735 Y4.249 E155.46621
G1 X-7.751 Y-19.735 E159.52665
G1 X-6.733 Y-19.735 E159.64852
G1 X-31.735 Y5.267 E163.88130
G1 X-31.735 Y6.285 E164.00317
G1 X-5.715 Y-19.735 E168.40830
G1 X-4.697 Y-19.735 E168.53017
G1 X-31.735 Y7.303 E173.10765
G1 X-31.735 Y8.321 E173.22952
G1 X-3.679 Y-19.735 E177.97934
G1 X-2.661 Y-19.735 E178.10121
G1 X-31.735 Y9.339 E183.02339
G1 X-31.735 Y10.357 E183.14526
G1 X-1.643 Y-19.735 E188.23978
G1 X-0.625 Y-19.735 E188.36165
G1 X-31.735 Y11.375 E193.62852
G1 X-31.735 Y12.393 E193.75039
G1 X0.393 Y-19.735 E199.18960
G1 X1.411 Y-19.735 E199.31147
G1 X-31.735 Y13.411 E204.92304
G1 X-31.735 Y14.429 E205.04491
G1 X2.429 Y-19.735 E210.82882
G1 X3.447 Y-19.735 E210.95069
G1 X-31.735 Y15.447 E216.90695
G1 X-31.735 Y16.465 E217.02882
G1 X4.465 Y-19.735 E223.15743
G1 X5.483 Y-19.735 E223.27930
G1 X-31.735 Y17.483 E229.58025
G1 X-31.735 Y18.501 E229.70212
G1 X6.501 Y-19.735 E236.17543
G1 X7.519 Y-19.735 E236.29729
G1 X-31.735 Y19.519 E242.94295
G1 X-31.725 Y19.732 E242.96842
G1 X-30.933 Y19.735 E243.06317
G1 X8.537 Y-19.735 E249.74543
G1 X9.555 Y-19.735 E249.86730
G1 X-29.915 Y19.735 E256.54956
G1 X-28.897 Y19.735 E256.67143
G1 X10.573 Y-19.735 E263.35368
G1 X11.591 Y-19.735 E263.47555
G1 X-27.879 Y19.735 E270.15781
G1 X-26.861 Y19.735 E270.27968
G1 X12.609 Y-19.735 E276.96194
G1 X13.627 Y-19.735 E277.08381
G1 X-25.843 Y19.735 E283.76607
G1 X-24.825 Y19.735 E283.88794
G1 X14.645 Y-19.735 E290.57019
G1 X15.663 Y-19.735 E290.69206
G1 X-23.807 Y19.735 E297.37432
G1 X-22.789 Y19.735 E297.49619
G1 X16.681 Y-19.735 E304.17845
G1 X17.699 Y-19.735 E304.30032
G1 X-21.771 Y19.735 E310.98258
G1 X-20.753 Y19.735 E311.10445
G1 X18.717 Y-19.735 E317.78671
G1 X19.735 Y-19.735 E317.90857
G1 X-19.735 Y19.735 E324.59083
G1 X-18.717 Y19.735 E324.71270
G1 X20.753 Y-19.735 E331.39496
G1 X21.771 Y-19.735 E331.51683
G1 X-17.699 Y19.735 E338.19909
G1 X-16.681 Y19.735 E338.32096
G1 X22.789 Y-19.735 E345.00322
G1 X23.807 Y-19.735 E345.12508
G1 X-15.663 Y19.735 E351.80734
G1 X-14.645 Y19.735 E351.92921
G1 X24.825 Y-19.735 E358.61147
G1 X25.843 Y-19.735 E358.73334
G1 X-13.627 Y19.735 E365.41560
G1 X-12.609 Y19.735 E365.53747
G1 X26.861 Y-19.735 E372.21972
G1 X27.879 Y-19.735 E372.34159
G1 X-11.591 Y19.735 E379.02385
G1 X-10.573 Y19.735 E379.14572
G1 X28.897 Y-19.735 E385.82798
G1 X29.915 Y-19.735 E385.94985
G1 X-9.555 Y19.735 E392.63211
G1 X-8.537 Y19.735 E392.75398
G1 X30.934 Y-19.735 E399.43623
G1 X31.678 Y-19.735 E399.52534
G1 X31.725 Y-19.732 E399.53100
G1 X31.735 Y-19.519 E399.55648
G1 X-7.519 Y19.735 E406.20213
G1 X-6.501 Y19.735 E406.32399
G1 X31.735 Y-18.501 E412.79730
G1 X31.735 Y-17.483 E412.91916
G1 X-5.483 Y19.735 E419.22012
G1 X-4.465 Y19.735 E419.34199
G1 X31.735 Y-16.465 E425.47059
G1 X31.735 Y-15.447 E425.59246
G1 X-3.447 Y19.735 E431.54872
G1 X-2.429 Y19.735 E431.67059
G1 X31.735 Y-14.429 E437.45450
G1 X31.735 Y-13.411 E437.57637
G1 X-1.411 Y19.735 E443.18793
G1 X-0.393 Y19.735 E443.30980
G1 X31.735 Y-12.393 E448.74902
G1 X31.735 Y-11.375 E448.87088
G1 X0.625 Y19.735 E454.13775
G1 X1.643 Y19.735 E454.25962
G1 X31.735 Y-10.357 E459.35414
G1 X31.735 Y-9.339 E459.47601
G1 X2.661 Y19.735 E464.39818
G1 X3.679 Y19.735 E464.52005
G1 X31.735 Y-8.321 E469.26988
G1 X31.735 Y-7.303 E469.39174
G1 X4.697 Y19.735 E473.96922
G1 X5.715 Y19.735 E474.09109
G1 X31.735 Y-6.285 E478.49622
G1 X31.735 Y-5.267 E478.61809
G1 X6.733 Y19.735 E482.85087
G1 X7.751 Y19.735 E482.97274
G1 X31.735 Y-4.249 E487.03317
