; generated by Slic3r 1.3.0 on 2024-04-16 at 11:52:10

; external perimeters extrusion width = 0.44mm (3.38mm^3/s)
; perimeters extrusion width = 0.48mm (7.54mm^3/s)
; infill extrusion width = 0.48mm (10.05mm^3/s)
; solid infill extrusion width = 0.48mm (2.51mm^3/s)
; top infill extrusion width = 0.48mm (1.88mm^3/s)

M127
;
;
;- - - - SUMMARY - - - -
;
;first layer temperature = 218C
;temperature = 218C
;first layer bed temperature = 64C
;bed temperature = 64C
;
;first layer height = 0.4mm
;layer height = 0.3mm
;z_offset = 0mm
;perimeters = 3
;fill density = 30%
;infill every n layers = 1
;skirts = 1
;brim width = 0mm
;raft layers = 0
;support material = 0
;support material threshold = 60% degrees
;support material enforced for first n layers = 0
;support material extruder = 1
;
;first layer speed = 30
;perimeter speed = 60mm/s
;small perimeter speed = 15
;external perimeter speed = 50%
;infill speed = 80mm/s
;solid infill speed = 20
;top solid infill speed = 15
;support material speed = 60mm/s
;gap fill speed = 20mm/s
;travel speed = 130mm/s
;bridge speed = 60mm/s
;bridge flow ratio = 1
;slowdown if layer time is less than = 5secs
;minimum print speed = 10mm/s
;
;bottom solid layers = 3
;top solid layers = 3
;
;
;- - - - EXTRUSION - - - -
;
;filament diameter = 1.75mm
;nozzle diameter = 0.4mm
;bridge flow ratio = 1
;extrusion axis = E
;extrusion multiplier = 1
;extrusion width = 0mm
;first layer extrusion width = 200%mm
;perimeter extrusion width = 0mm
;infill extrusion width = 0mm
;solid infill extrusion width = 0mm
;top infill extrusion width = 0mm
;support material extrusion width = 0mm
;
;
;- - - - SUPPORT - - - -
;
;raft layers = 0
;brim width = 0mm
;support material = 0
;support material threshold = 60% degrees
;support material enforced for first n layers = 0
;support material extruder = 1
;support material extrusion width = 0mm
;support material interface layers = 3
;support material interface spacing = 0mm
;support material pattern = pillars
;support material angle = 0 degrees
;support material spacing = 2.5mm
;support material speed = 60mm/s
;
;
;- - - - EVERYTHING ELSE - - - -
;
;complete objects = 0
;cooling enabled = 1
;default acceleration = 0mm/s/s
;disable fan for first layers = 3
;duplicate = [duplicate]
;duplicate distance = 6mm
;duplicate grid = [duplicate_grid]
;external perimeters first = 0
;extra perimeters = 1
;extruder clearance height = 20mm
;extruder clearance radius = 20mm
;extruder offset = 0,0mm
;fan always on = 0
;fan below layer time = 60secs
;fill angle = 45 degrees
;fill pattern = rectilinear
;gcode arcs = 0
;gcode comments = 0
;gcode flavor = sailfish
;infill acceleration = 0mm/s/s
;infill extruder = 1
;infill first = 0
;infill only where needed = 0
;minimum skirt length = 0mm
;only retract when crossing perimeters = 1
;perimeter acceleration = 0mm/s/s
;perimeter extruder = 1
;randomize start = [randomize_start]
;resolution = 0mm
;retract before travel = 2
;retract on layer change = 0
;retract length = 2mm
;retract length on tool change = 10mm
;retract lift = 0
;retract extra distance on restart = 0mm
;retract extra on tool change = 0mm
;retract speed = 40mm/s
;rotate = [rotate] degrees
;scale = 100%
;skirt distance = 6mm
;skirt height = 1mm
;solid fill pattern = [solid_fill_pattern]
;solid infill below area = 70mm (sq)
;solid infill every n layers = 0
;
;
;- - - - - - - - - - - - - - - - - - - - - - - - -
;
;
T0; set primary extruder
M73 P0; enable show build progress
;M109 S64 T0; heat bed up to first layer temperature
M140 S64 T0; heat bed up to first layer temperature
M104 S218 T0; set nozzle heater to first layer temperature
M103; disable RPM
G21; set units to mm
G162 X Y F6000; home XY axes maximum
G161 Z F9000; home Z axis minimum
G92 Z0; set Z to 0
M132 X Y Z A B; Recall stored home offsets
G90; set positioning to absolute
G1 Z30; move Z to waiting height
G1 X-95 Y-73 Z30 F14000; move to waiting position (front left corner of print bed)
G130 X0 Y0 A0 B0; set stepper motor vref to lower value while heating
M6 T0; wait for bed and extruder to heat up
G130 X127 Y127 A127 B127; set stepper motor vref to defaults
M108 T0 R3; set extruder speed
G92 E0; set E to 0
G90; use absolute coordinates
M320; acceleration enabled for all commands that follow
G1 Z0.4 F6000.000; move to first layer height
G1 X100 Y-73 F14000.000; move to front right corner of bed
G1 X-90 Y-73 E24 F2000.000; extrude a line of filament across the front edge of the bed
G4 P2000; wait for ooze to slow
G1 Z0 F6000.000; lower nozzle height to 0
G1 X-95; wipe nozzle
G1 Z0.4 F6000.000; set nozzle to first layer height
G1 F12000; ensure fast travel to first print move
G92 E0; set E to 0 again
M73 P0; reset build progress to 0
; Filament gcode

G21 ; set units to millimeters
G90 ; use absolute coordinates
M73 P0
G1 Z0.400 F7800.000
G1 E-2.00000 F2400.00000
G1 X29.500 Y-25.964 F7800.000
G1 E0.00000 F2400.00000
G1 F1800
G1 X30.418 Y-25.913 E0.10919
G1 X31.458 Y-25.748 E0.23431
G1 X31.840 Y-25.656 E0.28093
G1 X32.842 Y-25.331 E0.40603
G1 X33.204 Y-25.181 E0.45262
G1 X34.143 Y-24.702 E0.57775
G1 X34.478 Y-24.497 E0.62436
G1 X35.330 Y-23.878 E0.74946
G1 X35.628 Y-23.623 E0.79605
G1 X36.373 Y-22.878 E0.92119
G1 X36.628 Y-22.580 E0.96780
G1 X37.247 Y-21.728 E1.09291
G1 X37.452 Y-21.393 E1.13953
G1 X37.931 Y-20.455 E1.26461
G1 X38.081 Y-20.092 E1.31123
G1 X38.406 Y-19.090 E1.43636
G1 X38.498 Y-18.708 E1.48297
G1 X38.663 Y-17.668 E1.60805
G1 X38.714 Y-16.750 E1.71724
G1 X38.714 Y16.750 E5.69588
G1 X38.663 Y17.668 E5.80512
G1 X38.498 Y18.708 E5.93018
G1 X38.406 Y19.090 E5.97677
G1 X38.081 Y20.092 E6.10192
G1 X37.931 Y20.454 E6.14851
G1 X37.452 Y21.393 E6.27362
G1 X37.247 Y21.728 E6.32021
G1 X36.628 Y22.580 E6.44534
G1 X36.373 Y22.878 E6.49193
G1 X35.628 Y23.623 E6.61706
G1 X35.330 Y23.878 E6.66369
G1 X34.478 Y24.497 E6.78878
G1 X34.143 Y24.702 E6.83538
G1 X33.204 Y25.181 E6.96050
G1 X32.842 Y25.331 E7.00710
G1 X31.840 Y25.656 E7.13222
G1 X31.458 Y25.748 E7.17881
G1 X30.418 Y25.913 E7.30394
G1 X29.500 Y25.964 E7.41312
G1 X-29.500 Y25.964 E14.42027
G1 X-30.418 Y25.913 E14.52944
G1 X-31.458 Y25.748 E14.65458
G1 X-31.840 Y25.656 E14.70117
G1 X-32.842 Y25.331 E14.82630
G1 X-33.204 Y25.181 E14.87290
G1 X-34.143 Y24.702 E14.99801
G1 X-34.478 Y24.497 E15.04460
G1 X-35.330 Y23.878 E15.16974
G1 X-35.628 Y23.623 E15.21633
G1 X-36.373 Y22.878 E15.34145
G1 X-36.603 Y22.610 E15.38342
G1 X-37.247 Y21.728 E15.51316
G1 X-37.452 Y21.393 E15.55975
G1 X-37.931 Y20.454 E15.68488
G1 X-38.081 Y20.092 E15.73148
G1 X-38.406 Y19.090 E15.85659
G1 X-38.498 Y18.708 E15.90320
G1 X-38.663 Y17.668 E16.02832
G1 X-38.714 Y16.750 E16.13750
G1 X-38.714 Y-16.750 E20.11613
G1 X-38.693 Y-17.277 E20.17874
G1 X-38.663 Y-17.668 E20.22536
G1 X-38.498 Y-18.708 E20.35046
G1 X-38.406 Y-19.090 E20.39708
G1 X-38.081 Y-20.092 E20.52218
G1 X-37.931 Y-20.454 E20.56877
G1 X-37.452 Y-21.393 E20.69390
G1 X-37.247 Y-21.728 E20.74050
G1 X-36.628 Y-22.580 E20.86562
G1 X-36.373 Y-22.878 E20.91223
G1 X-35.628 Y-23.623 E21.03734
G1 X-35.330 Y-23.878 E21.08393
G1 X-34.478 Y-24.497 E21.20906
G1 X-34.143 Y-24.702 E21.25565
G1 X-33.204 Y-25.181 E21.38078
G1 X-32.842 Y-25.331 E21.42738
G1 X-31.840 Y-25.656 E21.55250
G1 X-31.458 Y-25.748 E21.59909
G1 X-30.418 Y-25.913 E21.72421
G1 X-29.500 Y-25.964 E21.83340
G1 X29.440 Y-25.964 E28.83342
G1 E26.83342 F2400.00000
G1 X-29.802 Y-17.343 F7800.000
G1 E28.83342 F2400.00000
G1 F1800
G1 X-29.604 Y-17.408 E28.85817
G1 X-29.428 Y-17.422 E28.87914
G1 X29.428 Y-17.422 E35.86922
G1 X29.578 Y-17.410 E35.88709
G1 X29.802 Y-17.343 E35.91486
G1 X29.971 Y-17.221 E35.93961
G1 X30.093 Y-17.052 E35.96436
G1 X30.159 Y-16.841 E35.99062
G1 X30.172 Y-16.678 E36.01004
G1 X30.172 Y16.678 E39.97160
G1 X30.158 Y16.854 E39.99258
G1 X30.093 Y17.052 E40.01732
G1 X29.971 Y17.221 E40.04207
G1 X29.802 Y17.343 E40.06682
G1 X29.604 Y17.408 E40.09157
G1 X29.428 Y17.422 E40.11254
G1 X-29.428 Y17.422 E47.10262
G1 X-29.604 Y17.408 E47.12359
G1 X-29.802 Y17.343 E47.14834
G1 X-29.971 Y17.221 E47.17309
G1 X-30.098 Y17.040 E47.19935
G1 X-30.152 Y16.880 E47.21945
G1 X-30.172 Y16.665 E47.24504
G1 X-30.172 Y-16.678 E51.20506
G1 X-30.158 Y-16.854 E51.22603
G1 X-30.093 Y-17.052 E51.25078
G1 X-29.961 Y-17.229 E51.27704
G1 X-29.854 Y-17.312 E51.29314
G1 X-30.076 Y-18.003 F7800.000
G1 F1800
G1 X-29.927 Y-18.065 E51.31223
G1 X-29.716 Y-18.115 E51.33799
G1 X-29.456 Y-18.136 E51.36897
G1 X29.456 Y-18.136 E58.36572
G1 X29.685 Y-18.118 E58.39298
G1 X29.935 Y-18.062 E58.42335
G1 X30.128 Y-17.982 E58.44817
G1 X30.313 Y-17.868 E58.47393
G1 X30.478 Y-17.728 E58.49969
G1 X30.618 Y-17.563 E58.52545
G1 X30.732 Y-17.378 E58.55122
G1 X30.803 Y-17.206 E58.57327
G1 X30.866 Y-16.958 E58.60364
G1 X30.886 Y-16.706 E58.63367
G1 X30.886 Y16.706 E62.60190
G1 X30.865 Y16.966 E62.63288
G1 X30.815 Y17.177 E62.65864
G1 X30.732 Y17.378 E62.68441
G1 X30.618 Y17.563 E62.71017
G1 X30.478 Y17.728 E62.73593
G1 X30.313 Y17.868 E62.76169
G1 X30.128 Y17.982 E62.78746
G1 X29.927 Y18.065 E62.81322
G1 X29.716 Y18.115 E62.83898
G1 X29.456 Y18.136 E62.86996
G1 X-29.456 Y18.136 E69.86671
G1 X-29.716 Y18.115 E69.89769
G1 X-29.927 Y18.065 E69.92345
G1 X-30.128 Y17.982 E69.94921
G1 X-30.313 Y17.868 E69.97498
G1 X-30.478 Y17.727 E70.00074
G1 X-30.598 Y17.586 E70.02279
G1 X-30.735 Y17.370 E70.05316
G1 X-30.815 Y17.177 E70.07797
G1 X-30.858 Y16.997 E70.10002
G1 X-30.886 Y16.698 E70.13561
G1 X-30.886 Y-16.706 E74.10290
G1 X-30.865 Y-16.966 E74.13388
G1 X-30.815 Y-17.177 E74.15965
G1 X-30.732 Y-17.378 E74.18541
G1 X-30.635 Y-17.536 E74.20746
G1 X-30.471 Y-17.733 E74.23783
G1 X-30.313 Y-17.868 E74.26264
G1 X-30.131 Y-17.980 E74.28796
G1 X-30.349 Y-18.663 F7800.000
G1 F1800
G1 X-30.149 Y-18.746 E74.31372
G1 X-29.828 Y-18.823 E74.35283
G1 X-29.484 Y-18.850 E74.39382
G1 X29.484 Y-18.850 E81.39723
G1 X29.792 Y-18.826 E81.43390
G1 X30.151 Y-18.745 E81.47762
G1 X30.453 Y-18.620 E81.51639
G1 X30.734 Y-18.448 E81.55550
G1 X30.984 Y-18.234 E81.59462
G1 X31.198 Y-17.984 E81.63373
G1 X31.370 Y-17.703 E81.67284
G1 X31.482 Y-17.432 E81.70764
G1 X31.573 Y-17.075 E81.75136
G1 X31.600 Y-16.734 E81.79200
G1 X31.600 Y16.734 E85.76690
G1 X31.573 Y17.078 E85.80789
G1 X31.496 Y17.399 E85.84700
G1 X31.370 Y17.703 E85.88612
G1 X31.198 Y17.984 E85.92523
G1 X30.984 Y18.234 E85.96434
G1 X30.734 Y18.448 E86.00346
G1 X30.453 Y18.620 E86.04257
G1 X30.149 Y18.746 E86.08168
G1 X29.828 Y18.823 E86.12080
G1 X29.484 Y18.850 E86.16178
G1 X-29.484 Y18.850 E93.16519
G1 X-29.828 Y18.823 E93.20618
G1 X-30.149 Y18.746 E93.24529
G1 X-30.453 Y18.620 E93.28441
G1 X-30.734 Y18.448 E93.32352
G1 X-30.984 Y18.234 E93.36263
G1 X-31.174 Y18.011 E93.39743
G1 X-31.371 Y17.700 E93.44115
G1 X-31.496 Y17.399 E93.47992
G1 X-31.564 Y17.114 E93.51472
G1 X-31.600 Y16.731 E93.56031
G1 X-31.600 Y-16.734 E97.53487
G1 X-31.573 Y-17.078 E97.57586
G1 X-31.496 Y-17.399 E97.61497
G1 X-31.370 Y-17.703 E97.65408
G1 X-31.217 Y-17.953 E97.68888
G1 X-30.982 Y-18.236 E97.73260
G1 X-30.734 Y-18.448 E97.77137
G1 X-30.404 Y-18.640 E97.81664
G1 X-30.172 Y-18.538 F7800.000
G1 E95.81664 F2400.00000
G1 X-29.731 Y-16.426 F7800.000
G1 E97.81664 F2400.00000
G1 F1800
G1 X-29.175 Y-16.981 E97.91035
G1 X-28.157 Y-16.985 E98.03184
G1 X-29.735 Y-15.407 E98.29810
G1 X-29.735 Y-14.392 E98.41911
G1 X-27.143 Y-16.985 E98.85646
G1 X-26.129 Y-16.985 E98.97745
G1 X-29.735 Y-13.378 E99.58590
G1 X-29.735 Y-12.364 E99.70691
G1 X-25.114 Y-16.984 E100.48647
G1 X-24.100 Y-16.984 E100.60746
G1 X-29.735 Y-11.349 E101.55811
G1 X-29.735 Y-10.335 E101.67912
G1 X-23.086 Y-16.984 E102.80088
G1 X-22.072 Y-16.984 E102.92187
G1 X-29.735 Y-9.320 E104.21473
G1 X-29.735 Y-8.306 E104.33574
G1 X-21.057 Y-16.984 E105.79969
G1 X-20.043 Y-16.983 E105.92068
G1 X-29.735 Y-7.291 E107.55574
G1 X-29.735 Y-6.277 E107.67675
G1 X-19.029 Y-16.983 E109.48291
G1 X-18.015 Y-16.983 E109.60389
G1 X-29.735 Y-5.263 E111.58115
G1 X-29.735 Y-4.248 E111.70216
G1 X-17.001 Y-16.983 E113.85052
G1 X-15.986 Y-16.983 E113.97151
G1 X-29.735 Y-3.234 E116.29097
G1 X-29.735 Y-2.219 E116.41198
G1 X-14.972 Y-16.982 E118.90254
G1 X-13.958 Y-16.982 E119.02353
G1 X-29.735 Y-1.205 E121.68519
G1 X-29.735 Y-0.190 E121.80620
G1 X-12.944 Y-16.982 E124.63896
G1 X-11.929 Y-16.982 E124.75994
G1 X-29.735 Y0.824 E127.76380
G1 X-29.735 Y1.838 E127.88482
G1 X-10.915 Y-16.982 E131.05978
G1 X-9.901 Y-16.981 E131.18076
G1 X-29.735 Y2.853 E134.52683
G1 X-29.735 Y3.867 E134.64784
G1 X-8.887 Y-16.981 E138.16500
G1 X-7.872 Y-16.981 E138.28598
G1 X-29.735 Y4.882 E141.97425
G1 X-29.735 Y5.896 E142.09526
G1 X-6.858 Y-16.981 E145.95462
G1 X-5.844 Y-16.981 E146.07561
G1 X-29.735 Y6.911 E150.10607
G1 X-29.735 Y7.925 E150.22708
G1 X-4.830 Y-16.980 E154.42864
G1 X-3.816 Y-16.980 E154.54963
G1 X-29.735 Y8.939 E158.92229
G1 X-29.735 Y9.954 E159.04331
G1 X-2.801 Y-16.980 E163.58707
G1 X-1.787 Y-16.980 E163.70806
G1 X-29.735 Y10.968 E168.42292
G1 X-29.735 Y11.983 E168.54393
G1 X-0.773 Y-16.980 E173.42990
G1 X0.241 Y-16.979 E173.55088
G1 X-29.735 Y12.997 E178.60795
G1 X-29.735 Y14.012 E178.72896
G1 X1.256 Y-16.979 E183.95713
G1 X2.270 Y-16.979 E184.07811
G1 X-29.735 Y15.026 E189.47738
G1 X-29.735 Y16.040 E189.59839
G1 X3.284 Y-16.979 E195.16876
G1 X4.298 Y-16.979 E195.28974
G1 X-29.666 Y16.985 E201.01946
G1 X-28.651 Y16.985 E201.14047
G1 X5.312 Y-16.978 E206.87016
G1 X6.327 Y-16.978 E206.99114
G1 X-27.637 Y16.985 E212.72080
G1 X-26.622 Y16.985 E212.84181
G1 X7.341 Y-16.978 E218.57142
G1 X8.355 Y-16.978 E218.69241
G1 X-25.608 Y16.985 E224.42199
G1 X-24.593 Y16.985 E224.54300
G1 X9.369 Y-16.978 E230.27255
G1 X10.384 Y-16.977 E230.39354
G1 X-23.579 Y16.985 E236.12305
G1 X-22.565 Y16.985 E236.24406
G1 X11.398 Y-16.977 E241.97354
G1 X12.412 Y-16.977 E242.09453
G1 X-21.550 Y16.985 E247.82397
G1 X-20.536 Y16.985 E247.94498
G1 X13.426 Y-16.977 E253.67439
G1 X14.441 Y-16.977 E253.79538
G1 X-19.521 Y16.985 E259.52476
G1 X-18.507 Y16.985 E259.64577
G1 X15.455 Y-16.976 E265.37511
G1 X16.469 Y-16.976 E265.49610
G1 X-17.492 Y16.985 E271.22541
G1 X-16.478 Y16.985 E271.34642
G1 X17.483 Y-16.976 E277.07569
G1 X18.497 Y-16.976 E277.19668
G1 X-15.464 Y16.985 E282.92592
G1 X-14.449 Y16.985 E283.04693
G1 X19.512 Y-16.976 E288.77613
G1 X20.526 Y-16.975 E288.89712
G1 X-13.435 Y16.985 E294.62629
G1 X-12.420 Y16.985 E294.74730
G1 X21.540 Y-16.975 E300.47644
G1 X22.554 Y-16.975 E300.59743
G1 X-11.406 Y16.985 E306.32653
G1 X-10.391 Y16.985 E306.44754
G1 X23.569 Y-16.975 E312.17661
G1 X24.583 Y-16.975 E312.29759
G1 X-9.377 Y16.985 E318.02663
G1 X-8.363 Y16.985 E318.14764
G1 X25.597 Y-16.974 E323.87664
G1 X26.611 Y-16.974 E323.99763
G1 X-7.348 Y16.985 E329.72659
G1 X-6.334 Y16.985 E329.84760
G1 X27.625 Y-16.974 E335.57653
G1 X28.640 Y-16.974 E335.69752
G1 X-5.319 Y16.985 E341.42642
G1 X-4.305 Y16.985 E341.54743
G1 X29.654 Y-16.974 E347.27629
G1 X29.732 Y-16.974 E347.28557
G1 X29.735 Y-16.040 E347.39687
G1 X-3.290 Y16.985 E352.96833
G1 X-2.276 Y16.985 E353.08934
G1 X29.735 Y-15.026 E358.48966
G1 X29.735 Y-14.012 E358.61067
G1 X-1.262 Y16.985 E363.83986
G1 X-0.247 Y16.985 E363.96087
G1 X29.735 Y-12.997 E369.01892
G1 X29.735 Y-11.983 E369.13993
G1 X0.767 Y16.985 E374.02685
G1 X1.782 Y16.985 E374.14786
G1 X29.735 Y-10.968 E378.86364
G1 X29.735 Y-9.954 E378.98465
G1 X2.796 Y16.985 E383.52930
G1 X3.811 Y16.985 E383.65031
G1 X29.735 Y-8.939 E388.02383
G1 X29.735 Y-7.925 E388.14484
G1 X4.825 Y16.985 E392.34721
G1 X5.839 Y16.985 E392.46823
G1 X29.735 Y-6.911 E396.49947
G1 X29.735 Y-5.896 E396.62048
G1 X6.854 Y16.985 E400.48059
G1 X7.868 Y16.985 E400.60160
G1 X29.735 Y-4.882 E404.29058
G1 X29.735 Y-3.867 E404.41159
G1 X8.883 Y16.985 E407.92943
G1 X9.897 Y16.985 E408.05044
G1 X29.735 Y-2.853 E411.39714
G1 X29.735 Y-1.838 E411.51815
G1 X10.912 Y16.985 E414.69373
G1 X11.926 Y16.985 E414.81474
G1 X29.735 Y-0.824 E417.81917
G1 X29.735 Y0.190 E417.94018
G1 X12.940 Y16.985 E420.77349
G1 X13.955 Y16.985 E420.89450
G1 X29.735 Y1.205 E423.55667
G1 X29.735 Y2.219 E423.67768
G1 X14.969 Y16.985 E426.16871
G1 X15.984 Y16.985 E426.28972
G1 X29.735 Y3.234 E428.60962
G1 X29.735 Y4.248 E428.73063
G1 X16.998 Y16.985 E430.87939
G1 X18.013 Y16.985 E431.00040
